%%%
  VERSION:1
  LANGUAGE:ENGLISH
%%%

MODULE Sphere_top_post_RAPID_PROC 
  PROC Proc_Sphere_top_post_RAPID_PROC()
    !ActUnit STN1;
		  ! Start position = (4.0531,-6.6801,29.4404,0,67.2402,90,9E9,9E9,9E9,9E9,9E9,9E9)
    LaserEnd;
    MoveL [[-53.600,200.000,-200.000],[0.707107,0.000000,0.000000,-0.707107],[0,0,1,0],[9E9,9E9,9E9,9E9,9E9,9E9]],v20,fine,claddinghead\WObj:=wFCpivot;
    ! Cutting Move Starts
    LaserStart;
    LaserStart;
    MoveL [[-111.600,200.000,-200.000],[0.707107,0.000000,0.000000,-0.707107],[0,0,1,0],[9E9,9E9,9E9,9E9,9E9,9E9]],v20,z0,claddinghead\WObj:=wFCpivot;
    MoveL [[-150.000,200.000,-200.000],[0.707107,0.000000,0.000000,-0.707107],[0,0,1,0],[9E9,9E9,9E9,9E9,9E9,9E9]],v20,z0,claddinghead\WObj:=wFCpivot;
    MoveL [[-178.000,200.000,-200.000],[0.707107,0.000000,0.000000,-0.707107],[0,0,1,0],[9E9,9E9,9E9,9E9,9E9,9E9]],v20,z0,claddinghead\WObj:=wFCpivot;
    MoveL [[-200.000,200.000,-200.000],[0.707107,0.000000,0.000000,-0.707107],[0,0,1,0],[9E9,9E9,9E9,9E9,9E9,9E9]],v20,z0,claddinghead\WObj:=wFCpivot;
    MoveL [[-200.000,177.600,-200.000],[0.707107,0.000000,0.000000,-0.707107],[0,0,1,0],[9E9,9E9,9E9,9E9,9E9,9E9]],v20,z0,claddinghead\WObj:=wFCpivot;
    MoveL [[-200.000,134.400,-200.000],[0.707107,0.000000,0.000000,-0.707107],[0,0,1,0],[9E9,9E9,9E9,9E9,9E9,9E9]],v20,z0,claddinghead\WObj:=wFCpivot;
    MoveL [[-200.000,81.600,-200.000],[0.707107,0.000000,0.000000,-0.707107],[0,0,1,0],[9E9,9E9,9E9,9E9,9E9,9E9]],v20,z0,claddinghead\WObj:=wFCpivot;
    MoveL [[-200.000,5.200,-200.000],[0.707107,0.000000,0.000000,-0.707107],[0,0,1,0],[9E9,9E9,9E9,9E9,9E9,9E9]],v20,z0,claddinghead\WObj:=wFCpivot;
    MoveL [[-200.000,-72.400,-200.000],[0.707107,0.000000,0.000000,-0.707107],[0,0,1,0],[9E9,9E9,9E9,9E9,9E9,9E9]],v20,z0,claddinghead\WObj:=wFCpivot;
    MoveL [[-200.000,-125.600,-200.000],[0.707107,0.000000,0.000000,-0.707107],[0,0,1,0],[9E9,9E9,9E9,9E9,9E9,9E9]],v20,z0,claddinghead\WObj:=wFCpivot;
    MoveL [[-200.000,-169.600,-200.000],[0.707107,0.000000,0.000000,-0.707107],[0,0,1,0],[9E9,9E9,9E9,9E9,9E9,9E9]],v20,z0,claddinghead\WObj:=wFCpivot;
    MoveL [[-200.000,-200.000,-200.000],[0.707107,0.000000,0.000000,-0.707107],[0,0,1,0],[9E9,9E9,9E9,9E9,9E9,9E9]],v20,z0,claddinghead\WObj:=wFCpivot;
    MoveL [[-170.800,-200.000,-200.000],[0.707107,0.000000,0.000000,-0.707107],[0,0,1,0],[9E9,9E9,9E9,9E9,9E9,9E9]],v20,z0,claddinghead\WObj:=wFCpivot;
    MoveL [[-130.800,-200.000,-200.000],[0.707107,0.000000,0.000000,-0.707107],[0,0,1,0],[9E9,9E9,9E9,9E9,9E9,9E9]],v20,z0,claddinghead\WObj:=wFCpivot;
    MoveL [[-79.600,-200.000,-200.000],[0.707107,0.000000,0.000000,-0.707107],[0,0,1,0],[9E9,9E9,9E9,9E9,9E9,9E9]],v20,z0,claddinghead\WObj:=wFCpivot;
    MoveL [[-5.200,-200.000,-200.000],[0.707107,0.000000,0.000000,-0.707107],[0,0,1,0],[9E9,9E9,9E9,9E9,9E9,9E9]],v20,z0,claddinghead\WObj:=wFCpivot;
    MoveL [[85.600,-200.000,-200.000],[0.707107,0.000000,0.000000,-0.707107],[0,0,1,0],[9E9,9E9,9E9,9E9,9E9,9E9]],v20,z0,claddinghead\WObj:=wFCpivot;
    MoveL [[134.000,-200.000,-200.000],[0.707107,0.000000,0.000000,-0.707107],[0,0,1,0],[9E9,9E9,9E9,9E9,9E9,9E9]],v20,z0,claddinghead\WObj:=wFCpivot;
    MoveL [[175.600,-200.000,-200.000],[0.707107,0.000000,0.000000,-0.707107],[0,0,1,0],[9E9,9E9,9E9,9E9,9E9,9E9]],v20,z0,claddinghead\WObj:=wFCpivot;
    MoveL [[200.000,-200.000,-200.000],[0.707107,0.000000,0.000000,-0.707107],[0,0,1,0],[9E9,9E9,9E9,9E9,9E9,9E9]],v20,z0,claddinghead\WObj:=wFCpivot;
    MoveL [[200.000,-177.600,-200.000],[0.707107,0.000000,0.000000,-0.707107],[0,0,1,0],[9E9,9E9,9E9,9E9,9E9,9E9]],v20,z0,claddinghead\WObj:=wFCpivot;
    MoveL [[200.000,-148.400,-200.000],[0.707107,0.000000,0.000000,-0.707107],[0,0,1,0],[9E9,9E9,9E9,9E9,9E9,9E9]],v20,z0,claddinghead\WObj:=wFCpivot;
    MoveL [[200.000,-109.200,-200.000],[0.707107,0.000000,0.000000,-0.707107],[0,0,1,0],[9E9,9E9,9E9,9E9,9E9,9E9]],v20,z0,claddinghead\WObj:=wFCpivot;
    MoveL [[200.000,-53.200,-200.000],[0.707107,0.000000,0.000000,-0.707107],[0,0,1,0],[9E9,9E9,9E9,9E9,9E9,9E9]],v20,z0,claddinghead\WObj:=wFCpivot;
    MoveL [[200.000,30.400,-200.000],[0.707107,0.000000,0.000000,-0.707107],[0,0,1,0],[9E9,9E9,9E9,9E9,9E9,9E9]],v20,z0,claddinghead\WObj:=wFCpivot;
    MoveL [[200.000,96.400,-200.000],[0.707107,0.000000,0.000000,-0.707107],[0,0,1,0],[9E9,9E9,9E9,9E9,9E9,9E9]],v20,z0,claddinghead\WObj:=wFCpivot;
    MoveL [[200.000,143.200,-200.000],[0.707107,0.000000,0.000000,-0.707107],[0,0,1,0],[9E9,9E9,9E9,9E9,9E9,9E9]],v20,z0,claddinghead\WObj:=wFCpivot;
    MoveL [[200.000,175.600,-200.000],[0.707107,0.000000,0.000000,-0.707107],[0,0,1,0],[9E9,9E9,9E9,9E9,9E9,9E9]],v20,z0,claddinghead\WObj:=wFCpivot;
    MoveL [[200.000,200.000,-200.000],[0.707107,0.000000,0.000000,-0.707107],[0,0,1,0],[9E9,9E9,9E9,9E9,9E9,9E9]],v20,z0,claddinghead\WObj:=wFCpivot;
    MoveL [[176.000,200.000,-200.000],[0.707107,0.000000,0.000000,-0.707107],[0,0,1,0],[9E9,9E9,9E9,9E9,9E9,9E9]],v20,z0,claddinghead\WObj:=wFCpivot;
    MoveL [[144.000,200.000,-200.000],[0.707107,0.000000,0.000000,-0.707107],[0,0,1,0],[9E9,9E9,9E9,9E9,9E9,9E9]],v20,z0,claddinghead\WObj:=wFCpivot;
    MoveL [[98.000,200.000,-200.000],[0.707107,0.000000,0.000000,-0.707107],[0,0,1,0],[9E9,9E9,9E9,9E9,9E9,9E9]],v20,z0,claddinghead\WObj:=wFCpivot;
    MoveL [[33.200,200.000,-200.000],[0.707107,0.000000,0.000000,-0.707107],[0,0,1,0],[9E9,9E9,9E9,9E9,9E9,9E9]],v20,z0,claddinghead\WObj:=wFCpivot;
    MoveL [[-53.600,200.000,-200.000],[0.707107,0.000000,0.000000,-0.707107],[0,0,1,0],[9E9,9E9,9E9,9E9,9E9,9E9]],v20,fine,claddinghead\WObj:=wFCpivot;
    LaserEnd;
    MoveL [[198.400,-195.000,-200.000],[0.707107,0.000000,0.000000,-0.707107],[0,0,1,0],[9E9,9E9,9E9,9E9,9E9,9E9]],v20,fine,claddinghead\WObj:=wFCpivot;
    LaserStart;
    MoveL [[-198.400,-195.000,-200.000],[0.707107,0.000000,0.000000,-0.707107],[0,0,1,0],[9E9,9E9,9E9,9E9,9E9,9E9]],v20,fine,claddinghead\WObj:=wFCpivot;
    LaserEnd;
    MoveL [[-198.400,-190.000,-200.000],[0.707107,0.000000,0.000000,-0.707107],[0,0,1,0],[9E9,9E9,9E9,9E9,9E9,9E9]],v20,fine,claddinghead\WObj:=wFCpivot;
    LaserStart;
    MoveL [[198.400,-190.000,-200.000],[0.707107,0.000000,0.000000,-0.707107],[0,0,1,0],[9E9,9E9,9E9,9E9,9E9,9E9]],v20,fine,claddinghead\WObj:=wFCpivot;
    LaserEnd;
    MoveL [[198.400,-185.000,-200.000],[0.707107,0.000000,0.000000,-0.707107],[0,0,1,0],[9E9,9E9,9E9,9E9,9E9,9E9]],v20,fine,claddinghead\WObj:=wFCpivot;
    LaserStart;
    MoveL [[-198.400,-185.000,-200.000],[0.707107,0.000000,0.000000,-0.707107],[0,0,1,0],[9E9,9E9,9E9,9E9,9E9,9E9]],v20,fine,claddinghead\WObj:=wFCpivot;
    LaserEnd;
    MoveL [[-198.400,-180.000,-200.000],[0.707107,0.000000,0.000000,-0.707107],[0,0,1,0],[9E9,9E9,9E9,9E9,9E9,9E9]],v20,fine,claddinghead\WObj:=wFCpivot;
    LaserStart;
    MoveL [[198.400,-180.000,-200.000],[0.707107,0.000000,0.000000,-0.707107],[0,0,1,0],[9E9,9E9,9E9,9E9,9E9,9E9]],v20,fine,claddinghead\WObj:=wFCpivot;
    LaserEnd;
    MoveL [[198.400,-175.000,-200.000],[0.707107,0.000000,0.000000,-0.707107],[0,0,1,0],[9E9,9E9,9E9,9E9,9E9,9E9]],v20,fine,claddinghead\WObj:=wFCpivot;
    LaserStart;
    MoveL [[-198.400,-175.000,-200.000],[0.707107,0.000000,0.000000,-0.707107],[0,0,1,0],[9E9,9E9,9E9,9E9,9E9,9E9]],v20,fine,claddinghead\WObj:=wFCpivot;
    LaserEnd;
    MoveL [[-198.400,-170.000,-200.000],[0.707107,0.000000,0.000000,-0.707107],[0,0,1,0],[9E9,9E9,9E9,9E9,9E9,9E9]],v20,fine,claddinghead\WObj:=wFCpivot;
    LaserStart;
    MoveL [[198.400,-170.000,-200.000],[0.707107,0.000000,0.000000,-0.707107],[0,0,1,0],[9E9,9E9,9E9,9E9,9E9,9E9]],v20,fine,claddinghead\WObj:=wFCpivot;
    LaserEnd;
    MoveL [[198.400,-165.000,-200.000],[0.707107,0.000000,0.000000,-0.707107],[0,0,1,0],[9E9,9E9,9E9,9E9,9E9,9E9]],v20,fine,claddinghead\WObj:=wFCpivot;
    LaserStart;
    MoveL [[-198.400,-165.000,-200.000],[0.707107,0.000000,0.000000,-0.707107],[0,0,1,0],[9E9,9E9,9E9,9E9,9E9,9E9]],v20,fine,claddinghead\WObj:=wFCpivot;
    LaserEnd;
    MoveL [[-198.400,-160.000,-200.000],[0.707107,0.000000,0.000000,-0.707107],[0,0,1,0],[9E9,9E9,9E9,9E9,9E9,9E9]],v20,fine,claddinghead\WObj:=wFCpivot;
    LaserStart;
    MoveL [[198.400,-160.000,-200.000],[0.707107,0.000000,0.000000,-0.707107],[0,0,1,0],[9E9,9E9,9E9,9E9,9E9,9E9]],v20,fine,claddinghead\WObj:=wFCpivot;
    LaserEnd;
    MoveL [[198.400,-155.000,-200.000],[0.707107,0.000000,0.000000,-0.707107],[0,0,1,0],[9E9,9E9,9E9,9E9,9E9,9E9]],v20,fine,claddinghead\WObj:=wFCpivot;
    LaserStart;
    MoveL [[-198.400,-155.000,-200.000],[0.707107,0.000000,0.000000,-0.707107],[0,0,1,0],[9E9,9E9,9E9,9E9,9E9,9E9]],v20,fine,claddinghead\WObj:=wFCpivot;
    LaserEnd;
    MoveL [[-198.400,-150.000,-200.000],[0.707107,0.000000,0.000000,-0.707107],[0,0,1,0],[9E9,9E9,9E9,9E9,9E9,9E9]],v20,fine,claddinghead\WObj:=wFCpivot;
    LaserStart;
    MoveL [[198.400,-150.000,-200.000],[0.707107,0.000000,0.000000,-0.707107],[0,0,1,0],[9E9,9E9,9E9,9E9,9E9,9E9]],v20,fine,claddinghead\WObj:=wFCpivot;
    LaserEnd;
    MoveL [[198.400,-145.000,-200.000],[0.707107,0.000000,0.000000,-0.707107],[0,0,1,0],[9E9,9E9,9E9,9E9,9E9,9E9]],v20,fine,claddinghead\WObj:=wFCpivot;
    LaserStart;
    MoveL [[-198.400,-145.000,-200.000],[0.707107,0.000000,0.000000,-0.707107],[0,0,1,0],[9E9,9E9,9E9,9E9,9E9,9E9]],v20,fine,claddinghead\WObj:=wFCpivot;
    LaserEnd;
    MoveL [[-198.400,-140.000,-200.000],[0.707107,0.000000,0.000000,-0.707107],[0,0,1,0],[9E9,9E9,9E9,9E9,9E9,9E9]],v20,fine,claddinghead\WObj:=wFCpivot;
    LaserStart;
    MoveL [[198.400,-140.000,-200.000],[0.707107,0.000000,0.000000,-0.707107],[0,0,1,0],[9E9,9E9,9E9,9E9,9E9,9E9]],v20,fine,claddinghead\WObj:=wFCpivot;
    LaserEnd;
    MoveL [[198.400,-135.000,-200.000],[0.707107,0.000000,0.000000,-0.707107],[0,0,1,0],[9E9,9E9,9E9,9E9,9E9,9E9]],v20,fine,claddinghead\WObj:=wFCpivot;
    LaserStart;
    MoveL [[-198.400,-135.000,-200.000],[0.707107,0.000000,0.000000,-0.707107],[0,0,1,0],[9E9,9E9,9E9,9E9,9E9,9E9]],v20,fine,claddinghead\WObj:=wFCpivot;
    LaserEnd;
    MoveL [[-198.400,-130.000,-200.000],[0.707107,0.000000,0.000000,-0.707107],[0,0,1,0],[9E9,9E9,9E9,9E9,9E9,9E9]],v20,fine,claddinghead\WObj:=wFCpivot;
    LaserStart;
    MoveL [[198.400,-130.000,-200.000],[0.707107,0.000000,0.000000,-0.707107],[0,0,1,0],[9E9,9E9,9E9,9E9,9E9,9E9]],v20,fine,claddinghead\WObj:=wFCpivot;
    LaserEnd;
    MoveL [[198.400,-125.000,-200.000],[0.707107,0.000000,0.000000,-0.707107],[0,0,1,0],[9E9,9E9,9E9,9E9,9E9,9E9]],v20,fine,claddinghead\WObj:=wFCpivot;
    LaserStart;
    MoveL [[-198.400,-125.000,-200.000],[0.707107,0.000000,0.000000,-0.707107],[0,0,1,0],[9E9,9E9,9E9,9E9,9E9,9E9]],v20,fine,claddinghead\WObj:=wFCpivot;
    LaserEnd;
    MoveL [[-198.400,-120.000,-200.000],[0.707107,0.000000,0.000000,-0.707107],[0,0,1,0],[9E9,9E9,9E9,9E9,9E9,9E9]],v20,fine,claddinghead\WObj:=wFCpivot;
    LaserStart;
    MoveL [[198.400,-120.000,-200.000],[0.707107,0.000000,0.000000,-0.707107],[0,0,1,0],[9E9,9E9,9E9,9E9,9E9,9E9]],v20,fine,claddinghead\WObj:=wFCpivot;
    LaserEnd;
    MoveL [[198.400,-115.000,-200.000],[0.707107,0.000000,0.000000,-0.707107],[0,0,1,0],[9E9,9E9,9E9,9E9,9E9,9E9]],v20,fine,claddinghead\WObj:=wFCpivot;
    LaserStart;
    MoveL [[-198.400,-115.000,-200.000],[0.707107,0.000000,0.000000,-0.707107],[0,0,1,0],[9E9,9E9,9E9,9E9,9E9,9E9]],v20,fine,claddinghead\WObj:=wFCpivot;
    LaserEnd;
    MoveL [[-198.400,-110.000,-200.000],[0.707107,0.000000,0.000000,-0.707107],[0,0,1,0],[9E9,9E9,9E9,9E9,9E9,9E9]],v20,fine,claddinghead\WObj:=wFCpivot;
    LaserStart;
    MoveL [[198.400,-110.000,-200.000],[0.707107,0.000000,0.000000,-0.707107],[0,0,1,0],[9E9,9E9,9E9,9E9,9E9,9E9]],v20,fine,claddinghead\WObj:=wFCpivot;
    LaserEnd;
    MoveL [[198.400,-105.000,-200.000],[0.707107,0.000000,0.000000,-0.707107],[0,0,1,0],[9E9,9E9,9E9,9E9,9E9,9E9]],v20,fine,claddinghead\WObj:=wFCpivot;
    LaserStart;
    MoveL [[-198.400,-105.000,-200.000],[0.707107,0.000000,0.000000,-0.707107],[0,0,1,0],[9E9,9E9,9E9,9E9,9E9,9E9]],v20,fine,claddinghead\WObj:=wFCpivot;
    LaserEnd;
    MoveL [[-198.400,-100.000,-200.000],[0.707107,0.000000,0.000000,-0.707107],[0,0,1,0],[9E9,9E9,9E9,9E9,9E9,9E9]],v20,fine,claddinghead\WObj:=wFCpivot;
    LaserStart;
    MoveL [[198.400,-100.000,-200.000],[0.707107,0.000000,0.000000,-0.707107],[0,0,1,0],[9E9,9E9,9E9,9E9,9E9,9E9]],v20,fine,claddinghead\WObj:=wFCpivot;
    LaserEnd;
    MoveL [[198.400,-95.000,-200.000],[0.707107,0.000000,0.000000,-0.707107],[0,0,1,0],[9E9,9E9,9E9,9E9,9E9,9E9]],v20,fine,claddinghead\WObj:=wFCpivot;
    LaserStart;
    MoveL [[-198.400,-95.000,-200.000],[0.707107,0.000000,0.000000,-0.707107],[0,0,1,0],[9E9,9E9,9E9,9E9,9E9,9E9]],v20,fine,claddinghead\WObj:=wFCpivot;
    LaserEnd;
    MoveL [[-198.400,-90.000,-200.000],[0.707107,0.000000,0.000000,-0.707107],[0,0,1,0],[9E9,9E9,9E9,9E9,9E9,9E9]],v20,fine,claddinghead\WObj:=wFCpivot;
    LaserStart;
    MoveL [[198.400,-90.000,-200.000],[0.707107,0.000000,0.000000,-0.707107],[0,0,1,0],[9E9,9E9,9E9,9E9,9E9,9E9]],v20,fine,claddinghead\WObj:=wFCpivot;
    LaserEnd;
    MoveL [[198.400,-85.000,-200.000],[0.707107,0.000000,0.000000,-0.707107],[0,0,1,0],[9E9,9E9,9E9,9E9,9E9,9E9]],v20,fine,claddinghead\WObj:=wFCpivot;
    LaserStart;
    MoveL [[-198.400,-85.000,-200.000],[0.707107,0.000000,0.000000,-0.707107],[0,0,1,0],[9E9,9E9,9E9,9E9,9E9,9E9]],v20,fine,claddinghead\WObj:=wFCpivot;
    LaserEnd;
    MoveL [[-198.400,-80.000,-200.000],[0.707107,0.000000,0.000000,-0.707107],[0,0,1,0],[9E9,9E9,9E9,9E9,9E9,9E9]],v20,fine,claddinghead\WObj:=wFCpivot;
    LaserStart;
    MoveL [[198.400,-80.000,-200.000],[0.707107,0.000000,0.000000,-0.707107],[0,0,1,0],[9E9,9E9,9E9,9E9,9E9,9E9]],v20,fine,claddinghead\WObj:=wFCpivot;
    LaserEnd;
    MoveL [[198.400,-75.000,-200.000],[0.707107,0.000000,0.000000,-0.707107],[0,0,1,0],[9E9,9E9,9E9,9E9,9E9,9E9]],v20,fine,claddinghead\WObj:=wFCpivot;
    LaserStart;
    MoveL [[-198.400,-75.000,-200.000],[0.707107,0.000000,0.000000,-0.707107],[0,0,1,0],[9E9,9E9,9E9,9E9,9E9,9E9]],v20,fine,claddinghead\WObj:=wFCpivot;
    LaserEnd;
    MoveL [[-198.400,-70.000,-200.000],[0.707107,0.000000,0.000000,-0.707107],[0,0,1,0],[9E9,9E9,9E9,9E9,9E9,9E9]],v20,fine,claddinghead\WObj:=wFCpivot;
    LaserStart;
    MoveL [[198.400,-70.000,-200.000],[0.707107,0.000000,0.000000,-0.707107],[0,0,1,0],[9E9,9E9,9E9,9E9,9E9,9E9]],v20,fine,claddinghead\WObj:=wFCpivot;
    LaserEnd;
    MoveL [[198.400,-65.000,-200.000],[0.707107,0.000000,0.000000,-0.707107],[0,0,1,0],[9E9,9E9,9E9,9E9,9E9,9E9]],v20,fine,claddinghead\WObj:=wFCpivot;
    LaserStart;
    MoveL [[-198.400,-65.000,-200.000],[0.707107,0.000000,0.000000,-0.707107],[0,0,1,0],[9E9,9E9,9E9,9E9,9E9,9E9]],v20,fine,claddinghead\WObj:=wFCpivot;
    LaserEnd;
    MoveL [[-198.400,-60.000,-200.000],[0.707107,0.000000,0.000000,-0.707107],[0,0,1,0],[9E9,9E9,9E9,9E9,9E9,9E9]],v20,fine,claddinghead\WObj:=wFCpivot;
    LaserStart;
    MoveL [[198.400,-60.000,-200.000],[0.707107,0.000000,0.000000,-0.707107],[0,0,1,0],[9E9,9E9,9E9,9E9,9E9,9E9]],v20,fine,claddinghead\WObj:=wFCpivot;
    LaserEnd;
    MoveL [[198.400,-55.000,-200.000],[0.707107,0.000000,0.000000,-0.707107],[0,0,1,0],[9E9,9E9,9E9,9E9,9E9,9E9]],v20,fine,claddinghead\WObj:=wFCpivot;
    LaserStart;
    MoveL [[-198.400,-55.000,-200.000],[0.707107,0.000000,0.000000,-0.707107],[0,0,1,0],[9E9,9E9,9E9,9E9,9E9,9E9]],v20,fine,claddinghead\WObj:=wFCpivot;
    LaserEnd;
    MoveL [[-198.400,-50.000,-200.000],[0.707107,0.000000,0.000000,-0.707107],[0,0,1,0],[9E9,9E9,9E9,9E9,9E9,9E9]],v20,fine,claddinghead\WObj:=wFCpivot;
    LaserStart;
    MoveL [[198.400,-50.000,-200.000],[0.707107,0.000000,0.000000,-0.707107],[0,0,1,0],[9E9,9E9,9E9,9E9,9E9,9E9]],v20,fine,claddinghead\WObj:=wFCpivot;
    LaserEnd;
    MoveL [[198.400,-45.000,-200.000],[0.707107,0.000000,0.000000,-0.707107],[0,0,1,0],[9E9,9E9,9E9,9E9,9E9,9E9]],v20,fine,claddinghead\WObj:=wFCpivot;
    LaserStart;
    MoveL [[-198.400,-45.000,-200.000],[0.707107,0.000000,0.000000,-0.707107],[0,0,1,0],[9E9,9E9,9E9,9E9,9E9,9E9]],v20,fine,claddinghead\WObj:=wFCpivot;
    LaserEnd;
    MoveL [[-198.400,-40.000,-200.000],[0.707107,0.000000,0.000000,-0.707107],[0,0,1,0],[9E9,9E9,9E9,9E9,9E9,9E9]],v20,fine,claddinghead\WObj:=wFCpivot;
    LaserStart;
    MoveL [[198.400,-40.000,-200.000],[0.707107,0.000000,0.000000,-0.707107],[0,0,1,0],[9E9,9E9,9E9,9E9,9E9,9E9]],v20,fine,claddinghead\WObj:=wFCpivot;
    LaserEnd;
    MoveL [[198.400,-35.000,-200.000],[0.707107,0.000000,0.000000,-0.707107],[0,0,1,0],[9E9,9E9,9E9,9E9,9E9,9E9]],v20,fine,claddinghead\WObj:=wFCpivot;
    LaserStart;
    MoveL [[-198.400,-35.000,-200.000],[0.707107,0.000000,0.000000,-0.707107],[0,0,1,0],[9E9,9E9,9E9,9E9,9E9,9E9]],v20,fine,claddinghead\WObj:=wFCpivot;
    LaserEnd;
    MoveL [[-198.400,-30.000,-200.000],[0.707107,0.000000,0.000000,-0.707107],[0,0,1,0],[9E9,9E9,9E9,9E9,9E9,9E9]],v20,fine,claddinghead\WObj:=wFCpivot;
    LaserStart;
    MoveL [[198.400,-30.000,-200.000],[0.707107,0.000000,0.000000,-0.707107],[0,0,1,0],[9E9,9E9,9E9,9E9,9E9,9E9]],v20,fine,claddinghead\WObj:=wFCpivot;
    LaserEnd;
    MoveL [[198.400,-25.000,-200.000],[0.707107,0.000000,0.000000,-0.707107],[0,0,1,0],[9E9,9E9,9E9,9E9,9E9,9E9]],v20,fine,claddinghead\WObj:=wFCpivot;
    LaserStart;
    MoveL [[-198.400,-25.000,-200.000],[0.707107,0.000000,0.000000,-0.707107],[0,0,1,0],[9E9,9E9,9E9,9E9,9E9,9E9]],v20,fine,claddinghead\WObj:=wFCpivot;
    LaserEnd;
    MoveL [[-198.400,-20.000,-200.000],[0.707107,0.000000,0.000000,-0.707107],[0,0,1,0],[9E9,9E9,9E9,9E9,9E9,9E9]],v20,fine,claddinghead\WObj:=wFCpivot;
    LaserStart;
    MoveL [[198.400,-20.000,-200.000],[0.707107,0.000000,0.000000,-0.707107],[0,0,1,0],[9E9,9E9,9E9,9E9,9E9,9E9]],v20,fine,claddinghead\WObj:=wFCpivot;
    LaserEnd;
    MoveL [[198.400,-15.000,-200.000],[0.707107,0.000000,0.000000,-0.707107],[0,0,1,0],[9E9,9E9,9E9,9E9,9E9,9E9]],v20,fine,claddinghead\WObj:=wFCpivot;
    LaserStart;
    MoveL [[-198.400,-15.000,-200.000],[0.707107,0.000000,0.000000,-0.707107],[0,0,1,0],[9E9,9E9,9E9,9E9,9E9,9E9]],v20,fine,claddinghead\WObj:=wFCpivot;
    LaserEnd;
    MoveL [[-198.400,-10.000,-200.000],[0.707107,0.000000,0.000000,-0.707107],[0,0,1,0],[9E9,9E9,9E9,9E9,9E9,9E9]],v20,fine,claddinghead\WObj:=wFCpivot;
    LaserStart;
    MoveL [[198.400,-10.000,-200.000],[0.707107,0.000000,0.000000,-0.707107],[0,0,1,0],[9E9,9E9,9E9,9E9,9E9,9E9]],v20,fine,claddinghead\WObj:=wFCpivot;
    LaserEnd;
    MoveL [[198.400,-5.000,-200.000],[0.707107,0.000000,0.000000,-0.707107],[0,0,1,0],[9E9,9E9,9E9,9E9,9E9,9E9]],v20,fine,claddinghead\WObj:=wFCpivot;
    LaserStart;
    MoveL [[-198.400,-5.000,-200.000],[0.707107,0.000000,0.000000,-0.707107],[0,0,1,0],[9E9,9E9,9E9,9E9,9E9,9E9]],v20,fine,claddinghead\WObj:=wFCpivot;
    LaserEnd;
    MoveL [[-198.400,0.000,-200.000],[0.707107,0.000000,0.000000,-0.707107],[0,0,1,0],[9E9,9E9,9E9,9E9,9E9,9E9]],v20,fine,claddinghead\WObj:=wFCpivot;
    LaserStart;
    MoveL [[198.400,0.000,-200.000],[0.707107,0.000000,0.000000,-0.707107],[0,0,1,0],[9E9,9E9,9E9,9E9,9E9,9E9]],v20,fine,claddinghead\WObj:=wFCpivot;
    LaserEnd;
    MoveL [[198.400,5.000,-200.000],[0.707107,0.000000,0.000000,-0.707107],[0,0,1,0],[9E9,9E9,9E9,9E9,9E9,9E9]],v20,fine,claddinghead\WObj:=wFCpivot;
    LaserStart;
    MoveL [[-198.400,5.000,-200.000],[0.707107,0.000000,0.000000,-0.707107],[0,0,1,0],[9E9,9E9,9E9,9E9,9E9,9E9]],v20,fine,claddinghead\WObj:=wFCpivot;
    LaserEnd;
    MoveL [[-198.400,10.000,-200.000],[0.707107,0.000000,0.000000,-0.707107],[0,0,1,0],[9E9,9E9,9E9,9E9,9E9,9E9]],v20,fine,claddinghead\WObj:=wFCpivot;
    LaserStart;
    MoveL [[198.400,10.000,-200.000],[0.707107,0.000000,0.000000,-0.707107],[0,0,1,0],[9E9,9E9,9E9,9E9,9E9,9E9]],v20,fine,claddinghead\WObj:=wFCpivot;
    LaserEnd;
    MoveL [[198.400,15.000,-200.000],[0.707107,0.000000,0.000000,-0.707107],[0,0,1,0],[9E9,9E9,9E9,9E9,9E9,9E9]],v20,fine,claddinghead\WObj:=wFCpivot;
    LaserStart;
    MoveL [[-198.400,15.000,-200.000],[0.707107,0.000000,0.000000,-0.707107],[0,0,1,0],[9E9,9E9,9E9,9E9,9E9,9E9]],v20,fine,claddinghead\WObj:=wFCpivot;
    LaserEnd;
    MoveL [[-198.400,20.000,-200.000],[0.707107,0.000000,0.000000,-0.707107],[0,0,1,0],[9E9,9E9,9E9,9E9,9E9,9E9]],v20,fine,claddinghead\WObj:=wFCpivot;
    LaserStart;
    MoveL [[198.400,20.000,-200.000],[0.707107,0.000000,0.000000,-0.707107],[0,0,1,0],[9E9,9E9,9E9,9E9,9E9,9E9]],v20,fine,claddinghead\WObj:=wFCpivot;
    LaserEnd;
    MoveL [[198.400,25.000,-200.000],[0.707107,0.000000,0.000000,-0.707107],[0,0,1,0],[9E9,9E9,9E9,9E9,9E9,9E9]],v20,fine,claddinghead\WObj:=wFCpivot;
    LaserStart;
    MoveL [[-198.400,25.000,-200.000],[0.707107,0.000000,0.000000,-0.707107],[0,0,1,0],[9E9,9E9,9E9,9E9,9E9,9E9]],v20,fine,claddinghead\WObj:=wFCpivot;
    LaserEnd;
    MoveL [[-198.400,30.000,-200.000],[0.707107,0.000000,0.000000,-0.707107],[0,0,1,0],[9E9,9E9,9E9,9E9,9E9,9E9]],v20,fine,claddinghead\WObj:=wFCpivot;
    LaserStart;
    MoveL [[198.400,30.000,-200.000],[0.707107,0.000000,0.000000,-0.707107],[0,0,1,0],[9E9,9E9,9E9,9E9,9E9,9E9]],v20,fine,claddinghead\WObj:=wFCpivot;
    LaserEnd;
    MoveL [[198.400,35.000,-200.000],[0.707107,0.000000,0.000000,-0.707107],[0,0,1,0],[9E9,9E9,9E9,9E9,9E9,9E9]],v20,fine,claddinghead\WObj:=wFCpivot;
    LaserStart;
    MoveL [[-198.400,35.000,-200.000],[0.707107,0.000000,0.000000,-0.707107],[0,0,1,0],[9E9,9E9,9E9,9E9,9E9,9E9]],v20,fine,claddinghead\WObj:=wFCpivot;
    LaserEnd;
    MoveL [[-198.400,40.000,-200.000],[0.707107,0.000000,0.000000,-0.707107],[0,0,1,0],[9E9,9E9,9E9,9E9,9E9,9E9]],v20,fine,claddinghead\WObj:=wFCpivot;
    LaserStart;
    MoveL [[198.400,40.000,-200.000],[0.707107,0.000000,0.000000,-0.707107],[0,0,1,0],[9E9,9E9,9E9,9E9,9E9,9E9]],v20,fine,claddinghead\WObj:=wFCpivot;
    LaserEnd;
    MoveL [[198.400,45.000,-200.000],[0.707107,0.000000,0.000000,-0.707107],[0,0,1,0],[9E9,9E9,9E9,9E9,9E9,9E9]],v20,fine,claddinghead\WObj:=wFCpivot;
    LaserStart;
    MoveL [[-198.400,45.000,-200.000],[0.707107,0.000000,0.000000,-0.707107],[0,0,1,0],[9E9,9E9,9E9,9E9,9E9,9E9]],v20,fine,claddinghead\WObj:=wFCpivot;
    LaserEnd;
    MoveL [[-198.400,50.000,-200.000],[0.707107,0.000000,0.000000,-0.707107],[0,0,1,0],[9E9,9E9,9E9,9E9,9E9,9E9]],v20,fine,claddinghead\WObj:=wFCpivot;
    LaserStart;
    MoveL [[198.400,50.000,-200.000],[0.707107,0.000000,0.000000,-0.707107],[0,0,1,0],[9E9,9E9,9E9,9E9,9E9,9E9]],v20,fine,claddinghead\WObj:=wFCpivot;
    LaserEnd;
    MoveL [[198.400,55.000,-200.000],[0.707107,0.000000,0.000000,-0.707107],[0,0,1,0],[9E9,9E9,9E9,9E9,9E9,9E9]],v20,fine,claddinghead\WObj:=wFCpivot;
    LaserStart;
    MoveL [[-198.400,55.000,-200.000],[0.707107,0.000000,0.000000,-0.707107],[0,0,1,0],[9E9,9E9,9E9,9E9,9E9,9E9]],v20,fine,claddinghead\WObj:=wFCpivot;
    LaserEnd;
    MoveL [[-198.400,60.000,-200.000],[0.707107,0.000000,0.000000,-0.707107],[0,0,1,0],[9E9,9E9,9E9,9E9,9E9,9E9]],v20,fine,claddinghead\WObj:=wFCpivot;
    LaserStart;
    MoveL [[198.400,60.000,-200.000],[0.707107,0.000000,0.000000,-0.707107],[0,0,1,0],[9E9,9E9,9E9,9E9,9E9,9E9]],v20,fine,claddinghead\WObj:=wFCpivot;
    LaserEnd;
    MoveL [[198.400,65.000,-200.000],[0.707107,0.000000,0.000000,-0.707107],[0,0,1,0],[9E9,9E9,9E9,9E9,9E9,9E9]],v20,fine,claddinghead\WObj:=wFCpivot;
    LaserStart;
    MoveL [[-198.400,65.000,-200.000],[0.707107,0.000000,0.000000,-0.707107],[0,0,1,0],[9E9,9E9,9E9,9E9,9E9,9E9]],v20,fine,claddinghead\WObj:=wFCpivot;
    LaserEnd;
    MoveL [[-198.400,70.000,-200.000],[0.707107,0.000000,0.000000,-0.707107],[0,0,1,0],[9E9,9E9,9E9,9E9,9E9,9E9]],v20,fine,claddinghead\WObj:=wFCpivot;
    LaserStart;
    MoveL [[198.400,70.000,-200.000],[0.707107,0.000000,0.000000,-0.707107],[0,0,1,0],[9E9,9E9,9E9,9E9,9E9,9E9]],v20,fine,claddinghead\WObj:=wFCpivot;
    LaserEnd;
    MoveL [[198.400,75.000,-200.000],[0.707107,0.000000,0.000000,-0.707107],[0,0,1,0],[9E9,9E9,9E9,9E9,9E9,9E9]],v20,fine,claddinghead\WObj:=wFCpivot;
    LaserStart;
    MoveL [[-198.400,75.000,-200.000],[0.707107,0.000000,0.000000,-0.707107],[0,0,1,0],[9E9,9E9,9E9,9E9,9E9,9E9]],v20,fine,claddinghead\WObj:=wFCpivot;
    LaserEnd;
    MoveL [[-198.400,80.000,-200.000],[0.707107,0.000000,0.000000,-0.707107],[0,0,1,0],[9E9,9E9,9E9,9E9,9E9,9E9]],v20,fine,claddinghead\WObj:=wFCpivot;
    LaserStart;
    MoveL [[198.400,80.000,-200.000],[0.707107,0.000000,0.000000,-0.707107],[0,0,1,0],[9E9,9E9,9E9,9E9,9E9,9E9]],v20,fine,claddinghead\WObj:=wFCpivot;
    LaserEnd;
    MoveL [[198.400,85.000,-200.000],[0.707107,0.000000,0.000000,-0.707107],[0,0,1,0],[9E9,9E9,9E9,9E9,9E9,9E9]],v20,fine,claddinghead\WObj:=wFCpivot;
    LaserStart;
    MoveL [[-198.400,85.000,-200.000],[0.707107,0.000000,0.000000,-0.707107],[0,0,1,0],[9E9,9E9,9E9,9E9,9E9,9E9]],v20,fine,claddinghead\WObj:=wFCpivot;
    LaserEnd;
    MoveL [[-198.400,90.000,-200.000],[0.707107,0.000000,0.000000,-0.707107],[0,0,1,0],[9E9,9E9,9E9,9E9,9E9,9E9]],v20,fine,claddinghead\WObj:=wFCpivot;
    LaserStart;
    MoveL [[198.400,90.000,-200.000],[0.707107,0.000000,0.000000,-0.707107],[0,0,1,0],[9E9,9E9,9E9,9E9,9E9,9E9]],v20,fine,claddinghead\WObj:=wFCpivot;
    LaserEnd;
    MoveL [[198.400,95.000,-200.000],[0.707107,0.000000,0.000000,-0.707107],[0,0,1,0],[9E9,9E9,9E9,9E9,9E9,9E9]],v20,fine,claddinghead\WObj:=wFCpivot;
    LaserStart;
    MoveL [[-198.400,95.000,-200.000],[0.707107,0.000000,0.000000,-0.707107],[0,0,1,0],[9E9,9E9,9E9,9E9,9E9,9E9]],v20,fine,claddinghead\WObj:=wFCpivot;
    LaserEnd;
    MoveL [[-198.400,100.000,-200.000],[0.707107,0.000000,0.000000,-0.707107],[0,0,1,0],[9E9,9E9,9E9,9E9,9E9,9E9]],v20,fine,claddinghead\WObj:=wFCpivot;
    LaserStart;
    MoveL [[198.400,100.000,-200.000],[0.707107,0.000000,0.000000,-0.707107],[0,0,1,0],[9E9,9E9,9E9,9E9,9E9,9E9]],v20,fine,claddinghead\WObj:=wFCpivot;
    LaserEnd;
    MoveL [[198.400,105.000,-200.000],[0.707107,0.000000,0.000000,-0.707107],[0,0,1,0],[9E9,9E9,9E9,9E9,9E9,9E9]],v20,fine,claddinghead\WObj:=wFCpivot;
    LaserStart;
    MoveL [[-198.400,105.000,-200.000],[0.707107,0.000000,0.000000,-0.707107],[0,0,1,0],[9E9,9E9,9E9,9E9,9E9,9E9]],v20,fine,claddinghead\WObj:=wFCpivot;
    LaserEnd;
    MoveL [[-198.400,110.000,-200.000],[0.707107,0.000000,0.000000,-0.707107],[0,0,1,0],[9E9,9E9,9E9,9E9,9E9,9E9]],v20,fine,claddinghead\WObj:=wFCpivot;
    LaserStart;
    MoveL [[198.400,110.000,-200.000],[0.707107,0.000000,0.000000,-0.707107],[0,0,1,0],[9E9,9E9,9E9,9E9,9E9,9E9]],v20,fine,claddinghead\WObj:=wFCpivot;
    LaserEnd;
    MoveL [[198.400,115.000,-200.000],[0.707107,0.000000,0.000000,-0.707107],[0,0,1,0],[9E9,9E9,9E9,9E9,9E9,9E9]],v20,fine,claddinghead\WObj:=wFCpivot;
    LaserStart;
    MoveL [[-198.400,115.000,-200.000],[0.707107,0.000000,0.000000,-0.707107],[0,0,1,0],[9E9,9E9,9E9,9E9,9E9,9E9]],v20,fine,claddinghead\WObj:=wFCpivot;
    LaserEnd;
    MoveL [[-198.400,120.000,-200.000],[0.707107,0.000000,0.000000,-0.707107],[0,0,1,0],[9E9,9E9,9E9,9E9,9E9,9E9]],v20,fine,claddinghead\WObj:=wFCpivot;
    LaserStart;
    MoveL [[198.400,120.000,-200.000],[0.707107,0.000000,0.000000,-0.707107],[0,0,1,0],[9E9,9E9,9E9,9E9,9E9,9E9]],v20,fine,claddinghead\WObj:=wFCpivot;
    LaserEnd;
    MoveL [[198.400,125.000,-200.000],[0.707107,0.000000,0.000000,-0.707107],[0,0,1,0],[9E9,9E9,9E9,9E9,9E9,9E9]],v20,fine,claddinghead\WObj:=wFCpivot;
    LaserStart;
    MoveL [[-198.400,125.000,-200.000],[0.707107,0.000000,0.000000,-0.707107],[0,0,1,0],[9E9,9E9,9E9,9E9,9E9,9E9]],v20,fine,claddinghead\WObj:=wFCpivot;
    LaserEnd;
    MoveL [[-198.400,130.000,-200.000],[0.707107,0.000000,0.000000,-0.707107],[0,0,1,0],[9E9,9E9,9E9,9E9,9E9,9E9]],v20,fine,claddinghead\WObj:=wFCpivot;
    LaserStart;
    MoveL [[198.400,130.000,-200.000],[0.707107,0.000000,0.000000,-0.707107],[0,0,1,0],[9E9,9E9,9E9,9E9,9E9,9E9]],v20,fine,claddinghead\WObj:=wFCpivot;
    LaserEnd;
    MoveL [[198.400,135.000,-200.000],[0.707107,0.000000,0.000000,-0.707107],[0,0,1,0],[9E9,9E9,9E9,9E9,9E9,9E9]],v20,fine,claddinghead\WObj:=wFCpivot;
    LaserStart;
    MoveL [[-198.400,135.000,-200.000],[0.707107,0.000000,0.000000,-0.707107],[0,0,1,0],[9E9,9E9,9E9,9E9,9E9,9E9]],v20,fine,claddinghead\WObj:=wFCpivot;
    LaserEnd;
    MoveL [[-198.400,140.000,-200.000],[0.707107,0.000000,0.000000,-0.707107],[0,0,1,0],[9E9,9E9,9E9,9E9,9E9,9E9]],v20,fine,claddinghead\WObj:=wFCpivot;
    LaserStart;
    MoveL [[198.400,140.000,-200.000],[0.707107,0.000000,0.000000,-0.707107],[0,0,1,0],[9E9,9E9,9E9,9E9,9E9,9E9]],v20,fine,claddinghead\WObj:=wFCpivot;
    LaserEnd;
    MoveL [[198.400,145.000,-200.000],[0.707107,0.000000,0.000000,-0.707107],[0,0,1,0],[9E9,9E9,9E9,9E9,9E9,9E9]],v20,fine,claddinghead\WObj:=wFCpivot;
    LaserStart;
    MoveL [[-198.400,145.000,-200.000],[0.707107,0.000000,0.000000,-0.707107],[0,0,1,0],[9E9,9E9,9E9,9E9,9E9,9E9]],v20,fine,claddinghead\WObj:=wFCpivot;
    LaserEnd;
    MoveL [[-198.400,150.000,-200.000],[0.707107,0.000000,0.000000,-0.707107],[0,0,1,0],[9E9,9E9,9E9,9E9,9E9,9E9]],v20,fine,claddinghead\WObj:=wFCpivot;
    LaserStart;
    MoveL [[198.400,150.000,-200.000],[0.707107,0.000000,0.000000,-0.707107],[0,0,1,0],[9E9,9E9,9E9,9E9,9E9,9E9]],v20,fine,claddinghead\WObj:=wFCpivot;
    LaserEnd;
    MoveL [[198.400,155.000,-200.000],[0.707107,0.000000,0.000000,-0.707107],[0,0,1,0],[9E9,9E9,9E9,9E9,9E9,9E9]],v20,fine,claddinghead\WObj:=wFCpivot;
    LaserStart;
    MoveL [[-198.400,155.000,-200.000],[0.707107,0.000000,0.000000,-0.707107],[0,0,1,0],[9E9,9E9,9E9,9E9,9E9,9E9]],v20,fine,claddinghead\WObj:=wFCpivot;
    LaserEnd;
    MoveL [[-198.400,160.000,-200.000],[0.707107,0.000000,0.000000,-0.707107],[0,0,1,0],[9E9,9E9,9E9,9E9,9E9,9E9]],v20,fine,claddinghead\WObj:=wFCpivot;
    LaserStart;
    MoveL [[198.400,160.000,-200.000],[0.707107,0.000000,0.000000,-0.707107],[0,0,1,0],[9E9,9E9,9E9,9E9,9E9,9E9]],v20,fine,claddinghead\WObj:=wFCpivot;
    LaserEnd;
    MoveL [[198.400,165.000,-200.000],[0.707107,0.000000,0.000000,-0.707107],[0,0,1,0],[9E9,9E9,9E9,9E9,9E9,9E9]],v20,fine,claddinghead\WObj:=wFCpivot;
    LaserStart;
    MoveL [[-198.400,165.000,-200.000],[0.707107,0.000000,0.000000,-0.707107],[0,0,1,0],[9E9,9E9,9E9,9E9,9E9,9E9]],v20,fine,claddinghead\WObj:=wFCpivot;
    LaserEnd;
    MoveL [[-198.400,170.000,-200.000],[0.707107,0.000000,0.000000,-0.707107],[0,0,1,0],[9E9,9E9,9E9,9E9,9E9,9E9]],v20,fine,claddinghead\WObj:=wFCpivot;
    LaserStart;
    MoveL [[198.400,170.000,-200.000],[0.707107,0.000000,0.000000,-0.707107],[0,0,1,0],[9E9,9E9,9E9,9E9,9E9,9E9]],v20,fine,claddinghead\WObj:=wFCpivot;
    LaserEnd;
    MoveL [[198.400,175.000,-200.000],[0.707107,0.000000,0.000000,-0.707107],[0,0,1,0],[9E9,9E9,9E9,9E9,9E9,9E9]],v20,fine,claddinghead\WObj:=wFCpivot;
    LaserStart;
    MoveL [[-198.400,175.000,-200.000],[0.707107,0.000000,0.000000,-0.707107],[0,0,1,0],[9E9,9E9,9E9,9E9,9E9,9E9]],v20,fine,claddinghead\WObj:=wFCpivot;
    LaserEnd;
    MoveL [[-198.400,180.000,-200.000],[0.707107,0.000000,0.000000,-0.707107],[0,0,1,0],[9E9,9E9,9E9,9E9,9E9,9E9]],v20,fine,claddinghead\WObj:=wFCpivot;
    LaserStart;
    MoveL [[198.400,180.000,-200.000],[0.707107,0.000000,0.000000,-0.707107],[0,0,1,0],[9E9,9E9,9E9,9E9,9E9,9E9]],v20,fine,claddinghead\WObj:=wFCpivot;
    LaserEnd;
    MoveL [[198.400,185.000,-200.000],[0.707107,0.000000,0.000000,-0.707107],[0,0,1,0],[9E9,9E9,9E9,9E9,9E9,9E9]],v20,fine,claddinghead\WObj:=wFCpivot;
    LaserStart;
    MoveL [[-198.400,185.000,-200.000],[0.707107,0.000000,0.000000,-0.707107],[0,0,1,0],[9E9,9E9,9E9,9E9,9E9,9E9]],v20,fine,claddinghead\WObj:=wFCpivot;
    LaserEnd;
    MoveL [[-198.400,190.000,-200.000],[0.707107,0.000000,0.000000,-0.707107],[0,0,1,0],[9E9,9E9,9E9,9E9,9E9,9E9]],v20,fine,claddinghead\WObj:=wFCpivot;
    LaserStart;
    MoveL [[198.400,190.000,-200.000],[0.707107,0.000000,0.000000,-0.707107],[0,0,1,0],[9E9,9E9,9E9,9E9,9E9,9E9]],v20,fine,claddinghead\WObj:=wFCpivot;
    LaserEnd;
    MoveL [[198.400,195.000,-200.000],[0.707107,0.000000,0.000000,-0.707107],[0,0,1,0],[9E9,9E9,9E9,9E9,9E9,9E9]],v20,fine,claddinghead\WObj:=wFCpivot;
    LaserStart;
    MoveL [[-198.400,195.000,-200.000],[0.707107,0.000000,0.000000,-0.707107],[0,0,1,0],[9E9,9E9,9E9,9E9,9E9,9E9]],v20,fine,claddinghead\WObj:=wFCpivot;
    LaserEnd;
    MoveL [[-178.025,-200.000,-195.000],[0.707107,0.000000,0.000000,-0.707107],[0,0,1,0],[9E9,9E9,9E9,9E9,9E9,9E9]],v20,fine,claddinghead\WObj:=wFCpivot;
    LaserStart;
    MoveL [[-200.000,-200.000,-195.000],[0.707107,0.000000,0.000000,-0.707107],[0,0,1,0],[9E9,9E9,9E9,9E9,9E9,9E9]],v20,z0,claddinghead\WObj:=wFCpivot;
    MoveL [[-200.000,-177.122,-195.000],[0.707107,0.000000,0.000000,-0.707107],[0,0,1,0],[9E9,9E9,9E9,9E9,9E9,9E9]],v20,z0,claddinghead\WObj:=wFCpivot;
    MoveL [[-200.000,-171.450,-195.000],[0.707107,0.000000,0.000000,-0.707107],[0,0,1,0],[9E9,9E9,9E9,9E9,9E9,9E9]],v20,z0,claddinghead\WObj:=wFCpivot;
    MoveL [[-200.000,-167.642,-195.000],[0.707107,0.000000,0.000000,-0.707107],[0,0,1,0],[9E9,9E9,9E9,9E9,9E9,9E9]],v20,z0,claddinghead\WObj:=wFCpivot;
    MoveL [[-200.000,-129.051,-195.000],[0.707107,0.000000,0.000000,-0.707107],[0,0,1,0],[9E9,9E9,9E9,9E9,9E9,9E9]],v20,z0,claddinghead\WObj:=wFCpivot;
    MoveL [[-200.000,-124.076,-195.000],[0.707107,0.000000,0.000000,-0.707107],[0,0,1,0],[9E9,9E9,9E9,9E9,9E9,9E9]],v20,z0,claddinghead\WObj:=wFCpivot;
    MoveL [[-200.000,-75.736,-195.000],[0.707107,0.000000,0.000000,-0.707107],[0,0,1,0],[9E9,9E9,9E9,9E9,9E9,9E9]],v20,z0,claddinghead\WObj:=wFCpivot;
    MoveL [[-200.000,-70.977,-195.000],[0.707107,0.000000,0.000000,-0.707107],[0,0,1,0],[9E9,9E9,9E9,9E9,9E9,9E9]],v20,z0,claddinghead\WObj:=wFCpivot;
    MoveL [[-200.000,0.668,-195.000],[0.707107,0.000000,0.000000,-0.707107],[0,0,1,0],[9E9,9E9,9E9,9E9,9E9,9E9]],v20,z0,claddinghead\WObj:=wFCpivot;
    MoveL [[-200.000,5.457,-195.000],[0.707107,0.000000,0.000000,-0.707107],[0,0,1,0],[9E9,9E9,9E9,9E9,9E9,9E9]],v20,z0,claddinghead\WObj:=wFCpivot;
    MoveL [[-200.000,10.422,-195.000],[0.707107,0.000000,0.000000,-0.707107],[0,0,1,0],[9E9,9E9,9E9,9E9,9E9,9E9]],v20,z0,claddinghead\WObj:=wFCpivot;
    MoveL [[-200.000,80.733,-195.000],[0.707107,0.000000,0.000000,-0.707107],[0,0,1,0],[9E9,9E9,9E9,9E9,9E9,9E9]],v20,z0,claddinghead\WObj:=wFCpivot;
    MoveL [[-200.000,85.051,-195.000],[0.707107,0.000000,0.000000,-0.707107],[0,0,1,0],[9E9,9E9,9E9,9E9,9E9,9E9]],v20,z0,claddinghead\WObj:=wFCpivot;
    MoveL [[-200.000,132.810,-195.000],[0.707107,0.000000,0.000000,-0.707107],[0,0,1,0],[9E9,9E9,9E9,9E9,9E9,9E9]],v20,z0,claddinghead\WObj:=wFCpivot;
    MoveL [[-200.000,136.547,-195.000],[0.707107,0.000000,0.000000,-0.707107],[0,0,1,0],[9E9,9E9,9E9,9E9,9E9,9E9]],v20,z0,claddinghead\WObj:=wFCpivot;
    MoveL [[-200.000,142.309,-195.000],[0.707107,0.000000,0.000000,-0.707107],[0,0,1,0],[9E9,9E9,9E9,9E9,9E9,9E9]],v20,z0,claddinghead\WObj:=wFCpivot;
    MoveL [[-200.000,178.165,-195.000],[0.707107,0.000000,0.000000,-0.707107],[0,0,1,0],[9E9,9E9,9E9,9E9,9E9,9E9]],v20,z0,claddinghead\WObj:=wFCpivot;
    MoveL [[-200.000,183.143,-195.000],[0.707107,0.000000,0.000000,-0.707107],[0,0,1,0],[9E9,9E9,9E9,9E9,9E9,9E9]],v20,z0,claddinghead\WObj:=wFCpivot;
    MoveL [[-200.000,200.000,-195.000],[0.707107,0.000000,0.000000,-0.707107],[0,0,1,0],[9E9,9E9,9E9,9E9,9E9,9E9]],v20,z0,claddinghead\WObj:=wFCpivot;
    MoveL [[-183.444,200.000,-195.000],[0.707107,0.000000,0.000000,-0.707107],[0,0,1,0],[9E9,9E9,9E9,9E9,9E9,9E9]],v20,z0,claddinghead\WObj:=wFCpivot;
    MoveL [[-178.170,200.000,-195.000],[0.707107,0.000000,0.000000,-0.707107],[0,0,1,0],[9E9,9E9,9E9,9E9,9E9,9E9]],v20,z0,claddinghead\WObj:=wFCpivot;
    MoveL [[-154.796,200.000,-195.000],[0.707107,0.000000,0.000000,-0.707107],[0,0,1,0],[9E9,9E9,9E9,9E9,9E9,9E9]],v20,z0,claddinghead\WObj:=wFCpivot;
    MoveL [[-149.745,200.000,-195.000],[0.707107,0.000000,0.000000,-0.707107],[0,0,1,0],[9E9,9E9,9E9,9E9,9E9,9E9]],v20,z0,claddinghead\WObj:=wFCpivot;
    MoveL [[-115.831,200.000,-195.000],[0.707107,0.000000,0.000000,-0.707107],[0,0,1,0],[9E9,9E9,9E9,9E9,9E9,9E9]],v20,z0,claddinghead\WObj:=wFCpivot;
    MoveL [[-110.383,200.000,-195.000],[0.707107,0.000000,0.000000,-0.707107],[0,0,1,0],[9E9,9E9,9E9,9E9,9E9,9E9]],v20,z0,claddinghead\WObj:=wFCpivot;
    MoveL [[-57.429,200.000,-195.000],[0.707107,0.000000,0.000000,-0.707107],[0,0,1,0],[9E9,9E9,9E9,9E9,9E9,9E9]],v20,z0,claddinghead\WObj:=wFCpivot;
    MoveL [[-52.082,200.000,-195.000],[0.707107,0.000000,0.000000,-0.707107],[0,0,1,0],[9E9,9E9,9E9,9E9,9E9,9E9]],v20,z0,claddinghead\WObj:=wFCpivot;
    MoveL [[28.261,200.000,-195.000],[0.707107,0.000000,0.000000,-0.707107],[0,0,1,0],[9E9,9E9,9E9,9E9,9E9,9E9]],v20,z0,claddinghead\WObj:=wFCpivot;
    MoveL [[33.603,200.000,-195.000],[0.707107,0.000000,0.000000,-0.707107],[0,0,1,0],[9E9,9E9,9E9,9E9,9E9,9E9]],v20,z0,claddinghead\WObj:=wFCpivot;
    MoveL [[38.893,200.000,-195.000],[0.707107,0.000000,0.000000,-0.707107],[0,0,1,0],[9E9,9E9,9E9,9E9,9E9,9E9]],v20,z0,claddinghead\WObj:=wFCpivot;
    MoveL [[98.037,200.000,-195.000],[0.707107,0.000000,0.000000,-0.707107],[0,0,1,0],[9E9,9E9,9E9,9E9,9E9,9E9]],v20,z0,claddinghead\WObj:=wFCpivot;
    MoveL [[102.666,200.000,-195.000],[0.707107,0.000000,0.000000,-0.707107],[0,0,1,0],[9E9,9E9,9E9,9E9,9E9,9E9]],v20,z0,claddinghead\WObj:=wFCpivot;
    MoveL [[143.600,200.000,-195.000],[0.707107,0.000000,0.000000,-0.707107],[0,0,1,0],[9E9,9E9,9E9,9E9,9E9,9E9]],v20,z0,claddinghead\WObj:=wFCpivot;
    MoveL [[149.693,200.000,-195.000],[0.707107,0.000000,0.000000,-0.707107],[0,0,1,0],[9E9,9E9,9E9,9E9,9E9,9E9]],v20,z0,claddinghead\WObj:=wFCpivot;
    MoveL [[176.435,200.000,-195.000],[0.707107,0.000000,0.000000,-0.707107],[0,0,1,0],[9E9,9E9,9E9,9E9,9E9,9E9]],v20,z0,claddinghead\WObj:=wFCpivot;
    MoveL [[181.939,200.000,-195.000],[0.707107,0.000000,0.000000,-0.707107],[0,0,1,0],[9E9,9E9,9E9,9E9,9E9,9E9]],v20,z0,claddinghead\WObj:=wFCpivot;
    MoveL [[200.000,200.000,-195.000],[0.707107,0.000000,0.000000,-0.707107],[0,0,1,0],[9E9,9E9,9E9,9E9,9E9,9E9]],v20,z0,claddinghead\WObj:=wFCpivot;
    MoveL [[200.000,181.638,-195.000],[0.707107,0.000000,0.000000,-0.707107],[0,0,1,0],[9E9,9E9,9E9,9E9,9E9,9E9]],v20,z0,claddinghead\WObj:=wFCpivot;
    MoveL [[200.000,176.367,-195.000],[0.707107,0.000000,0.000000,-0.707107],[0,0,1,0],[9E9,9E9,9E9,9E9,9E9,9E9]],v20,z0,claddinghead\WObj:=wFCpivot;
    MoveL [[200.000,149.412,-195.000],[0.707107,0.000000,0.000000,-0.707107],[0,0,1,0],[9E9,9E9,9E9,9E9,9E9,9E9]],v20,z0,claddinghead\WObj:=wFCpivot;
    MoveL [[200.000,142.435,-195.000],[0.707107,0.000000,0.000000,-0.707107],[0,0,1,0],[9E9,9E9,9E9,9E9,9E9,9E9]],v20,z0,claddinghead\WObj:=wFCpivot;
    MoveL [[200.000,100.630,-195.000],[0.707107,0.000000,0.000000,-0.707107],[0,0,1,0],[9E9,9E9,9E9,9E9,9E9,9E9]],v20,z0,claddinghead\WObj:=wFCpivot;
    MoveL [[200.000,95.228,-195.000],[0.707107,0.000000,0.000000,-0.707107],[0,0,1,0],[9E9,9E9,9E9,9E9,9E9,9E9]],v20,z0,claddinghead\WObj:=wFCpivot;
    MoveL [[200.000,34.664,-195.000],[0.707107,0.000000,0.000000,-0.707107],[0,0,1,0],[9E9,9E9,9E9,9E9,9E9,9E9]],v20,z0,claddinghead\WObj:=wFCpivot;
    MoveL [[200.000,29.298,-195.000],[0.707107,0.000000,0.000000,-0.707107],[0,0,1,0],[9E9,9E9,9E9,9E9,9E9,9E9]],v20,z0,claddinghead\WObj:=wFCpivot;
    MoveL [[200.000,-48.174,-195.000],[0.707107,0.000000,0.000000,-0.707107],[0,0,1,0],[9E9,9E9,9E9,9E9,9E9,9E9]],v20,z0,claddinghead\WObj:=wFCpivot;
    MoveL [[200.000,-53.314,-195.000],[0.707107,0.000000,0.000000,-0.707107],[0,0,1,0],[9E9,9E9,9E9,9E9,9E9,9E9]],v20,z0,claddinghead\WObj:=wFCpivot;
    MoveL [[200.000,-58.244,-195.000],[0.707107,0.000000,0.000000,-0.707107],[0,0,1,0],[9E9,9E9,9E9,9E9,9E9,9E9]],v20,z0,claddinghead\WObj:=wFCpivot;
    MoveL [[200.000,-109.138,-195.000],[0.707107,0.000000,0.000000,-0.707107],[0,0,1,0],[9E9,9E9,9E9,9E9,9E9,9E9]],v20,z0,claddinghead\WObj:=wFCpivot;
    MoveL [[200.000,-113.472,-195.000],[0.707107,0.000000,0.000000,-0.707107],[0,0,1,0],[9E9,9E9,9E9,9E9,9E9,9E9]],v20,z0,claddinghead\WObj:=wFCpivot;
    MoveL [[200.000,-148.153,-195.000],[0.707107,0.000000,0.000000,-0.707107],[0,0,1,0],[9E9,9E9,9E9,9E9,9E9,9E9]],v20,z0,claddinghead\WObj:=wFCpivot;
    MoveL [[200.000,-153.281,-195.000],[0.707107,0.000000,0.000000,-0.707107],[0,0,1,0],[9E9,9E9,9E9,9E9,9E9,9E9]],v20,z0,claddinghead\WObj:=wFCpivot;
    MoveL [[200.000,-177.710,-195.000],[0.707107,0.000000,0.000000,-0.707107],[0,0,1,0],[9E9,9E9,9E9,9E9,9E9,9E9]],v20,z0,claddinghead\WObj:=wFCpivot;
    MoveL [[200.000,-183.143,-195.000],[0.707107,0.000000,0.000000,-0.707107],[0,0,1,0],[9E9,9E9,9E9,9E9,9E9,9E9]],v20,z0,claddinghead\WObj:=wFCpivot;
    MoveL [[200.000,-200.000,-195.000],[0.707107,0.000000,0.000000,-0.707107],[0,0,1,0],[9E9,9E9,9E9,9E9,9E9,9E9]],v20,z0,claddinghead\WObj:=wFCpivot;
    MoveL [[181.638,-200.000,-195.000],[0.707107,0.000000,0.000000,-0.707107],[0,0,1,0],[9E9,9E9,9E9,9E9,9E9,9E9]],v20,z0,claddinghead\WObj:=wFCpivot;
    MoveL [[176.167,-200.000,-195.000],[0.707107,0.000000,0.000000,-0.707107],[0,0,1,0],[9E9,9E9,9E9,9E9,9E9,9E9]],v20,z0,claddinghead\WObj:=wFCpivot;
    MoveL [[141.440,-200.000,-195.000],[0.707107,0.000000,0.000000,-0.707107],[0,0,1,0],[9E9,9E9,9E9,9E9,9E9,9E9]],v20,z0,claddinghead\WObj:=wFCpivot;
    MoveL [[134.885,-200.000,-195.000],[0.707107,0.000000,0.000000,-0.707107],[0,0,1,0],[9E9,9E9,9E9,9E9,9E9,9E9]],v20,z0,claddinghead\WObj:=wFCpivot;
    MoveL [[130.361,-200.000,-195.000],[0.707107,0.000000,0.000000,-0.707107],[0,0,1,0],[9E9,9E9,9E9,9E9,9E9,9E9]],v20,z0,claddinghead\WObj:=wFCpivot;
    MoveL [[86.069,-200.000,-195.000],[0.707107,0.000000,0.000000,-0.707107],[0,0,1,0],[9E9,9E9,9E9,9E9,9E9,9E9]],v20,z0,claddinghead\WObj:=wFCpivot;
    MoveL [[81.209,-200.000,-195.000],[0.707107,0.000000,0.000000,-0.707107],[0,0,1,0],[9E9,9E9,9E9,9E9,9E9,9E9]],v20,z0,claddinghead\WObj:=wFCpivot;
    MoveL [[-2.884,-200.000,-195.000],[0.707107,0.000000,0.000000,-0.707107],[0,0,1,0],[9E9,9E9,9E9,9E9,9E9,9E9]],v20,z0,claddinghead\WObj:=wFCpivot;
    MoveL [[-8.223,-200.000,-195.000],[0.707107,0.000000,0.000000,-0.707107],[0,0,1,0],[9E9,9E9,9E9,9E9,9E9,9E9]],v20,z0,claddinghead\WObj:=wFCpivot;
    MoveL [[-76.999,-200.000,-195.000],[0.707107,0.000000,0.000000,-0.707107],[0,0,1,0],[9E9,9E9,9E9,9E9,9E9,9E9]],v20,z0,claddinghead\WObj:=wFCpivot;
    MoveL [[-81.828,-200.000,-195.000],[0.707107,0.000000,0.000000,-0.707107],[0,0,1,0],[9E9,9E9,9E9,9E9,9E9,9E9]],v20,z0,claddinghead\WObj:=wFCpivot;
    MoveL [[-128.444,-200.000,-195.000],[0.707107,0.000000,0.000000,-0.707107],[0,0,1,0],[9E9,9E9,9E9,9E9,9E9,9E9]],v20,z0,claddinghead\WObj:=wFCpivot;
    MoveL [[-132.840,-200.000,-195.000],[0.707107,0.000000,0.000000,-0.707107],[0,0,1,0],[9E9,9E9,9E9,9E9,9E9,9E9]],v20,z0,claddinghead\WObj:=wFCpivot;
    MoveL [[-168.153,-200.000,-195.000],[0.707107,0.000000,0.000000,-0.707107],[0,0,1,0],[9E9,9E9,9E9,9E9,9E9,9E9]],v20,z0,claddinghead\WObj:=wFCpivot;
    MoveL [[-172.090,-200.000,-195.000],[0.707107,0.000000,0.000000,-0.707107],[0,0,1,0],[9E9,9E9,9E9,9E9,9E9,9E9]],v20,z0,claddinghead\WObj:=wFCpivot;
    MoveL [[-178.025,-200.000,-195.000],[0.707107,0.000000,0.000000,-0.707107],[0,0,1,0],[9E9,9E9,9E9,9E9,9E9,9E9]],v20,fine,claddinghead\WObj:=wFCpivot;
    LaserEnd;
    MoveL [[195.000,198.400,-195.000],[0.707107,0.000000,0.000000,-0.707107],[0,0,1,0],[9E9,9E9,9E9,9E9,9E9,9E9]],v20,fine,claddinghead\WObj:=wFCpivot;
    LaserStart;
    MoveL [[195.000,-198.400,-195.000],[0.707107,0.000000,0.000000,-0.707107],[0,0,1,0],[9E9,9E9,9E9,9E9,9E9,9E9]],v20,fine,claddinghead\WObj:=wFCpivot;
    LaserEnd;
    MoveL [[190.000,-198.400,-195.000],[0.707107,0.000000,0.000000,-0.707107],[0,0,1,0],[9E9,9E9,9E9,9E9,9E9,9E9]],v20,fine,claddinghead\WObj:=wFCpivot;
    LaserStart;
    MoveL [[190.000,198.400,-195.000],[0.707107,0.000000,0.000000,-0.707107],[0,0,1,0],[9E9,9E9,9E9,9E9,9E9,9E9]],v20,fine,claddinghead\WObj:=wFCpivot;
    LaserEnd;
    MoveL [[185.000,198.400,-195.000],[0.707107,0.000000,0.000000,-0.707107],[0,0,1,0],[9E9,9E9,9E9,9E9,9E9,9E9]],v20,fine,claddinghead\WObj:=wFCpivot;
    LaserStart;
    MoveL [[185.000,-198.400,-195.000],[0.707107,0.000000,0.000000,-0.707107],[0,0,1,0],[9E9,9E9,9E9,9E9,9E9,9E9]],v20,fine,claddinghead\WObj:=wFCpivot;
    LaserEnd;
    MoveL [[180.000,-198.400,-195.000],[0.707107,0.000000,0.000000,-0.707107],[0,0,1,0],[9E9,9E9,9E9,9E9,9E9,9E9]],v20,fine,claddinghead\WObj:=wFCpivot;
    LaserStart;
    MoveL [[180.000,198.400,-195.000],[0.707107,0.000000,0.000000,-0.707107],[0,0,1,0],[9E9,9E9,9E9,9E9,9E9,9E9]],v20,fine,claddinghead\WObj:=wFCpivot;
    LaserEnd;
    MoveL [[175.000,198.400,-195.000],[0.707107,0.000000,0.000000,-0.707107],[0,0,1,0],[9E9,9E9,9E9,9E9,9E9,9E9]],v20,fine,claddinghead\WObj:=wFCpivot;
    LaserStart;
    MoveL [[175.000,-198.400,-195.000],[0.707107,0.000000,0.000000,-0.707107],[0,0,1,0],[9E9,9E9,9E9,9E9,9E9,9E9]],v20,fine,claddinghead\WObj:=wFCpivot;
    LaserEnd;
    MoveL [[170.000,-198.400,-195.000],[0.707107,0.000000,0.000000,-0.707107],[0,0,1,0],[9E9,9E9,9E9,9E9,9E9,9E9]],v20,fine,claddinghead\WObj:=wFCpivot;
    LaserStart;
    MoveL [[170.000,198.400,-195.000],[0.707107,0.000000,0.000000,-0.707107],[0,0,1,0],[9E9,9E9,9E9,9E9,9E9,9E9]],v20,fine,claddinghead\WObj:=wFCpivot;
    LaserEnd;
    MoveL [[165.000,198.400,-195.000],[0.707107,0.000000,0.000000,-0.707107],[0,0,1,0],[9E9,9E9,9E9,9E9,9E9,9E9]],v20,fine,claddinghead\WObj:=wFCpivot;
    LaserStart;
    MoveL [[165.000,-198.400,-195.000],[0.707107,0.000000,0.000000,-0.707107],[0,0,1,0],[9E9,9E9,9E9,9E9,9E9,9E9]],v20,fine,claddinghead\WObj:=wFCpivot;
    LaserEnd;
    MoveL [[160.000,-198.400,-195.000],[0.707107,0.000000,0.000000,-0.707107],[0,0,1,0],[9E9,9E9,9E9,9E9,9E9,9E9]],v20,fine,claddinghead\WObj:=wFCpivot;
    LaserStart;
    MoveL [[160.000,198.400,-195.000],[0.707107,0.000000,0.000000,-0.707107],[0,0,1,0],[9E9,9E9,9E9,9E9,9E9,9E9]],v20,fine,claddinghead\WObj:=wFCpivot;
    LaserEnd;
    MoveL [[155.000,198.400,-195.000],[0.707107,0.000000,0.000000,-0.707107],[0,0,1,0],[9E9,9E9,9E9,9E9,9E9,9E9]],v20,fine,claddinghead\WObj:=wFCpivot;
    LaserStart;
    MoveL [[155.000,-198.400,-195.000],[0.707107,0.000000,0.000000,-0.707107],[0,0,1,0],[9E9,9E9,9E9,9E9,9E9,9E9]],v20,fine,claddinghead\WObj:=wFCpivot;
    LaserEnd;
    MoveL [[150.000,-198.400,-195.000],[0.707107,0.000000,0.000000,-0.707107],[0,0,1,0],[9E9,9E9,9E9,9E9,9E9,9E9]],v20,fine,claddinghead\WObj:=wFCpivot;
    LaserStart;
    MoveL [[150.000,198.400,-195.000],[0.707107,0.000000,0.000000,-0.707107],[0,0,1,0],[9E9,9E9,9E9,9E9,9E9,9E9]],v20,fine,claddinghead\WObj:=wFCpivot;
    LaserEnd;
    MoveL [[145.000,198.400,-195.000],[0.707107,0.000000,0.000000,-0.707107],[0,0,1,0],[9E9,9E9,9E9,9E9,9E9,9E9]],v20,fine,claddinghead\WObj:=wFCpivot;
    LaserStart;
    MoveL [[145.000,-198.400,-195.000],[0.707107,0.000000,0.000000,-0.707107],[0,0,1,0],[9E9,9E9,9E9,9E9,9E9,9E9]],v20,fine,claddinghead\WObj:=wFCpivot;
    LaserEnd;
    MoveL [[140.000,-198.400,-195.000],[0.707107,0.000000,0.000000,-0.707107],[0,0,1,0],[9E9,9E9,9E9,9E9,9E9,9E9]],v20,fine,claddinghead\WObj:=wFCpivot;
    LaserStart;
    MoveL [[140.000,198.400,-195.000],[0.707107,0.000000,0.000000,-0.707107],[0,0,1,0],[9E9,9E9,9E9,9E9,9E9,9E9]],v20,fine,claddinghead\WObj:=wFCpivot;
    LaserEnd;
    MoveL [[135.000,198.400,-195.000],[0.707107,0.000000,0.000000,-0.707107],[0,0,1,0],[9E9,9E9,9E9,9E9,9E9,9E9]],v20,fine,claddinghead\WObj:=wFCpivot;
    LaserStart;
    MoveL [[135.000,-198.400,-195.000],[0.707107,0.000000,0.000000,-0.707107],[0,0,1,0],[9E9,9E9,9E9,9E9,9E9,9E9]],v20,fine,claddinghead\WObj:=wFCpivot;
    LaserEnd;
    MoveL [[130.000,-198.400,-195.000],[0.707107,0.000000,0.000000,-0.707107],[0,0,1,0],[9E9,9E9,9E9,9E9,9E9,9E9]],v20,fine,claddinghead\WObj:=wFCpivot;
    LaserStart;
    MoveL [[130.000,198.400,-195.000],[0.707107,0.000000,0.000000,-0.707107],[0,0,1,0],[9E9,9E9,9E9,9E9,9E9,9E9]],v20,fine,claddinghead\WObj:=wFCpivot;
    LaserEnd;
    MoveL [[125.000,198.400,-195.000],[0.707107,0.000000,0.000000,-0.707107],[0,0,1,0],[9E9,9E9,9E9,9E9,9E9,9E9]],v20,fine,claddinghead\WObj:=wFCpivot;
    LaserStart;
    MoveL [[125.000,-198.400,-195.000],[0.707107,0.000000,0.000000,-0.707107],[0,0,1,0],[9E9,9E9,9E9,9E9,9E9,9E9]],v20,fine,claddinghead\WObj:=wFCpivot;
    LaserEnd;
    MoveL [[120.000,-198.400,-195.000],[0.707107,0.000000,0.000000,-0.707107],[0,0,1,0],[9E9,9E9,9E9,9E9,9E9,9E9]],v20,fine,claddinghead\WObj:=wFCpivot;
    LaserStart;
    MoveL [[120.000,198.400,-195.000],[0.707107,0.000000,0.000000,-0.707107],[0,0,1,0],[9E9,9E9,9E9,9E9,9E9,9E9]],v20,fine,claddinghead\WObj:=wFCpivot;
    LaserEnd;
    MoveL [[115.000,198.400,-195.000],[0.707107,0.000000,0.000000,-0.707107],[0,0,1,0],[9E9,9E9,9E9,9E9,9E9,9E9]],v20,fine,claddinghead\WObj:=wFCpivot;
    LaserStart;
    MoveL [[115.000,-198.400,-195.000],[0.707107,0.000000,0.000000,-0.707107],[0,0,1,0],[9E9,9E9,9E9,9E9,9E9,9E9]],v20,fine,claddinghead\WObj:=wFCpivot;
    LaserEnd;
    MoveL [[110.000,-198.400,-195.000],[0.707107,0.000000,0.000000,-0.707107],[0,0,1,0],[9E9,9E9,9E9,9E9,9E9,9E9]],v20,fine,claddinghead\WObj:=wFCpivot;
    LaserStart;
    MoveL [[110.000,198.400,-195.000],[0.707107,0.000000,0.000000,-0.707107],[0,0,1,0],[9E9,9E9,9E9,9E9,9E9,9E9]],v20,fine,claddinghead\WObj:=wFCpivot;
    LaserEnd;
    MoveL [[105.000,198.400,-195.000],[0.707107,0.000000,0.000000,-0.707107],[0,0,1,0],[9E9,9E9,9E9,9E9,9E9,9E9]],v20,fine,claddinghead\WObj:=wFCpivot;
    LaserStart;
    MoveL [[105.000,-198.400,-195.000],[0.707107,0.000000,0.000000,-0.707107],[0,0,1,0],[9E9,9E9,9E9,9E9,9E9,9E9]],v20,fine,claddinghead\WObj:=wFCpivot;
    LaserEnd;
    MoveL [[100.000,-198.400,-195.000],[0.707107,0.000000,0.000000,-0.707107],[0,0,1,0],[9E9,9E9,9E9,9E9,9E9,9E9]],v20,fine,claddinghead\WObj:=wFCpivot;
    LaserStart;
    MoveL [[100.000,198.400,-195.000],[0.707107,0.000000,0.000000,-0.707107],[0,0,1,0],[9E9,9E9,9E9,9E9,9E9,9E9]],v20,fine,claddinghead\WObj:=wFCpivot;
    LaserEnd;
    MoveL [[95.000,198.400,-195.000],[0.707107,0.000000,0.000000,-0.707107],[0,0,1,0],[9E9,9E9,9E9,9E9,9E9,9E9]],v20,fine,claddinghead\WObj:=wFCpivot;
    LaserStart;
    MoveL [[95.000,-198.400,-195.000],[0.707107,0.000000,0.000000,-0.707107],[0,0,1,0],[9E9,9E9,9E9,9E9,9E9,9E9]],v20,fine,claddinghead\WObj:=wFCpivot;
    LaserEnd;
    MoveL [[90.000,-198.400,-195.000],[0.707107,0.000000,0.000000,-0.707107],[0,0,1,0],[9E9,9E9,9E9,9E9,9E9,9E9]],v20,fine,claddinghead\WObj:=wFCpivot;
    LaserStart;
    MoveL [[90.000,198.400,-195.000],[0.707107,0.000000,0.000000,-0.707107],[0,0,1,0],[9E9,9E9,9E9,9E9,9E9,9E9]],v20,fine,claddinghead\WObj:=wFCpivot;
    LaserEnd;
    MoveL [[85.000,198.400,-195.000],[0.707107,0.000000,0.000000,-0.707107],[0,0,1,0],[9E9,9E9,9E9,9E9,9E9,9E9]],v20,fine,claddinghead\WObj:=wFCpivot;
    LaserStart;
    MoveL [[85.000,-198.400,-195.000],[0.707107,0.000000,0.000000,-0.707107],[0,0,1,0],[9E9,9E9,9E9,9E9,9E9,9E9]],v20,fine,claddinghead\WObj:=wFCpivot;
    LaserEnd;
    MoveL [[80.000,-198.400,-195.000],[0.707107,0.000000,0.000000,-0.707107],[0,0,1,0],[9E9,9E9,9E9,9E9,9E9,9E9]],v20,fine,claddinghead\WObj:=wFCpivot;
    LaserStart;
    MoveL [[80.000,198.400,-195.000],[0.707107,0.000000,0.000000,-0.707107],[0,0,1,0],[9E9,9E9,9E9,9E9,9E9,9E9]],v20,fine,claddinghead\WObj:=wFCpivot;
    LaserEnd;
    MoveL [[75.000,198.400,-195.000],[0.707107,0.000000,0.000000,-0.707107],[0,0,1,0],[9E9,9E9,9E9,9E9,9E9,9E9]],v20,fine,claddinghead\WObj:=wFCpivot;
    LaserStart;
    MoveL [[75.000,-198.400,-195.000],[0.707107,0.000000,0.000000,-0.707107],[0,0,1,0],[9E9,9E9,9E9,9E9,9E9,9E9]],v20,fine,claddinghead\WObj:=wFCpivot;
    LaserEnd;
    MoveL [[70.000,-198.400,-195.000],[0.707107,0.000000,0.000000,-0.707107],[0,0,1,0],[9E9,9E9,9E9,9E9,9E9,9E9]],v20,fine,claddinghead\WObj:=wFCpivot;
    LaserStart;
    MoveL [[70.000,198.400,-195.000],[0.707107,0.000000,0.000000,-0.707107],[0,0,1,0],[9E9,9E9,9E9,9E9,9E9,9E9]],v20,fine,claddinghead\WObj:=wFCpivot;
    LaserEnd;
    MoveL [[65.000,198.400,-195.000],[0.707107,0.000000,0.000000,-0.707107],[0,0,1,0],[9E9,9E9,9E9,9E9,9E9,9E9]],v20,fine,claddinghead\WObj:=wFCpivot;
    LaserStart;
    MoveL [[65.000,-198.400,-195.000],[0.707107,0.000000,0.000000,-0.707107],[0,0,1,0],[9E9,9E9,9E9,9E9,9E9,9E9]],v20,fine,claddinghead\WObj:=wFCpivot;
    LaserEnd;
    MoveL [[60.000,-198.400,-195.000],[0.707107,0.000000,0.000000,-0.707107],[0,0,1,0],[9E9,9E9,9E9,9E9,9E9,9E9]],v20,fine,claddinghead\WObj:=wFCpivot;
    LaserStart;
    MoveL [[60.000,198.400,-195.000],[0.707107,0.000000,0.000000,-0.707107],[0,0,1,0],[9E9,9E9,9E9,9E9,9E9,9E9]],v20,fine,claddinghead\WObj:=wFCpivot;
    LaserEnd;
    MoveL [[55.000,198.400,-195.000],[0.707107,0.000000,0.000000,-0.707107],[0,0,1,0],[9E9,9E9,9E9,9E9,9E9,9E9]],v20,fine,claddinghead\WObj:=wFCpivot;
    LaserStart;
    MoveL [[55.000,-198.400,-195.000],[0.707107,0.000000,0.000000,-0.707107],[0,0,1,0],[9E9,9E9,9E9,9E9,9E9,9E9]],v20,fine,claddinghead\WObj:=wFCpivot;
    LaserEnd;
    MoveL [[50.000,-198.400,-195.000],[0.707107,0.000000,0.000000,-0.707107],[0,0,1,0],[9E9,9E9,9E9,9E9,9E9,9E9]],v20,fine,claddinghead\WObj:=wFCpivot;
    LaserStart;
    MoveL [[50.000,198.400,-195.000],[0.707107,0.000000,0.000000,-0.707107],[0,0,1,0],[9E9,9E9,9E9,9E9,9E9,9E9]],v20,fine,claddinghead\WObj:=wFCpivot;
    LaserEnd;
    MoveL [[45.000,198.400,-195.000],[0.707107,0.000000,0.000000,-0.707107],[0,0,1,0],[9E9,9E9,9E9,9E9,9E9,9E9]],v20,fine,claddinghead\WObj:=wFCpivot;
    LaserStart;
    MoveL [[45.000,-198.400,-195.000],[0.707107,0.000000,0.000000,-0.707107],[0,0,1,0],[9E9,9E9,9E9,9E9,9E9,9E9]],v20,fine,claddinghead\WObj:=wFCpivot;
    LaserEnd;
    MoveL [[40.000,-198.400,-195.000],[0.707107,0.000000,0.000000,-0.707107],[0,0,1,0],[9E9,9E9,9E9,9E9,9E9,9E9]],v20,fine,claddinghead\WObj:=wFCpivot;
    LaserStart;
    MoveL [[40.000,198.400,-195.000],[0.707107,0.000000,0.000000,-0.707107],[0,0,1,0],[9E9,9E9,9E9,9E9,9E9,9E9]],v20,fine,claddinghead\WObj:=wFCpivot;
    LaserEnd;
    MoveL [[35.000,198.400,-195.000],[0.707107,0.000000,0.000000,-0.707107],[0,0,1,0],[9E9,9E9,9E9,9E9,9E9,9E9]],v20,fine,claddinghead\WObj:=wFCpivot;
    LaserStart;
    MoveL [[35.000,-198.400,-195.000],[0.707107,0.000000,0.000000,-0.707107],[0,0,1,0],[9E9,9E9,9E9,9E9,9E9,9E9]],v20,fine,claddinghead\WObj:=wFCpivot;
    LaserEnd;
    MoveL [[30.000,-198.400,-195.000],[0.707107,0.000000,0.000000,-0.707107],[0,0,1,0],[9E9,9E9,9E9,9E9,9E9,9E9]],v20,fine,claddinghead\WObj:=wFCpivot;
    LaserStart;
    MoveL [[30.000,198.400,-195.000],[0.707107,0.000000,0.000000,-0.707107],[0,0,1,0],[9E9,9E9,9E9,9E9,9E9,9E9]],v20,fine,claddinghead\WObj:=wFCpivot;
    LaserEnd;
    MoveL [[25.000,198.400,-195.000],[0.707107,0.000000,0.000000,-0.707107],[0,0,1,0],[9E9,9E9,9E9,9E9,9E9,9E9]],v20,fine,claddinghead\WObj:=wFCpivot;
    LaserStart;
    MoveL [[25.000,-198.400,-195.000],[0.707107,0.000000,0.000000,-0.707107],[0,0,1,0],[9E9,9E9,9E9,9E9,9E9,9E9]],v20,fine,claddinghead\WObj:=wFCpivot;
    LaserEnd;
    MoveL [[20.000,-198.400,-195.000],[0.707107,0.000000,0.000000,-0.707107],[0,0,1,0],[9E9,9E9,9E9,9E9,9E9,9E9]],v20,fine,claddinghead\WObj:=wFCpivot;
    LaserStart;
    MoveL [[20.000,198.400,-195.000],[0.707107,0.000000,0.000000,-0.707107],[0,0,1,0],[9E9,9E9,9E9,9E9,9E9,9E9]],v20,fine,claddinghead\WObj:=wFCpivot;
    LaserEnd;
    MoveL [[15.000,198.400,-195.000],[0.707107,0.000000,0.000000,-0.707107],[0,0,1,0],[9E9,9E9,9E9,9E9,9E9,9E9]],v20,fine,claddinghead\WObj:=wFCpivot;
    LaserStart;
    MoveL [[15.000,-198.400,-195.000],[0.707107,0.000000,0.000000,-0.707107],[0,0,1,0],[9E9,9E9,9E9,9E9,9E9,9E9]],v20,fine,claddinghead\WObj:=wFCpivot;
    LaserEnd;
    MoveL [[10.000,-198.400,-195.000],[0.707107,0.000000,0.000000,-0.707107],[0,0,1,0],[9E9,9E9,9E9,9E9,9E9,9E9]],v20,fine,claddinghead\WObj:=wFCpivot;
    LaserStart;
    MoveL [[10.000,198.400,-195.000],[0.707107,0.000000,0.000000,-0.707107],[0,0,1,0],[9E9,9E9,9E9,9E9,9E9,9E9]],v20,fine,claddinghead\WObj:=wFCpivot;
    LaserEnd;
    MoveL [[5.000,198.400,-195.000],[0.707107,0.000000,0.000000,-0.707107],[0,0,1,0],[9E9,9E9,9E9,9E9,9E9,9E9]],v20,fine,claddinghead\WObj:=wFCpivot;
    LaserStart;
    MoveL [[5.000,-198.400,-195.000],[0.707107,0.000000,0.000000,-0.707107],[0,0,1,0],[9E9,9E9,9E9,9E9,9E9,9E9]],v20,fine,claddinghead\WObj:=wFCpivot;
    LaserEnd;
    MoveL [[0.000,-198.400,-195.000],[0.707107,0.000000,0.000000,-0.707107],[0,0,1,0],[9E9,9E9,9E9,9E9,9E9,9E9]],v20,fine,claddinghead\WObj:=wFCpivot;
    LaserStart;
    MoveL [[0.000,198.400,-195.000],[0.707107,0.000000,0.000000,-0.707107],[0,0,1,0],[9E9,9E9,9E9,9E9,9E9,9E9]],v20,fine,claddinghead\WObj:=wFCpivot;
    LaserEnd;
    MoveL [[-5.000,198.400,-195.000],[0.707107,0.000000,0.000000,-0.707107],[0,0,1,0],[9E9,9E9,9E9,9E9,9E9,9E9]],v20,fine,claddinghead\WObj:=wFCpivot;
    LaserStart;
    MoveL [[-5.000,-198.400,-195.000],[0.707107,0.000000,0.000000,-0.707107],[0,0,1,0],[9E9,9E9,9E9,9E9,9E9,9E9]],v20,fine,claddinghead\WObj:=wFCpivot;
    LaserEnd;
    MoveL [[-10.000,-198.400,-195.000],[0.707107,0.000000,0.000000,-0.707107],[0,0,1,0],[9E9,9E9,9E9,9E9,9E9,9E9]],v20,fine,claddinghead\WObj:=wFCpivot;
    LaserStart;
    MoveL [[-10.000,198.400,-195.000],[0.707107,0.000000,0.000000,-0.707107],[0,0,1,0],[9E9,9E9,9E9,9E9,9E9,9E9]],v20,fine,claddinghead\WObj:=wFCpivot;
    LaserEnd;
    MoveL [[-15.000,198.400,-195.000],[0.707107,0.000000,0.000000,-0.707107],[0,0,1,0],[9E9,9E9,9E9,9E9,9E9,9E9]],v20,fine,claddinghead\WObj:=wFCpivot;
    LaserStart;
    MoveL [[-15.000,-198.400,-195.000],[0.707107,0.000000,0.000000,-0.707107],[0,0,1,0],[9E9,9E9,9E9,9E9,9E9,9E9]],v20,fine,claddinghead\WObj:=wFCpivot;
    LaserEnd;
    MoveL [[-20.000,-198.400,-195.000],[0.707107,0.000000,0.000000,-0.707107],[0,0,1,0],[9E9,9E9,9E9,9E9,9E9,9E9]],v20,fine,claddinghead\WObj:=wFCpivot;
    LaserStart;
    MoveL [[-20.000,198.400,-195.000],[0.707107,0.000000,0.000000,-0.707107],[0,0,1,0],[9E9,9E9,9E9,9E9,9E9,9E9]],v20,fine,claddinghead\WObj:=wFCpivot;
    LaserEnd;
    MoveL [[-25.000,198.400,-195.000],[0.707107,0.000000,0.000000,-0.707107],[0,0,1,0],[9E9,9E9,9E9,9E9,9E9,9E9]],v20,fine,claddinghead\WObj:=wFCpivot;
    LaserStart;
    MoveL [[-25.000,-198.400,-195.000],[0.707107,0.000000,0.000000,-0.707107],[0,0,1,0],[9E9,9E9,9E9,9E9,9E9,9E9]],v20,fine,claddinghead\WObj:=wFCpivot;
    LaserEnd;
    MoveL [[-30.000,-198.400,-195.000],[0.707107,0.000000,0.000000,-0.707107],[0,0,1,0],[9E9,9E9,9E9,9E9,9E9,9E9]],v20,fine,claddinghead\WObj:=wFCpivot;
    LaserStart;
    MoveL [[-30.000,198.400,-195.000],[0.707107,0.000000,0.000000,-0.707107],[0,0,1,0],[9E9,9E9,9E9,9E9,9E9,9E9]],v20,fine,claddinghead\WObj:=wFCpivot;
    LaserEnd;
    MoveL [[-35.000,198.400,-195.000],[0.707107,0.000000,0.000000,-0.707107],[0,0,1,0],[9E9,9E9,9E9,9E9,9E9,9E9]],v20,fine,claddinghead\WObj:=wFCpivot;
    LaserStart;
    MoveL [[-35.000,-198.400,-195.000],[0.707107,0.000000,0.000000,-0.707107],[0,0,1,0],[9E9,9E9,9E9,9E9,9E9,9E9]],v20,fine,claddinghead\WObj:=wFCpivot;
    LaserEnd;
    MoveL [[-40.000,-198.400,-195.000],[0.707107,0.000000,0.000000,-0.707107],[0,0,1,0],[9E9,9E9,9E9,9E9,9E9,9E9]],v20,fine,claddinghead\WObj:=wFCpivot;
    LaserStart;
    MoveL [[-40.000,198.400,-195.000],[0.707107,0.000000,0.000000,-0.707107],[0,0,1,0],[9E9,9E9,9E9,9E9,9E9,9E9]],v20,fine,claddinghead\WObj:=wFCpivot;
    LaserEnd;
    MoveL [[-45.000,198.400,-195.000],[0.707107,0.000000,0.000000,-0.707107],[0,0,1,0],[9E9,9E9,9E9,9E9,9E9,9E9]],v20,fine,claddinghead\WObj:=wFCpivot;
    LaserStart;
    MoveL [[-45.000,-198.400,-195.000],[0.707107,0.000000,0.000000,-0.707107],[0,0,1,0],[9E9,9E9,9E9,9E9,9E9,9E9]],v20,fine,claddinghead\WObj:=wFCpivot;
    LaserEnd;
    MoveL [[-50.000,-198.400,-195.000],[0.707107,0.000000,0.000000,-0.707107],[0,0,1,0],[9E9,9E9,9E9,9E9,9E9,9E9]],v20,fine,claddinghead\WObj:=wFCpivot;
    LaserStart;
    MoveL [[-50.000,198.400,-195.000],[0.707107,0.000000,0.000000,-0.707107],[0,0,1,0],[9E9,9E9,9E9,9E9,9E9,9E9]],v20,fine,claddinghead\WObj:=wFCpivot;
    LaserEnd;
    MoveL [[-55.000,198.400,-195.000],[0.707107,0.000000,0.000000,-0.707107],[0,0,1,0],[9E9,9E9,9E9,9E9,9E9,9E9]],v20,fine,claddinghead\WObj:=wFCpivot;
    LaserStart;
    MoveL [[-55.000,-198.400,-195.000],[0.707107,0.000000,0.000000,-0.707107],[0,0,1,0],[9E9,9E9,9E9,9E9,9E9,9E9]],v20,fine,claddinghead\WObj:=wFCpivot;
    LaserEnd;
    MoveL [[-60.000,-198.400,-195.000],[0.707107,0.000000,0.000000,-0.707107],[0,0,1,0],[9E9,9E9,9E9,9E9,9E9,9E9]],v20,fine,claddinghead\WObj:=wFCpivot;
    LaserStart;
    MoveL [[-60.000,198.400,-195.000],[0.707107,0.000000,0.000000,-0.707107],[0,0,1,0],[9E9,9E9,9E9,9E9,9E9,9E9]],v20,fine,claddinghead\WObj:=wFCpivot;
    LaserEnd;
    MoveL [[-65.000,198.400,-195.000],[0.707107,0.000000,0.000000,-0.707107],[0,0,1,0],[9E9,9E9,9E9,9E9,9E9,9E9]],v20,fine,claddinghead\WObj:=wFCpivot;
    LaserStart;
    MoveL [[-65.000,-198.400,-195.000],[0.707107,0.000000,0.000000,-0.707107],[0,0,1,0],[9E9,9E9,9E9,9E9,9E9,9E9]],v20,fine,claddinghead\WObj:=wFCpivot;
    LaserEnd;
    MoveL [[-70.000,-198.400,-195.000],[0.707107,0.000000,0.000000,-0.707107],[0,0,1,0],[9E9,9E9,9E9,9E9,9E9,9E9]],v20,fine,claddinghead\WObj:=wFCpivot;
    LaserStart;
    MoveL [[-70.000,198.400,-195.000],[0.707107,0.000000,0.000000,-0.707107],[0,0,1,0],[9E9,9E9,9E9,9E9,9E9,9E9]],v20,fine,claddinghead\WObj:=wFCpivot;
    LaserEnd;
    MoveL [[-75.000,198.400,-195.000],[0.707107,0.000000,0.000000,-0.707107],[0,0,1,0],[9E9,9E9,9E9,9E9,9E9,9E9]],v20,fine,claddinghead\WObj:=wFCpivot;
    LaserStart;
    MoveL [[-75.000,-198.400,-195.000],[0.707107,0.000000,0.000000,-0.707107],[0,0,1,0],[9E9,9E9,9E9,9E9,9E9,9E9]],v20,fine,claddinghead\WObj:=wFCpivot;
    LaserEnd;
    MoveL [[-80.000,-198.400,-195.000],[0.707107,0.000000,0.000000,-0.707107],[0,0,1,0],[9E9,9E9,9E9,9E9,9E9,9E9]],v20,fine,claddinghead\WObj:=wFCpivot;
    LaserStart;
    MoveL [[-80.000,198.400,-195.000],[0.707107,0.000000,0.000000,-0.707107],[0,0,1,0],[9E9,9E9,9E9,9E9,9E9,9E9]],v20,fine,claddinghead\WObj:=wFCpivot;
    LaserEnd;
    MoveL [[-85.000,198.400,-195.000],[0.707107,0.000000,0.000000,-0.707107],[0,0,1,0],[9E9,9E9,9E9,9E9,9E9,9E9]],v20,fine,claddinghead\WObj:=wFCpivot;
    LaserStart;
    MoveL [[-85.000,-198.400,-195.000],[0.707107,0.000000,0.000000,-0.707107],[0,0,1,0],[9E9,9E9,9E9,9E9,9E9,9E9]],v20,fine,claddinghead\WObj:=wFCpivot;
    LaserEnd;
    MoveL [[-90.000,-198.400,-195.000],[0.707107,0.000000,0.000000,-0.707107],[0,0,1,0],[9E9,9E9,9E9,9E9,9E9,9E9]],v20,fine,claddinghead\WObj:=wFCpivot;
    LaserStart;
    MoveL [[-90.000,198.400,-195.000],[0.707107,0.000000,0.000000,-0.707107],[0,0,1,0],[9E9,9E9,9E9,9E9,9E9,9E9]],v20,fine,claddinghead\WObj:=wFCpivot;
    LaserEnd;
    MoveL [[-95.000,198.400,-195.000],[0.707107,0.000000,0.000000,-0.707107],[0,0,1,0],[9E9,9E9,9E9,9E9,9E9,9E9]],v20,fine,claddinghead\WObj:=wFCpivot;
    LaserStart;
    MoveL [[-95.000,-198.400,-195.000],[0.707107,0.000000,0.000000,-0.707107],[0,0,1,0],[9E9,9E9,9E9,9E9,9E9,9E9]],v20,fine,claddinghead\WObj:=wFCpivot;
    LaserEnd;
    MoveL [[-100.000,-198.400,-195.000],[0.707107,0.000000,0.000000,-0.707107],[0,0,1,0],[9E9,9E9,9E9,9E9,9E9,9E9]],v20,fine,claddinghead\WObj:=wFCpivot;
    LaserStart;
    MoveL [[-100.000,198.400,-195.000],[0.707107,0.000000,0.000000,-0.707107],[0,0,1,0],[9E9,9E9,9E9,9E9,9E9,9E9]],v20,fine,claddinghead\WObj:=wFCpivot;
    LaserEnd;
    MoveL [[-105.000,198.400,-195.000],[0.707107,0.000000,0.000000,-0.707107],[0,0,1,0],[9E9,9E9,9E9,9E9,9E9,9E9]],v20,fine,claddinghead\WObj:=wFCpivot;
    LaserStart;
    MoveL [[-105.000,-198.400,-195.000],[0.707107,0.000000,0.000000,-0.707107],[0,0,1,0],[9E9,9E9,9E9,9E9,9E9,9E9]],v20,fine,claddinghead\WObj:=wFCpivot;
    LaserEnd;
    MoveL [[-110.000,-198.400,-195.000],[0.707107,0.000000,0.000000,-0.707107],[0,0,1,0],[9E9,9E9,9E9,9E9,9E9,9E9]],v20,fine,claddinghead\WObj:=wFCpivot;
    LaserStart;
    MoveL [[-110.000,198.400,-195.000],[0.707107,0.000000,0.000000,-0.707107],[0,0,1,0],[9E9,9E9,9E9,9E9,9E9,9E9]],v20,fine,claddinghead\WObj:=wFCpivot;
    LaserEnd;
    MoveL [[-115.000,198.400,-195.000],[0.707107,0.000000,0.000000,-0.707107],[0,0,1,0],[9E9,9E9,9E9,9E9,9E9,9E9]],v20,fine,claddinghead\WObj:=wFCpivot;
    LaserStart;
    MoveL [[-115.000,-198.400,-195.000],[0.707107,0.000000,0.000000,-0.707107],[0,0,1,0],[9E9,9E9,9E9,9E9,9E9,9E9]],v20,fine,claddinghead\WObj:=wFCpivot;
    LaserEnd;
    MoveL [[-120.000,-198.400,-195.000],[0.707107,0.000000,0.000000,-0.707107],[0,0,1,0],[9E9,9E9,9E9,9E9,9E9,9E9]],v20,fine,claddinghead\WObj:=wFCpivot;
    LaserStart;
    MoveL [[-120.000,198.400,-195.000],[0.707107,0.000000,0.000000,-0.707107],[0,0,1,0],[9E9,9E9,9E9,9E9,9E9,9E9]],v20,fine,claddinghead\WObj:=wFCpivot;
    LaserEnd;
    MoveL [[-125.000,198.400,-195.000],[0.707107,0.000000,0.000000,-0.707107],[0,0,1,0],[9E9,9E9,9E9,9E9,9E9,9E9]],v20,fine,claddinghead\WObj:=wFCpivot;
    LaserStart;
    MoveL [[-125.000,-198.400,-195.000],[0.707107,0.000000,0.000000,-0.707107],[0,0,1,0],[9E9,9E9,9E9,9E9,9E9,9E9]],v20,fine,claddinghead\WObj:=wFCpivot;
    LaserEnd;
    MoveL [[-130.000,-198.400,-195.000],[0.707107,0.000000,0.000000,-0.707107],[0,0,1,0],[9E9,9E9,9E9,9E9,9E9,9E9]],v20,fine,claddinghead\WObj:=wFCpivot;
    LaserStart;
    MoveL [[-130.000,198.400,-195.000],[0.707107,0.000000,0.000000,-0.707107],[0,0,1,0],[9E9,9E9,9E9,9E9,9E9,9E9]],v20,fine,claddinghead\WObj:=wFCpivot;
    LaserEnd;
    MoveL [[-135.000,198.400,-195.000],[0.707107,0.000000,0.000000,-0.707107],[0,0,1,0],[9E9,9E9,9E9,9E9,9E9,9E9]],v20,fine,claddinghead\WObj:=wFCpivot;
    LaserStart;
    MoveL [[-135.000,-198.400,-195.000],[0.707107,0.000000,0.000000,-0.707107],[0,0,1,0],[9E9,9E9,9E9,9E9,9E9,9E9]],v20,fine,claddinghead\WObj:=wFCpivot;
    LaserEnd;
    MoveL [[-140.000,-198.400,-195.000],[0.707107,0.000000,0.000000,-0.707107],[0,0,1,0],[9E9,9E9,9E9,9E9,9E9,9E9]],v20,fine,claddinghead\WObj:=wFCpivot;
    LaserStart;
    MoveL [[-140.000,198.400,-195.000],[0.707107,0.000000,0.000000,-0.707107],[0,0,1,0],[9E9,9E9,9E9,9E9,9E9,9E9]],v20,fine,claddinghead\WObj:=wFCpivot;
    LaserEnd;
    MoveL [[-145.000,198.400,-195.000],[0.707107,0.000000,0.000000,-0.707107],[0,0,1,0],[9E9,9E9,9E9,9E9,9E9,9E9]],v20,fine,claddinghead\WObj:=wFCpivot;
    LaserStart;
    MoveL [[-145.000,-198.400,-195.000],[0.707107,0.000000,0.000000,-0.707107],[0,0,1,0],[9E9,9E9,9E9,9E9,9E9,9E9]],v20,fine,claddinghead\WObj:=wFCpivot;
    LaserEnd;
    MoveL [[-150.000,-198.400,-195.000],[0.707107,0.000000,0.000000,-0.707107],[0,0,1,0],[9E9,9E9,9E9,9E9,9E9,9E9]],v20,fine,claddinghead\WObj:=wFCpivot;
    LaserStart;
    MoveL [[-150.000,198.400,-195.000],[0.707107,0.000000,0.000000,-0.707107],[0,0,1,0],[9E9,9E9,9E9,9E9,9E9,9E9]],v20,fine,claddinghead\WObj:=wFCpivot;
    LaserEnd;
    MoveL [[-155.000,198.400,-195.000],[0.707107,0.000000,0.000000,-0.707107],[0,0,1,0],[9E9,9E9,9E9,9E9,9E9,9E9]],v20,fine,claddinghead\WObj:=wFCpivot;
    LaserStart;
    MoveL [[-155.000,-198.400,-195.000],[0.707107,0.000000,0.000000,-0.707107],[0,0,1,0],[9E9,9E9,9E9,9E9,9E9,9E9]],v20,fine,claddinghead\WObj:=wFCpivot;
    LaserEnd;
    MoveL [[-160.000,-198.400,-195.000],[0.707107,0.000000,0.000000,-0.707107],[0,0,1,0],[9E9,9E9,9E9,9E9,9E9,9E9]],v20,fine,claddinghead\WObj:=wFCpivot;
    LaserStart;
    MoveL [[-160.000,198.400,-195.000],[0.707107,0.000000,0.000000,-0.707107],[0,0,1,0],[9E9,9E9,9E9,9E9,9E9,9E9]],v20,fine,claddinghead\WObj:=wFCpivot;
    LaserEnd;
    MoveL [[-165.000,198.400,-195.000],[0.707107,0.000000,0.000000,-0.707107],[0,0,1,0],[9E9,9E9,9E9,9E9,9E9,9E9]],v20,fine,claddinghead\WObj:=wFCpivot;
    LaserStart;
    MoveL [[-165.000,-198.400,-195.000],[0.707107,0.000000,0.000000,-0.707107],[0,0,1,0],[9E9,9E9,9E9,9E9,9E9,9E9]],v20,fine,claddinghead\WObj:=wFCpivot;
    LaserEnd;
    MoveL [[-170.000,-198.400,-195.000],[0.707107,0.000000,0.000000,-0.707107],[0,0,1,0],[9E9,9E9,9E9,9E9,9E9,9E9]],v20,fine,claddinghead\WObj:=wFCpivot;
    LaserStart;
    MoveL [[-170.000,198.400,-195.000],[0.707107,0.000000,0.000000,-0.707107],[0,0,1,0],[9E9,9E9,9E9,9E9,9E9,9E9]],v20,fine,claddinghead\WObj:=wFCpivot;
    LaserEnd;
    MoveL [[-175.000,198.400,-195.000],[0.707107,0.000000,0.000000,-0.707107],[0,0,1,0],[9E9,9E9,9E9,9E9,9E9,9E9]],v20,fine,claddinghead\WObj:=wFCpivot;
    LaserStart;
    MoveL [[-175.000,-198.400,-195.000],[0.707107,0.000000,0.000000,-0.707107],[0,0,1,0],[9E9,9E9,9E9,9E9,9E9,9E9]],v20,fine,claddinghead\WObj:=wFCpivot;
    LaserEnd;
    MoveL [[-180.000,-198.400,-195.000],[0.707107,0.000000,0.000000,-0.707107],[0,0,1,0],[9E9,9E9,9E9,9E9,9E9,9E9]],v20,fine,claddinghead\WObj:=wFCpivot;
    LaserStart;
    MoveL [[-180.000,198.400,-195.000],[0.707107,0.000000,0.000000,-0.707107],[0,0,1,0],[9E9,9E9,9E9,9E9,9E9,9E9]],v20,fine,claddinghead\WObj:=wFCpivot;
    LaserEnd;
    MoveL [[-185.000,198.400,-195.000],[0.707107,0.000000,0.000000,-0.707107],[0,0,1,0],[9E9,9E9,9E9,9E9,9E9,9E9]],v20,fine,claddinghead\WObj:=wFCpivot;
    LaserStart;
    MoveL [[-185.000,-198.400,-195.000],[0.707107,0.000000,0.000000,-0.707107],[0,0,1,0],[9E9,9E9,9E9,9E9,9E9,9E9]],v20,fine,claddinghead\WObj:=wFCpivot;
    LaserEnd;
    MoveL [[-190.000,-198.400,-195.000],[0.707107,0.000000,0.000000,-0.707107],[0,0,1,0],[9E9,9E9,9E9,9E9,9E9,9E9]],v20,fine,claddinghead\WObj:=wFCpivot;
    LaserStart;
    MoveL [[-190.000,198.400,-195.000],[0.707107,0.000000,0.000000,-0.707107],[0,0,1,0],[9E9,9E9,9E9,9E9,9E9,9E9]],v20,fine,claddinghead\WObj:=wFCpivot;
    LaserEnd;
    MoveL [[-195.000,198.400,-195.000],[0.707107,0.000000,0.000000,-0.707107],[0,0,1,0],[9E9,9E9,9E9,9E9,9E9,9E9]],v20,fine,claddinghead\WObj:=wFCpivot;
    LaserStart;
    MoveL [[-195.000,-198.400,-195.000],[0.707107,0.000000,0.000000,-0.707107],[0,0,1,0],[9E9,9E9,9E9,9E9,9E9,9E9]],v20,fine,claddinghead\WObj:=wFCpivot;
    LaserEnd;
    MoveL [[187.877,200.000,-190.000],[0.707107,0.000000,0.000000,-0.707107],[0,0,1,0],[9E9,9E9,9E9,9E9,9E9,9E9]],v20,fine,claddinghead\WObj:=wFCpivot;
    LaserStart;
    MoveL [[200.000,200.000,-190.000],[0.707107,0.000000,0.000000,-0.707107],[0,0,1,0],[9E9,9E9,9E9,9E9,9E9,9E9]],v20,z0,claddinghead\WObj:=wFCpivot;
    MoveL [[200.000,187.675,-190.000],[0.707107,0.000000,0.000000,-0.707107],[0,0,1,0],[9E9,9E9,9E9,9E9,9E9,9E9]],v20,z0,claddinghead\WObj:=wFCpivot;
    MoveL [[200.000,177.135,-190.000],[0.707107,0.000000,0.000000,-0.707107],[0,0,1,0],[9E9,9E9,9E9,9E9,9E9,9E9]],v20,z0,claddinghead\WObj:=wFCpivot;
    MoveL [[200.000,155.625,-190.000],[0.707107,0.000000,0.000000,-0.707107],[0,0,1,0],[9E9,9E9,9E9,9E9,9E9,9E9]],v20,z0,claddinghead\WObj:=wFCpivot;
    MoveL [[200.000,141.670,-190.000],[0.707107,0.000000,0.000000,-0.707107],[0,0,1,0],[9E9,9E9,9E9,9E9,9E9,9E9]],v20,z0,claddinghead\WObj:=wFCpivot;
    MoveL [[200.000,104.861,-190.000],[0.707107,0.000000,0.000000,-0.707107],[0,0,1,0],[9E9,9E9,9E9,9E9,9E9,9E9]],v20,z0,claddinghead\WObj:=wFCpivot;
    MoveL [[200.000,94.056,-190.000],[0.707107,0.000000,0.000000,-0.707107],[0,0,1,0],[9E9,9E9,9E9,9E9,9E9,9E9]],v20,z0,claddinghead\WObj:=wFCpivot;
    MoveL [[200.000,38.927,-190.000],[0.707107,0.000000,0.000000,-0.707107],[0,0,1,0],[9E9,9E9,9E9,9E9,9E9,9E9]],v20,z0,claddinghead\WObj:=wFCpivot;
    MoveL [[200.000,28.196,-190.000],[0.707107,0.000000,0.000000,-0.707107],[0,0,1,0],[9E9,9E9,9E9,9E9,9E9,9E9]],v20,z0,claddinghead\WObj:=wFCpivot;
    MoveL [[200.000,-43.147,-190.000],[0.707107,0.000000,0.000000,-0.707107],[0,0,1,0],[9E9,9E9,9E9,9E9,9E9,9E9]],v20,z0,claddinghead\WObj:=wFCpivot;
    MoveL [[200.000,-53.428,-190.000],[0.707107,0.000000,0.000000,-0.707107],[0,0,1,0],[9E9,9E9,9E9,9E9,9E9,9E9]],v20,z0,claddinghead\WObj:=wFCpivot;
    MoveL [[200.000,-63.287,-190.000],[0.707107,0.000000,0.000000,-0.707107],[0,0,1,0],[9E9,9E9,9E9,9E9,9E9,9E9]],v20,z0,claddinghead\WObj:=wFCpivot;
    MoveL [[200.000,-109.075,-190.000],[0.707107,0.000000,0.000000,-0.707107],[0,0,1,0],[9E9,9E9,9E9,9E9,9E9,9E9]],v20,z0,claddinghead\WObj:=wFCpivot;
    MoveL [[200.000,-117.745,-190.000],[0.707107,0.000000,0.000000,-0.707107],[0,0,1,0],[9E9,9E9,9E9,9E9,9E9,9E9]],v20,z0,claddinghead\WObj:=wFCpivot;
    MoveL [[200.000,-147.905,-190.000],[0.707107,0.000000,0.000000,-0.707107],[0,0,1,0],[9E9,9E9,9E9,9E9,9E9,9E9]],v20,z0,claddinghead\WObj:=wFCpivot;
    MoveL [[200.000,-158.161,-190.000],[0.707107,0.000000,0.000000,-0.707107],[0,0,1,0],[9E9,9E9,9E9,9E9,9E9,9E9]],v20,z0,claddinghead\WObj:=wFCpivot;
    MoveL [[200.000,-177.819,-190.000],[0.707107,0.000000,0.000000,-0.707107],[0,0,1,0],[9E9,9E9,9E9,9E9,9E9,9E9]],v20,z0,claddinghead\WObj:=wFCpivot;
    MoveL [[200.000,-188.685,-190.000],[0.707107,0.000000,0.000000,-0.707107],[0,0,1,0],[9E9,9E9,9E9,9E9,9E9,9E9]],v20,z0,claddinghead\WObj:=wFCpivot;
    MoveL [[200.000,-200.000,-190.000],[0.707107,0.000000,0.000000,-0.707107],[0,0,1,0],[9E9,9E9,9E9,9E9,9E9,9E9]],v20,z0,claddinghead\WObj:=wFCpivot;
    MoveL [[187.675,-200.000,-190.000],[0.707107,0.000000,0.000000,-0.707107],[0,0,1,0],[9E9,9E9,9E9,9E9,9E9,9E9]],v20,z0,claddinghead\WObj:=wFCpivot;
    MoveL [[176.733,-200.000,-190.000],[0.707107,0.000000,0.000000,-0.707107],[0,0,1,0],[9E9,9E9,9E9,9E9,9E9,9E9]],v20,z0,claddinghead\WObj:=wFCpivot;
    MoveL [[148.880,-200.000,-190.000],[0.707107,0.000000,0.000000,-0.707107],[0,0,1,0],[9E9,9E9,9E9,9E9,9E9,9E9]],v20,z0,claddinghead\WObj:=wFCpivot;
    MoveL [[135.770,-200.000,-190.000],[0.707107,0.000000,0.000000,-0.707107],[0,0,1,0],[9E9,9E9,9E9,9E9,9E9,9E9]],v20,z0,claddinghead\WObj:=wFCpivot;
    MoveL [[126.721,-200.000,-190.000],[0.707107,0.000000,0.000000,-0.707107],[0,0,1,0],[9E9,9E9,9E9,9E9,9E9,9E9]],v20,z0,claddinghead\WObj:=wFCpivot;
    MoveL [[86.538,-200.000,-190.000],[0.707107,0.000000,0.000000,-0.707107],[0,0,1,0],[9E9,9E9,9E9,9E9,9E9,9E9]],v20,z0,claddinghead\WObj:=wFCpivot;
    MoveL [[76.818,-200.000,-190.000],[0.707107,0.000000,0.000000,-0.707107],[0,0,1,0],[9E9,9E9,9E9,9E9,9E9,9E9]],v20,z0,claddinghead\WObj:=wFCpivot;
    MoveL [[-0.569,-200.000,-190.000],[0.707107,0.000000,0.000000,-0.707107],[0,0,1,0],[9E9,9E9,9E9,9E9,9E9,9E9]],v20,z0,claddinghead\WObj:=wFCpivot;
    MoveL [[-11.247,-200.000,-190.000],[0.707107,0.000000,0.000000,-0.707107],[0,0,1,0],[9E9,9E9,9E9,9E9,9E9,9E9]],v20,z0,claddinghead\WObj:=wFCpivot;
    MoveL [[-74.398,-200.000,-190.000],[0.707107,0.000000,0.000000,-0.707107],[0,0,1,0],[9E9,9E9,9E9,9E9,9E9,9E9]],v20,z0,claddinghead\WObj:=wFCpivot;
    MoveL [[-84.056,-200.000,-190.000],[0.707107,0.000000,0.000000,-0.707107],[0,0,1,0],[9E9,9E9,9E9,9E9,9E9,9E9]],v20,z0,claddinghead\WObj:=wFCpivot;
    MoveL [[-126.088,-200.000,-190.000],[0.707107,0.000000,0.000000,-0.707107],[0,0,1,0],[9E9,9E9,9E9,9E9,9E9,9E9]],v20,z0,claddinghead\WObj:=wFCpivot;
    MoveL [[-134.881,-200.000,-190.000],[0.707107,0.000000,0.000000,-0.707107],[0,0,1,0],[9E9,9E9,9E9,9E9,9E9,9E9]],v20,z0,claddinghead\WObj:=wFCpivot;
    MoveL [[-165.506,-200.000,-190.000],[0.707107,0.000000,0.000000,-0.707107],[0,0,1,0],[9E9,9E9,9E9,9E9,9E9,9E9]],v20,z0,claddinghead\WObj:=wFCpivot;
    MoveL [[-173.379,-200.000,-190.000],[0.707107,0.000000,0.000000,-0.707107],[0,0,1,0],[9E9,9E9,9E9,9E9,9E9,9E9]],v20,z0,claddinghead\WObj:=wFCpivot;
    MoveL [[-185.251,-200.000,-190.000],[0.707107,0.000000,0.000000,-0.707107],[0,0,1,0],[9E9,9E9,9E9,9E9,9E9,9E9]],v20,z0,claddinghead\WObj:=wFCpivot;
    MoveL [[-200.000,-200.000,-190.000],[0.707107,0.000000,0.000000,-0.707107],[0,0,1,0],[9E9,9E9,9E9,9E9,9E9,9E9]],v20,z0,claddinghead\WObj:=wFCpivot;
    MoveL [[-200.000,-184.645,-190.000],[0.707107,0.000000,0.000000,-0.707107],[0,0,1,0],[9E9,9E9,9E9,9E9,9E9,9E9]],v20,z0,claddinghead\WObj:=wFCpivot;
    MoveL [[-200.000,-173.300,-190.000],[0.707107,0.000000,0.000000,-0.707107],[0,0,1,0],[9E9,9E9,9E9,9E9,9E9,9E9]],v20,z0,claddinghead\WObj:=wFCpivot;
    MoveL [[-200.000,-165.683,-190.000],[0.707107,0.000000,0.000000,-0.707107],[0,0,1,0],[9E9,9E9,9E9,9E9,9E9,9E9]],v20,z0,claddinghead\WObj:=wFCpivot;
    MoveL [[-200.000,-132.503,-190.000],[0.707107,0.000000,0.000000,-0.707107],[0,0,1,0],[9E9,9E9,9E9,9E9,9E9,9E9]],v20,z0,claddinghead\WObj:=wFCpivot;
    MoveL [[-200.000,-122.552,-190.000],[0.707107,0.000000,0.000000,-0.707107],[0,0,1,0],[9E9,9E9,9E9,9E9,9E9,9E9]],v20,z0,claddinghead\WObj:=wFCpivot;
    MoveL [[-200.000,-79.072,-190.000],[0.707107,0.000000,0.000000,-0.707107],[0,0,1,0],[9E9,9E9,9E9,9E9,9E9,9E9]],v20,z0,claddinghead\WObj:=wFCpivot;
    MoveL [[-200.000,-69.555,-190.000],[0.707107,0.000000,0.000000,-0.707107],[0,0,1,0],[9E9,9E9,9E9,9E9,9E9,9E9]],v20,z0,claddinghead\WObj:=wFCpivot;
    MoveL [[-200.000,-3.864,-190.000],[0.707107,0.000000,0.000000,-0.707107],[0,0,1,0],[9E9,9E9,9E9,9E9,9E9,9E9]],v20,z0,claddinghead\WObj:=wFCpivot;
    MoveL [[-200.000,5.715,-190.000],[0.707107,0.000000,0.000000,-0.707107],[0,0,1,0],[9E9,9E9,9E9,9E9,9E9,9E9]],v20,z0,claddinghead\WObj:=wFCpivot;
    MoveL [[-200.000,15.643,-190.000],[0.707107,0.000000,0.000000,-0.707107],[0,0,1,0],[9E9,9E9,9E9,9E9,9E9,9E9]],v20,z0,claddinghead\WObj:=wFCpivot;
    MoveL [[-200.000,79.865,-190.000],[0.707107,0.000000,0.000000,-0.707107],[0,0,1,0],[9E9,9E9,9E9,9E9,9E9,9E9]],v20,z0,claddinghead\WObj:=wFCpivot;
    MoveL [[-200.000,88.502,-190.000],[0.707107,0.000000,0.000000,-0.707107],[0,0,1,0],[9E9,9E9,9E9,9E9,9E9,9E9]],v20,z0,claddinghead\WObj:=wFCpivot;
    MoveL [[-200.000,131.220,-190.000],[0.707107,0.000000,0.000000,-0.707107],[0,0,1,0],[9E9,9E9,9E9,9E9,9E9,9E9]],v20,z0,claddinghead\WObj:=wFCpivot;
    MoveL [[-200.000,138.695,-190.000],[0.707107,0.000000,0.000000,-0.707107],[0,0,1,0],[9E9,9E9,9E9,9E9,9E9,9E9]],v20,z0,claddinghead\WObj:=wFCpivot;
    MoveL [[-200.000,150.219,-190.000],[0.707107,0.000000,0.000000,-0.707107],[0,0,1,0],[9E9,9E9,9E9,9E9,9E9,9E9]],v20,z0,claddinghead\WObj:=wFCpivot;
    MoveL [[-200.000,178.730,-190.000],[0.707107,0.000000,0.000000,-0.707107],[0,0,1,0],[9E9,9E9,9E9,9E9,9E9,9E9]],v20,z0,claddinghead\WObj:=wFCpivot;
    MoveL [[-200.000,188.685,-190.000],[0.707107,0.000000,0.000000,-0.707107],[0,0,1,0],[9E9,9E9,9E9,9E9,9E9,9E9]],v20,z0,claddinghead\WObj:=wFCpivot;
    MoveL [[-200.000,200.000,-190.000],[0.707107,0.000000,0.000000,-0.707107],[0,0,1,0],[9E9,9E9,9E9,9E9,9E9,9E9]],v20,z0,claddinghead\WObj:=wFCpivot;
    MoveL [[-188.887,200.000,-190.000],[0.707107,0.000000,0.000000,-0.707107],[0,0,1,0],[9E9,9E9,9E9,9E9,9E9,9E9]],v20,z0,claddinghead\WObj:=wFCpivot;
    MoveL [[-178.340,200.000,-190.000],[0.707107,0.000000,0.000000,-0.707107],[0,0,1,0],[9E9,9E9,9E9,9E9,9E9,9E9]],v20,z0,claddinghead\WObj:=wFCpivot;
    MoveL [[-159.592,200.000,-190.000],[0.707107,0.000000,0.000000,-0.707107],[0,0,1,0],[9E9,9E9,9E9,9E9,9E9,9E9]],v20,z0,claddinghead\WObj:=wFCpivot;
    MoveL [[-149.491,200.000,-190.000],[0.707107,0.000000,0.000000,-0.707107],[0,0,1,0],[9E9,9E9,9E9,9E9,9E9,9E9]],v20,z0,claddinghead\WObj:=wFCpivot;
    MoveL [[-120.061,200.000,-190.000],[0.707107,0.000000,0.000000,-0.707107],[0,0,1,0],[9E9,9E9,9E9,9E9,9E9,9E9]],v20,z0,claddinghead\WObj:=wFCpivot;
    MoveL [[-109.167,200.000,-190.000],[0.707107,0.000000,0.000000,-0.707107],[0,0,1,0],[9E9,9E9,9E9,9E9,9E9,9E9]],v20,z0,claddinghead\WObj:=wFCpivot;
    MoveL [[-61.258,200.000,-190.000],[0.707107,0.000000,0.000000,-0.707107],[0,0,1,0],[9E9,9E9,9E9,9E9,9E9,9E9]],v20,z0,claddinghead\WObj:=wFCpivot;
    MoveL [[-50.565,200.000,-190.000],[0.707107,0.000000,0.000000,-0.707107],[0,0,1,0],[9E9,9E9,9E9,9E9,9E9,9E9]],v20,z0,claddinghead\WObj:=wFCpivot;
    MoveL [[23.322,200.000,-190.000],[0.707107,0.000000,0.000000,-0.707107],[0,0,1,0],[9E9,9E9,9E9,9E9,9E9,9E9]],v20,z0,claddinghead\WObj:=wFCpivot;
    MoveL [[34.005,200.000,-190.000],[0.707107,0.000000,0.000000,-0.707107],[0,0,1,0],[9E9,9E9,9E9,9E9,9E9,9E9]],v20,z0,claddinghead\WObj:=wFCpivot;
    MoveL [[44.586,200.000,-190.000],[0.707107,0.000000,0.000000,-0.707107],[0,0,1,0],[9E9,9E9,9E9,9E9,9E9,9E9]],v20,z0,claddinghead\WObj:=wFCpivot;
    MoveL [[98.074,200.000,-190.000],[0.707107,0.000000,0.000000,-0.707107],[0,0,1,0],[9E9,9E9,9E9,9E9,9E9,9E9]],v20,z0,claddinghead\WObj:=wFCpivot;
    MoveL [[107.332,200.000,-190.000],[0.707107,0.000000,0.000000,-0.707107],[0,0,1,0],[9E9,9E9,9E9,9E9,9E9,9E9]],v20,z0,claddinghead\WObj:=wFCpivot;
    MoveL [[143.200,200.000,-190.000],[0.707107,0.000000,0.000000,-0.707107],[0,0,1,0],[9E9,9E9,9E9,9E9,9E9,9E9]],v20,z0,claddinghead\WObj:=wFCpivot;
    MoveL [[155.386,200.000,-190.000],[0.707107,0.000000,0.000000,-0.707107],[0,0,1,0],[9E9,9E9,9E9,9E9,9E9,9E9]],v20,z0,claddinghead\WObj:=wFCpivot;
    MoveL [[176.871,200.000,-190.000],[0.707107,0.000000,0.000000,-0.707107],[0,0,1,0],[9E9,9E9,9E9,9E9,9E9,9E9]],v20,z0,claddinghead\WObj:=wFCpivot;
    MoveL [[187.877,200.000,-190.000],[0.707107,0.000000,0.000000,-0.707107],[0,0,1,0],[9E9,9E9,9E9,9E9,9E9,9E9]],v20,fine,claddinghead\WObj:=wFCpivot;
    LaserEnd;
    MoveL [[-198.400,195.000,-190.000],[0.707107,0.000000,0.000000,-0.707107],[0,0,1,0],[9E9,9E9,9E9,9E9,9E9,9E9]],v20,fine,claddinghead\WObj:=wFCpivot;
    LaserStart;
    MoveL [[198.400,195.000,-190.000],[0.707107,0.000000,0.000000,-0.707107],[0,0,1,0],[9E9,9E9,9E9,9E9,9E9,9E9]],v20,fine,claddinghead\WObj:=wFCpivot;
    LaserEnd;
    MoveL [[198.400,190.000,-190.000],[0.707107,0.000000,0.000000,-0.707107],[0,0,1,0],[9E9,9E9,9E9,9E9,9E9,9E9]],v20,fine,claddinghead\WObj:=wFCpivot;
    LaserStart;
    MoveL [[-198.400,190.000,-190.000],[0.707107,0.000000,0.000000,-0.707107],[0,0,1,0],[9E9,9E9,9E9,9E9,9E9,9E9]],v20,fine,claddinghead\WObj:=wFCpivot;
    LaserEnd;
    MoveL [[-198.400,185.000,-190.000],[0.707107,0.000000,0.000000,-0.707107],[0,0,1,0],[9E9,9E9,9E9,9E9,9E9,9E9]],v20,fine,claddinghead\WObj:=wFCpivot;
    LaserStart;
    MoveL [[198.400,185.000,-190.000],[0.707107,0.000000,0.000000,-0.707107],[0,0,1,0],[9E9,9E9,9E9,9E9,9E9,9E9]],v20,fine,claddinghead\WObj:=wFCpivot;
    LaserEnd;
    MoveL [[198.400,180.000,-190.000],[0.707107,0.000000,0.000000,-0.707107],[0,0,1,0],[9E9,9E9,9E9,9E9,9E9,9E9]],v20,fine,claddinghead\WObj:=wFCpivot;
    LaserStart;
    MoveL [[-198.400,180.000,-190.000],[0.707107,0.000000,0.000000,-0.707107],[0,0,1,0],[9E9,9E9,9E9,9E9,9E9,9E9]],v20,fine,claddinghead\WObj:=wFCpivot;
    LaserEnd;
    MoveL [[-198.400,175.000,-190.000],[0.707107,0.000000,0.000000,-0.707107],[0,0,1,0],[9E9,9E9,9E9,9E9,9E9,9E9]],v20,fine,claddinghead\WObj:=wFCpivot;
    LaserStart;
    MoveL [[198.400,175.000,-190.000],[0.707107,0.000000,0.000000,-0.707107],[0,0,1,0],[9E9,9E9,9E9,9E9,9E9,9E9]],v20,fine,claddinghead\WObj:=wFCpivot;
    LaserEnd;
    MoveL [[198.400,170.000,-190.000],[0.707107,0.000000,0.000000,-0.707107],[0,0,1,0],[9E9,9E9,9E9,9E9,9E9,9E9]],v20,fine,claddinghead\WObj:=wFCpivot;
    LaserStart;
    MoveL [[-198.400,170.000,-190.000],[0.707107,0.000000,0.000000,-0.707107],[0,0,1,0],[9E9,9E9,9E9,9E9,9E9,9E9]],v20,fine,claddinghead\WObj:=wFCpivot;
    LaserEnd;
    MoveL [[-198.400,165.000,-190.000],[0.707107,0.000000,0.000000,-0.707107],[0,0,1,0],[9E9,9E9,9E9,9E9,9E9,9E9]],v20,fine,claddinghead\WObj:=wFCpivot;
    LaserStart;
    MoveL [[198.400,165.000,-190.000],[0.707107,0.000000,0.000000,-0.707107],[0,0,1,0],[9E9,9E9,9E9,9E9,9E9,9E9]],v20,fine,claddinghead\WObj:=wFCpivot;
    LaserEnd;
    MoveL [[198.400,160.000,-190.000],[0.707107,0.000000,0.000000,-0.707107],[0,0,1,0],[9E9,9E9,9E9,9E9,9E9,9E9]],v20,fine,claddinghead\WObj:=wFCpivot;
    LaserStart;
    MoveL [[-198.400,160.000,-190.000],[0.707107,0.000000,0.000000,-0.707107],[0,0,1,0],[9E9,9E9,9E9,9E9,9E9,9E9]],v20,fine,claddinghead\WObj:=wFCpivot;
    LaserEnd;
    MoveL [[-198.400,155.000,-190.000],[0.707107,0.000000,0.000000,-0.707107],[0,0,1,0],[9E9,9E9,9E9,9E9,9E9,9E9]],v20,fine,claddinghead\WObj:=wFCpivot;
    LaserStart;
    MoveL [[198.400,155.000,-190.000],[0.707107,0.000000,0.000000,-0.707107],[0,0,1,0],[9E9,9E9,9E9,9E9,9E9,9E9]],v20,fine,claddinghead\WObj:=wFCpivot;
    LaserEnd;
    MoveL [[198.400,150.000,-190.000],[0.707107,0.000000,0.000000,-0.707107],[0,0,1,0],[9E9,9E9,9E9,9E9,9E9,9E9]],v20,fine,claddinghead\WObj:=wFCpivot;
    LaserStart;
    MoveL [[-198.400,150.000,-190.000],[0.707107,0.000000,0.000000,-0.707107],[0,0,1,0],[9E9,9E9,9E9,9E9,9E9,9E9]],v20,fine,claddinghead\WObj:=wFCpivot;
    LaserEnd;
    MoveL [[-198.400,145.000,-190.000],[0.707107,0.000000,0.000000,-0.707107],[0,0,1,0],[9E9,9E9,9E9,9E9,9E9,9E9]],v20,fine,claddinghead\WObj:=wFCpivot;
    LaserStart;
    MoveL [[198.400,145.000,-190.000],[0.707107,0.000000,0.000000,-0.707107],[0,0,1,0],[9E9,9E9,9E9,9E9,9E9,9E9]],v20,fine,claddinghead\WObj:=wFCpivot;
    LaserEnd;
    MoveL [[198.400,140.000,-190.000],[0.707107,0.000000,0.000000,-0.707107],[0,0,1,0],[9E9,9E9,9E9,9E9,9E9,9E9]],v20,fine,claddinghead\WObj:=wFCpivot;
    LaserStart;
    MoveL [[-198.400,140.000,-190.000],[0.707107,0.000000,0.000000,-0.707107],[0,0,1,0],[9E9,9E9,9E9,9E9,9E9,9E9]],v20,fine,claddinghead\WObj:=wFCpivot;
    LaserEnd;
    MoveL [[-198.400,135.000,-190.000],[0.707107,0.000000,0.000000,-0.707107],[0,0,1,0],[9E9,9E9,9E9,9E9,9E9,9E9]],v20,fine,claddinghead\WObj:=wFCpivot;
    LaserStart;
    MoveL [[198.400,135.000,-190.000],[0.707107,0.000000,0.000000,-0.707107],[0,0,1,0],[9E9,9E9,9E9,9E9,9E9,9E9]],v20,fine,claddinghead\WObj:=wFCpivot;
    LaserEnd;
    MoveL [[198.400,130.000,-190.000],[0.707107,0.000000,0.000000,-0.707107],[0,0,1,0],[9E9,9E9,9E9,9E9,9E9,9E9]],v20,fine,claddinghead\WObj:=wFCpivot;
    LaserStart;
    MoveL [[-198.400,130.000,-190.000],[0.707107,0.000000,0.000000,-0.707107],[0,0,1,0],[9E9,9E9,9E9,9E9,9E9,9E9]],v20,fine,claddinghead\WObj:=wFCpivot;
    LaserEnd;
    MoveL [[-198.400,125.000,-190.000],[0.707107,0.000000,0.000000,-0.707107],[0,0,1,0],[9E9,9E9,9E9,9E9,9E9,9E9]],v20,fine,claddinghead\WObj:=wFCpivot;
    LaserStart;
    MoveL [[198.400,125.000,-190.000],[0.707107,0.000000,0.000000,-0.707107],[0,0,1,0],[9E9,9E9,9E9,9E9,9E9,9E9]],v20,fine,claddinghead\WObj:=wFCpivot;
    LaserEnd;
    MoveL [[198.400,120.000,-190.000],[0.707107,0.000000,0.000000,-0.707107],[0,0,1,0],[9E9,9E9,9E9,9E9,9E9,9E9]],v20,fine,claddinghead\WObj:=wFCpivot;
    LaserStart;
    MoveL [[-198.400,120.000,-190.000],[0.707107,0.000000,0.000000,-0.707107],[0,0,1,0],[9E9,9E9,9E9,9E9,9E9,9E9]],v20,fine,claddinghead\WObj:=wFCpivot;
    LaserEnd;
    MoveL [[-198.400,115.000,-190.000],[0.707107,0.000000,0.000000,-0.707107],[0,0,1,0],[9E9,9E9,9E9,9E9,9E9,9E9]],v20,fine,claddinghead\WObj:=wFCpivot;
    LaserStart;
    MoveL [[198.400,115.000,-190.000],[0.707107,0.000000,0.000000,-0.707107],[0,0,1,0],[9E9,9E9,9E9,9E9,9E9,9E9]],v20,fine,claddinghead\WObj:=wFCpivot;
    LaserEnd;
    MoveL [[198.400,110.000,-190.000],[0.707107,0.000000,0.000000,-0.707107],[0,0,1,0],[9E9,9E9,9E9,9E9,9E9,9E9]],v20,fine,claddinghead\WObj:=wFCpivot;
    LaserStart;
    MoveL [[-198.400,110.000,-190.000],[0.707107,0.000000,0.000000,-0.707107],[0,0,1,0],[9E9,9E9,9E9,9E9,9E9,9E9]],v20,fine,claddinghead\WObj:=wFCpivot;
    LaserEnd;
    MoveL [[-198.400,105.000,-190.000],[0.707107,0.000000,0.000000,-0.707107],[0,0,1,0],[9E9,9E9,9E9,9E9,9E9,9E9]],v20,fine,claddinghead\WObj:=wFCpivot;
    LaserStart;
    MoveL [[198.400,105.000,-190.000],[0.707107,0.000000,0.000000,-0.707107],[0,0,1,0],[9E9,9E9,9E9,9E9,9E9,9E9]],v20,fine,claddinghead\WObj:=wFCpivot;
    LaserEnd;
    MoveL [[198.400,100.000,-190.000],[0.707107,0.000000,0.000000,-0.707107],[0,0,1,0],[9E9,9E9,9E9,9E9,9E9,9E9]],v20,fine,claddinghead\WObj:=wFCpivot;
    LaserStart;
    MoveL [[-198.400,100.000,-190.000],[0.707107,0.000000,0.000000,-0.707107],[0,0,1,0],[9E9,9E9,9E9,9E9,9E9,9E9]],v20,fine,claddinghead\WObj:=wFCpivot;
    LaserEnd;
    MoveL [[-198.400,95.000,-190.000],[0.707107,0.000000,0.000000,-0.707107],[0,0,1,0],[9E9,9E9,9E9,9E9,9E9,9E9]],v20,fine,claddinghead\WObj:=wFCpivot;
    LaserStart;
    MoveL [[198.400,95.000,-190.000],[0.707107,0.000000,0.000000,-0.707107],[0,0,1,0],[9E9,9E9,9E9,9E9,9E9,9E9]],v20,fine,claddinghead\WObj:=wFCpivot;
    LaserEnd;
    MoveL [[198.400,90.000,-190.000],[0.707107,0.000000,0.000000,-0.707107],[0,0,1,0],[9E9,9E9,9E9,9E9,9E9,9E9]],v20,fine,claddinghead\WObj:=wFCpivot;
    LaserStart;
    MoveL [[-198.400,90.000,-190.000],[0.707107,0.000000,0.000000,-0.707107],[0,0,1,0],[9E9,9E9,9E9,9E9,9E9,9E9]],v20,fine,claddinghead\WObj:=wFCpivot;
    LaserEnd;
    MoveL [[-198.400,85.000,-190.000],[0.707107,0.000000,0.000000,-0.707107],[0,0,1,0],[9E9,9E9,9E9,9E9,9E9,9E9]],v20,fine,claddinghead\WObj:=wFCpivot;
    LaserStart;
    MoveL [[198.400,85.000,-190.000],[0.707107,0.000000,0.000000,-0.707107],[0,0,1,0],[9E9,9E9,9E9,9E9,9E9,9E9]],v20,fine,claddinghead\WObj:=wFCpivot;
    LaserEnd;
    MoveL [[198.400,80.000,-190.000],[0.707107,0.000000,0.000000,-0.707107],[0,0,1,0],[9E9,9E9,9E9,9E9,9E9,9E9]],v20,fine,claddinghead\WObj:=wFCpivot;
    LaserStart;
    MoveL [[-198.400,80.000,-190.000],[0.707107,0.000000,0.000000,-0.707107],[0,0,1,0],[9E9,9E9,9E9,9E9,9E9,9E9]],v20,fine,claddinghead\WObj:=wFCpivot;
    LaserEnd;
    MoveL [[-198.400,75.000,-190.000],[0.707107,0.000000,0.000000,-0.707107],[0,0,1,0],[9E9,9E9,9E9,9E9,9E9,9E9]],v20,fine,claddinghead\WObj:=wFCpivot;
    LaserStart;
    MoveL [[198.400,75.000,-190.000],[0.707107,0.000000,0.000000,-0.707107],[0,0,1,0],[9E9,9E9,9E9,9E9,9E9,9E9]],v20,fine,claddinghead\WObj:=wFCpivot;
    LaserEnd;
    MoveL [[198.400,70.000,-190.000],[0.707107,0.000000,0.000000,-0.707107],[0,0,1,0],[9E9,9E9,9E9,9E9,9E9,9E9]],v20,fine,claddinghead\WObj:=wFCpivot;
    LaserStart;
    MoveL [[-198.400,70.000,-190.000],[0.707107,0.000000,0.000000,-0.707107],[0,0,1,0],[9E9,9E9,9E9,9E9,9E9,9E9]],v20,fine,claddinghead\WObj:=wFCpivot;
    LaserEnd;
    MoveL [[-198.400,65.000,-190.000],[0.707107,0.000000,0.000000,-0.707107],[0,0,1,0],[9E9,9E9,9E9,9E9,9E9,9E9]],v20,fine,claddinghead\WObj:=wFCpivot;
    LaserStart;
    MoveL [[198.400,65.000,-190.000],[0.707107,0.000000,0.000000,-0.707107],[0,0,1,0],[9E9,9E9,9E9,9E9,9E9,9E9]],v20,fine,claddinghead\WObj:=wFCpivot;
    LaserEnd;
    MoveL [[198.400,60.000,-190.000],[0.707107,0.000000,0.000000,-0.707107],[0,0,1,0],[9E9,9E9,9E9,9E9,9E9,9E9]],v20,fine,claddinghead\WObj:=wFCpivot;
    LaserStart;
    MoveL [[-198.400,60.000,-190.000],[0.707107,0.000000,0.000000,-0.707107],[0,0,1,0],[9E9,9E9,9E9,9E9,9E9,9E9]],v20,fine,claddinghead\WObj:=wFCpivot;
    LaserEnd;
    MoveL [[-198.400,55.000,-190.000],[0.707107,0.000000,0.000000,-0.707107],[0,0,1,0],[9E9,9E9,9E9,9E9,9E9,9E9]],v20,fine,claddinghead\WObj:=wFCpivot;
    LaserStart;
    MoveL [[198.400,55.000,-190.000],[0.707107,0.000000,0.000000,-0.707107],[0,0,1,0],[9E9,9E9,9E9,9E9,9E9,9E9]],v20,fine,claddinghead\WObj:=wFCpivot;
    LaserEnd;
    MoveL [[198.400,50.000,-190.000],[0.707107,0.000000,0.000000,-0.707107],[0,0,1,0],[9E9,9E9,9E9,9E9,9E9,9E9]],v20,fine,claddinghead\WObj:=wFCpivot;
    LaserStart;
    MoveL [[-198.400,50.000,-190.000],[0.707107,0.000000,0.000000,-0.707107],[0,0,1,0],[9E9,9E9,9E9,9E9,9E9,9E9]],v20,fine,claddinghead\WObj:=wFCpivot;
    LaserEnd;
    MoveL [[-198.400,45.000,-190.000],[0.707107,0.000000,0.000000,-0.707107],[0,0,1,0],[9E9,9E9,9E9,9E9,9E9,9E9]],v20,fine,claddinghead\WObj:=wFCpivot;
    LaserStart;
    MoveL [[198.400,45.000,-190.000],[0.707107,0.000000,0.000000,-0.707107],[0,0,1,0],[9E9,9E9,9E9,9E9,9E9,9E9]],v20,fine,claddinghead\WObj:=wFCpivot;
    LaserEnd;
    MoveL [[198.400,40.000,-190.000],[0.707107,0.000000,0.000000,-0.707107],[0,0,1,0],[9E9,9E9,9E9,9E9,9E9,9E9]],v20,fine,claddinghead\WObj:=wFCpivot;
    LaserStart;
    MoveL [[-198.400,40.000,-190.000],[0.707107,0.000000,0.000000,-0.707107],[0,0,1,0],[9E9,9E9,9E9,9E9,9E9,9E9]],v20,fine,claddinghead\WObj:=wFCpivot;
    LaserEnd;
    MoveL [[-198.400,35.000,-190.000],[0.707107,0.000000,0.000000,-0.707107],[0,0,1,0],[9E9,9E9,9E9,9E9,9E9,9E9]],v20,fine,claddinghead\WObj:=wFCpivot;
    LaserStart;
    MoveL [[198.400,35.000,-190.000],[0.707107,0.000000,0.000000,-0.707107],[0,0,1,0],[9E9,9E9,9E9,9E9,9E9,9E9]],v20,fine,claddinghead\WObj:=wFCpivot;
    LaserEnd;
    MoveL [[198.400,30.000,-190.000],[0.707107,0.000000,0.000000,-0.707107],[0,0,1,0],[9E9,9E9,9E9,9E9,9E9,9E9]],v20,fine,claddinghead\WObj:=wFCpivot;
    LaserStart;
    MoveL [[-198.400,30.000,-190.000],[0.707107,0.000000,0.000000,-0.707107],[0,0,1,0],[9E9,9E9,9E9,9E9,9E9,9E9]],v20,fine,claddinghead\WObj:=wFCpivot;
    LaserEnd;
    MoveL [[-198.400,25.000,-190.000],[0.707107,0.000000,0.000000,-0.707107],[0,0,1,0],[9E9,9E9,9E9,9E9,9E9,9E9]],v20,fine,claddinghead\WObj:=wFCpivot;
    LaserStart;
    MoveL [[198.400,25.000,-190.000],[0.707107,0.000000,0.000000,-0.707107],[0,0,1,0],[9E9,9E9,9E9,9E9,9E9,9E9]],v20,fine,claddinghead\WObj:=wFCpivot;
    LaserEnd;
    MoveL [[198.400,20.000,-190.000],[0.707107,0.000000,0.000000,-0.707107],[0,0,1,0],[9E9,9E9,9E9,9E9,9E9,9E9]],v20,fine,claddinghead\WObj:=wFCpivot;
    LaserStart;
    MoveL [[-198.400,20.000,-190.000],[0.707107,0.000000,0.000000,-0.707107],[0,0,1,0],[9E9,9E9,9E9,9E9,9E9,9E9]],v20,fine,claddinghead\WObj:=wFCpivot;
    LaserEnd;
    MoveL [[-198.400,15.000,-190.000],[0.707107,0.000000,0.000000,-0.707107],[0,0,1,0],[9E9,9E9,9E9,9E9,9E9,9E9]],v20,fine,claddinghead\WObj:=wFCpivot;
    LaserStart;
    MoveL [[198.400,15.000,-190.000],[0.707107,0.000000,0.000000,-0.707107],[0,0,1,0],[9E9,9E9,9E9,9E9,9E9,9E9]],v20,fine,claddinghead\WObj:=wFCpivot;
    LaserEnd;
    MoveL [[198.400,10.000,-190.000],[0.707107,0.000000,0.000000,-0.707107],[0,0,1,0],[9E9,9E9,9E9,9E9,9E9,9E9]],v20,fine,claddinghead\WObj:=wFCpivot;
    LaserStart;
    MoveL [[-198.400,10.000,-190.000],[0.707107,0.000000,0.000000,-0.707107],[0,0,1,0],[9E9,9E9,9E9,9E9,9E9,9E9]],v20,fine,claddinghead\WObj:=wFCpivot;
    LaserEnd;
    MoveL [[-198.400,5.000,-190.000],[0.707107,0.000000,0.000000,-0.707107],[0,0,1,0],[9E9,9E9,9E9,9E9,9E9,9E9]],v20,fine,claddinghead\WObj:=wFCpivot;
    LaserStart;
    MoveL [[198.400,5.000,-190.000],[0.707107,0.000000,0.000000,-0.707107],[0,0,1,0],[9E9,9E9,9E9,9E9,9E9,9E9]],v20,fine,claddinghead\WObj:=wFCpivot;
    LaserEnd;
    MoveL [[198.400,0.000,-190.000],[0.707107,0.000000,0.000000,-0.707107],[0,0,1,0],[9E9,9E9,9E9,9E9,9E9,9E9]],v20,fine,claddinghead\WObj:=wFCpivot;
    LaserStart;
    MoveL [[-198.400,0.000,-190.000],[0.707107,0.000000,0.000000,-0.707107],[0,0,1,0],[9E9,9E9,9E9,9E9,9E9,9E9]],v20,fine,claddinghead\WObj:=wFCpivot;
    LaserEnd;
    MoveL [[-198.400,-5.000,-190.000],[0.707107,0.000000,0.000000,-0.707107],[0,0,1,0],[9E9,9E9,9E9,9E9,9E9,9E9]],v20,fine,claddinghead\WObj:=wFCpivot;
    LaserStart;
    MoveL [[198.400,-5.000,-190.000],[0.707107,0.000000,0.000000,-0.707107],[0,0,1,0],[9E9,9E9,9E9,9E9,9E9,9E9]],v20,fine,claddinghead\WObj:=wFCpivot;
    LaserEnd;
    MoveL [[198.400,-10.000,-190.000],[0.707107,0.000000,0.000000,-0.707107],[0,0,1,0],[9E9,9E9,9E9,9E9,9E9,9E9]],v20,fine,claddinghead\WObj:=wFCpivot;
    LaserStart;
    MoveL [[-198.400,-10.000,-190.000],[0.707107,0.000000,0.000000,-0.707107],[0,0,1,0],[9E9,9E9,9E9,9E9,9E9,9E9]],v20,fine,claddinghead\WObj:=wFCpivot;
    LaserEnd;
    MoveL [[-198.400,-15.000,-190.000],[0.707107,0.000000,0.000000,-0.707107],[0,0,1,0],[9E9,9E9,9E9,9E9,9E9,9E9]],v20,fine,claddinghead\WObj:=wFCpivot;
    LaserStart;
    MoveL [[198.400,-15.000,-190.000],[0.707107,0.000000,0.000000,-0.707107],[0,0,1,0],[9E9,9E9,9E9,9E9,9E9,9E9]],v20,fine,claddinghead\WObj:=wFCpivot;
    LaserEnd;
    MoveL [[198.400,-20.000,-190.000],[0.707107,0.000000,0.000000,-0.707107],[0,0,1,0],[9E9,9E9,9E9,9E9,9E9,9E9]],v20,fine,claddinghead\WObj:=wFCpivot;
    LaserStart;
    MoveL [[-198.400,-20.000,-190.000],[0.707107,0.000000,0.000000,-0.707107],[0,0,1,0],[9E9,9E9,9E9,9E9,9E9,9E9]],v20,fine,claddinghead\WObj:=wFCpivot;
    LaserEnd;
    MoveL [[-198.400,-25.000,-190.000],[0.707107,0.000000,0.000000,-0.707107],[0,0,1,0],[9E9,9E9,9E9,9E9,9E9,9E9]],v20,fine,claddinghead\WObj:=wFCpivot;
    LaserStart;
    MoveL [[198.400,-25.000,-190.000],[0.707107,0.000000,0.000000,-0.707107],[0,0,1,0],[9E9,9E9,9E9,9E9,9E9,9E9]],v20,fine,claddinghead\WObj:=wFCpivot;
    LaserEnd;
    MoveL [[198.400,-30.000,-190.000],[0.707107,0.000000,0.000000,-0.707107],[0,0,1,0],[9E9,9E9,9E9,9E9,9E9,9E9]],v20,fine,claddinghead\WObj:=wFCpivot;
    LaserStart;
    MoveL [[-198.400,-30.000,-190.000],[0.707107,0.000000,0.000000,-0.707107],[0,0,1,0],[9E9,9E9,9E9,9E9,9E9,9E9]],v20,fine,claddinghead\WObj:=wFCpivot;
    LaserEnd;
    MoveL [[-198.400,-35.000,-190.000],[0.707107,0.000000,0.000000,-0.707107],[0,0,1,0],[9E9,9E9,9E9,9E9,9E9,9E9]],v20,fine,claddinghead\WObj:=wFCpivot;
    LaserStart;
    MoveL [[198.400,-35.000,-190.000],[0.707107,0.000000,0.000000,-0.707107],[0,0,1,0],[9E9,9E9,9E9,9E9,9E9,9E9]],v20,fine,claddinghead\WObj:=wFCpivot;
    LaserEnd;
    MoveL [[198.400,-40.000,-190.000],[0.707107,0.000000,0.000000,-0.707107],[0,0,1,0],[9E9,9E9,9E9,9E9,9E9,9E9]],v20,fine,claddinghead\WObj:=wFCpivot;
    LaserStart;
    MoveL [[-198.400,-40.000,-190.000],[0.707107,0.000000,0.000000,-0.707107],[0,0,1,0],[9E9,9E9,9E9,9E9,9E9,9E9]],v20,fine,claddinghead\WObj:=wFCpivot;
    LaserEnd;
    MoveL [[-198.400,-45.000,-190.000],[0.707107,0.000000,0.000000,-0.707107],[0,0,1,0],[9E9,9E9,9E9,9E9,9E9,9E9]],v20,fine,claddinghead\WObj:=wFCpivot;
    LaserStart;
    MoveL [[198.400,-45.000,-190.000],[0.707107,0.000000,0.000000,-0.707107],[0,0,1,0],[9E9,9E9,9E9,9E9,9E9,9E9]],v20,fine,claddinghead\WObj:=wFCpivot;
    LaserEnd;
    MoveL [[198.400,-50.000,-190.000],[0.707107,0.000000,0.000000,-0.707107],[0,0,1,0],[9E9,9E9,9E9,9E9,9E9,9E9]],v20,fine,claddinghead\WObj:=wFCpivot;
    LaserStart;
    MoveL [[-198.400,-50.000,-190.000],[0.707107,0.000000,0.000000,-0.707107],[0,0,1,0],[9E9,9E9,9E9,9E9,9E9,9E9]],v20,fine,claddinghead\WObj:=wFCpivot;
    LaserEnd;
    MoveL [[-198.400,-55.000,-190.000],[0.707107,0.000000,0.000000,-0.707107],[0,0,1,0],[9E9,9E9,9E9,9E9,9E9,9E9]],v20,fine,claddinghead\WObj:=wFCpivot;
    LaserStart;
    MoveL [[198.400,-55.000,-190.000],[0.707107,0.000000,0.000000,-0.707107],[0,0,1,0],[9E9,9E9,9E9,9E9,9E9,9E9]],v20,fine,claddinghead\WObj:=wFCpivot;
    LaserEnd;
    MoveL [[198.400,-60.000,-190.000],[0.707107,0.000000,0.000000,-0.707107],[0,0,1,0],[9E9,9E9,9E9,9E9,9E9,9E9]],v20,fine,claddinghead\WObj:=wFCpivot;
    LaserStart;
    MoveL [[-198.400,-60.000,-190.000],[0.707107,0.000000,0.000000,-0.707107],[0,0,1,0],[9E9,9E9,9E9,9E9,9E9,9E9]],v20,fine,claddinghead\WObj:=wFCpivot;
    LaserEnd;
    MoveL [[-198.400,-65.000,-190.000],[0.707107,0.000000,0.000000,-0.707107],[0,0,1,0],[9E9,9E9,9E9,9E9,9E9,9E9]],v20,fine,claddinghead\WObj:=wFCpivot;
    LaserStart;
    MoveL [[198.400,-65.000,-190.000],[0.707107,0.000000,0.000000,-0.707107],[0,0,1,0],[9E9,9E9,9E9,9E9,9E9,9E9]],v20,fine,claddinghead\WObj:=wFCpivot;
    LaserEnd;
    MoveL [[198.400,-70.000,-190.000],[0.707107,0.000000,0.000000,-0.707107],[0,0,1,0],[9E9,9E9,9E9,9E9,9E9,9E9]],v20,fine,claddinghead\WObj:=wFCpivot;
    LaserStart;
    MoveL [[-198.400,-70.000,-190.000],[0.707107,0.000000,0.000000,-0.707107],[0,0,1,0],[9E9,9E9,9E9,9E9,9E9,9E9]],v20,fine,claddinghead\WObj:=wFCpivot;
    LaserEnd;
    MoveL [[-198.400,-75.000,-190.000],[0.707107,0.000000,0.000000,-0.707107],[0,0,1,0],[9E9,9E9,9E9,9E9,9E9,9E9]],v20,fine,claddinghead\WObj:=wFCpivot;
    LaserStart;
    MoveL [[198.400,-75.000,-190.000],[0.707107,0.000000,0.000000,-0.707107],[0,0,1,0],[9E9,9E9,9E9,9E9,9E9,9E9]],v20,fine,claddinghead\WObj:=wFCpivot;
    LaserEnd;
    MoveL [[198.400,-80.000,-190.000],[0.707107,0.000000,0.000000,-0.707107],[0,0,1,0],[9E9,9E9,9E9,9E9,9E9,9E9]],v20,fine,claddinghead\WObj:=wFCpivot;
    LaserStart;
    MoveL [[-198.400,-80.000,-190.000],[0.707107,0.000000,0.000000,-0.707107],[0,0,1,0],[9E9,9E9,9E9,9E9,9E9,9E9]],v20,fine,claddinghead\WObj:=wFCpivot;
    LaserEnd;
    MoveL [[-198.400,-85.000,-190.000],[0.707107,0.000000,0.000000,-0.707107],[0,0,1,0],[9E9,9E9,9E9,9E9,9E9,9E9]],v20,fine,claddinghead\WObj:=wFCpivot;
    LaserStart;
    MoveL [[198.400,-85.000,-190.000],[0.707107,0.000000,0.000000,-0.707107],[0,0,1,0],[9E9,9E9,9E9,9E9,9E9,9E9]],v20,fine,claddinghead\WObj:=wFCpivot;
    LaserEnd;
    MoveL [[198.400,-90.000,-190.000],[0.707107,0.000000,0.000000,-0.707107],[0,0,1,0],[9E9,9E9,9E9,9E9,9E9,9E9]],v20,fine,claddinghead\WObj:=wFCpivot;
    LaserStart;
    MoveL [[-198.400,-90.000,-190.000],[0.707107,0.000000,0.000000,-0.707107],[0,0,1,0],[9E9,9E9,9E9,9E9,9E9,9E9]],v20,fine,claddinghead\WObj:=wFCpivot;
    LaserEnd;
    MoveL [[-198.400,-95.000,-190.000],[0.707107,0.000000,0.000000,-0.707107],[0,0,1,0],[9E9,9E9,9E9,9E9,9E9,9E9]],v20,fine,claddinghead\WObj:=wFCpivot;
    LaserStart;
    MoveL [[198.400,-95.000,-190.000],[0.707107,0.000000,0.000000,-0.707107],[0,0,1,0],[9E9,9E9,9E9,9E9,9E9,9E9]],v20,fine,claddinghead\WObj:=wFCpivot;
    LaserEnd;
