%%%
  VERSION:1
  LANGUAGE:ENGLISH
%%%

MODULE outer_rim_straight
  PROC Proc_outer_rim_straight()
    !ActUnit STN1;
		!Start position = (2.4734,13.4689,-3.0771,0,79.6091,90,9E9,9E9,9E9,9E9,9E9,9E9)
    MoveL [[-3.682,-75.137,45.505],[0.72221830,0.00000000,0.00000000,-0.69166518],[0,0,1,0],[9E9,9E9,9E9,9E9,9E9,9E9]],v80,fine,claddinghead\WObj:=wDelcam1;
    ! Cutting Move Starts
    !LaserStart;
    MoveL [[-0.282,-69.367,45.505],[0.72342948,0.00000000,0.00000000,-0.69039828],[0,0,1,0],[9E9,9E9,9E9,9E9,9E9,9E9]],v80,z0,claddinghead\WObj:=wDelcam1;
    MoveL [[3.057,-63.113,45.505],[0.72477616,0.00000000,0.00000000,-0.68898441],[0,0,1,0],[9E9,9E9,9E9,9E9,9E9,9E9]],v80,z0,claddinghead\WObj:=wDelcam1;
    MoveL [[6.157,-56.732,45.505],[0.72612008,0.00000000,0.00000000,-0.68756791],[0,0,1,0],[9E9,9E9,9E9,9E9,9E9,9E9]],v80,z0,claddinghead\WObj:=wDelcam1;
    MoveL [[9.009,-50.236,45.505],[0.72746120,0.00000000,0.00000000,-0.68614882],[0,0,1,0],[9E9,9E9,9E9,9E9,9E9,9E9]],v80,z0,claddinghead\WObj:=wDelcam1;
    MoveL [[11.609,-43.641,45.505],[0.72886995,0.00000000,0.00000000,-0.68465217],[0,0,1,0],[9E9,9E9,9E9,9E9,9E9,9E9]],v80,z0,claddinghead\WObj:=wDelcam1;
    MoveL [[13.138,-39.227,45.505],[0.72979387,0.00000000,0.00000000,-0.68366725],[0,0,1,0],[9E9,9E9,9E9,9E9,9E9,9E9]],v80,z0,claddinghead\WObj:=wDelcam1;
    MoveL [[14.465,-34.746,45.505],[0.73071864,0.00000000,0.00000000,-0.68267874],[0,0,1,0],[9E9,9E9,9E9,9E9,9E9,9E9]],v80,z0,claddinghead\WObj:=wDelcam1;
    MoveL [[15.585,-30.212,45.505],[0.73167610,0.00000000,0.00000000,-0.68165247],[0,0,1,0],[9E9,9E9,9E9,9E9,9E9,9E9]],v80,z0,claddinghead\WObj:=wDelcam1;
    MoveL [[17.192,-22.278,45.505],[0.73334947,0.00000000,0.00000000,-0.67985187],[0,0,1,0],[9E9,9E9,9E9,9E9,9E9,9E9]],v80,z0,claddinghead\WObj:=wDelcam1;
    MoveL [[18.486,-14.288,45.505],[0.73501577,0.00000000,0.00000000,-0.67805001],[0,0,1,0],[9E9,9E9,9E9,9E9,9E9,9E9]],v80,z0,claddinghead\WObj:=wDelcam1;
    MoveL [[19.160,-8.578,45.505],[0.73620552,0.00000000,0.00000000,-0.67675803],[0,0,1,0],[9E9,9E9,9E9,9E9,9E9,9E9]],v80,z0,claddinghead\WObj:=wDelcam1;
    MoveL [[19.565,-2.839,45.505],[0.73739301,0.00000000,0.00000000,-0.67546395],[0,0,1,0],[9E9,9E9,9E9,9E9,9E9,9E9]],v80,z0,claddinghead\WObj:=wDelcam1;
    MoveL [[19.700,2.909,45.505],[0.73861485,0.00000000,0.00000000,-0.67412766],[0,0,1,0],[9E9,9E9,9E9,9E9,9E9,9E9]],v80,z0,claddinghead\WObj:=wDelcam1;
    MoveL [[19.700,41.304,45.505],[0.74655878,0.00000000,0.00000000,-0.66531946],[0,0,1,0],[9E9,9E9,9E9,9E9,9E9,9E9]],v80,z0,claddinghead\WObj:=wDelcam1;
    MoveL [[19.580,42.279,45.505],[0.74676084,0.00000000,0.00000000,-0.66509266],[0,0,1,0],[9E9,9E9,9E9,9E9,9E9,9E9]],v80,z0,claddinghead\WObj:=wDelcam1;
    MoveL [[19.191,43.258,45.505],[0.74699587,0.00000000,0.00000000,-0.66482867],[0,0,1,0],[9E9,9E9,9E9,9E9,9E9,9E9]],v80,z0,claddinghead\WObj:=wDelcam1;
    MoveL [[18.532,44.129,45.505],[0.74719394,0.00000000,0.00000000,-0.66460606],[0,0,1,0],[9E9,9E9,9E9,9E9,9E9,9E9]],v80,z0,claddinghead\WObj:=wDelcam1;
    MoveL [[17.661,44.789,45.505],[0.74732982,0.00000000,0.00000000,-0.66445327],[0,0,1,0],[9E9,9E9,9E9,9E9,9E9,9E9]],v80,z0,claddinghead\WObj:=wDelcam1;
    MoveL [[16.682,45.178,45.505],[0.74742879,0.00000000,0.00000000,-0.66434193],[0,0,1,0],[9E9,9E9,9E9,9E9,9E9,9E9]],v80,z0,claddinghead\WObj:=wDelcam1;
    MoveL [[15.708,45.299,45.505],[0.74749476,0.00000000,0.00000000,-0.66426770],[0,0,1,0],[9E9,9E9,9E9,9E9,9E9,9E9]],v80,z0,claddinghead\WObj:=wDelcam1;
    MoveL [[12.226,45.299,45.505],[0.74756463,0.00000000,0.00000000,-0.66418907],[0,0,1,0],[9E9,9E9,9E9,9E9,9E9,9E9]],v80,z0,claddinghead\WObj:=wDelcam1;
    MoveL [[9.732,45.466,45.505],[0.74766356,0.00000000,0.00000000,-0.66407771],[0,0,1,0],[9E9,9E9,9E9,9E9,9E9,9E9]],v80,z0,claddinghead\WObj:=wDelcam1;
    MoveL [[7.211,45.987,45.505],[0.74782839,0.00000000,0.00000000,-0.66389209],[0,0,1,0],[9E9,9E9,9E9,9E9,9E9,9E9]],v80,z0,claddinghead\WObj:=wDelcam1;
    MoveL [[4.739,46.871,45.505],[0.74806299,0.00000000,0.00000000,-0.66362773],[0,0,1,0],[9E9,9E9,9E9,9E9,9E9,9E9]],v80,z0,claddinghead\WObj:=wDelcam1;
    MoveL [[2.392,48.108,45.505],[0.74839628,0.00000000,0.00000000,-0.66325184],[0,0,1,0],[9E9,9E9,9E9,9E9,9E9,9E9]],v80,z0,claddinghead\WObj:=wDelcam1;
    MoveL [[0.246,49.666,45.505],[0.74876629,0.00000000,0.00000000,-0.66283410],[0,0,1,0],[9E9,9E9,9E9,9E9,9E9,9E9]],v80,z0,claddinghead\WObj:=wDelcam1;
    MoveL [[-1.639,51.494,45.505],[0.74919779,0.00000000,0.00000000,-0.66234633],[0,0,1,0],[9E9,9E9,9E9,9E9,9E9,9E9]],v80,z0,claddinghead\WObj:=wDelcam1;
    MoveL [[-3.220,53.525,45.505],[0.74966586,0.00000000,0.00000000,-0.66181651],[0,0,1,0],[9E9,9E9,9E9,9E9,9E9,9E9]],v80,z0,claddinghead\WObj:=wDelcam1;
    MoveL [[-4.472,55.689,45.505],[0.75013358,0.00000000,0.00000000,-0.66128633],[0,0,1,0],[9E9,9E9,9E9,9E9,9E9,9E9]],v80,z0,claddinghead\WObj:=wDelcam1;
    MoveL [[-8.527,63.924,45.505],[0.75196390,0.00000000,0.00000000,-0.65920428],[0,0,1,0],[9E9,9E9,9E9,9E9,9E9,9E9]],v80,z0,claddinghead\WObj:=wDelcam1;
    MoveL [[-9.127,64.864,45.505],[0.75216425,0.00000000,0.00000000,-0.65897568],[0,0,1,0],[9E9,9E9,9E9,9E9,9E9,9E9]],v80,z0,claddinghead\WObj:=wDelcam1;
    MoveL [[-10.003,65.628,45.505],[0.75233188,0.00000000,0.00000000,-0.65878429],[0,0,1,0],[9E9,9E9,9E9,9E9,9E9,9E9]],v80,z0,claddinghead\WObj:=wDelcam1;
    MoveL [[-11.061,66.108,45.505],[0.75246247,0.00000000,0.00000000,-0.65863513],[0,0,1,0],[9E9,9E9,9E9,9E9,9E9,9E9]],v80,z0,claddinghead\WObj:=wDelcam1;
    MoveL [[-12.133,66.260,45.505],[0.75252774,0.00000000,0.00000000,-0.65856055],[0,0,1,0],[9E9,9E9,9E9,9E9,9E9,9E9]],v80,fine,claddinghead\WObj:=wDelcam1;
    MoveL [[-39.233,66.265,45.505],[0.75329096,0.00000000,0.00000000,-0.65768741],[0,0,1,0],[9E9,9E9,9E9,9E9,9E9,9E9]],v80,z0,claddinghead\WObj:=wDelcam1;
    MoveL [[-39.837,66.182,45.505],[0.75329096,0.00000000,0.00000000,-0.65768741],[0,0,1,0],[9E9,9E9,9E9,9E9,9E9,9E9]],v80,fine,claddinghead\WObj:=wDelcam1;
    MoveL [[-40.308,66.118,45.505],[0.75329096,0.00000000,0.00000000,-0.65768741],[0,0,1,0],[9E9,9E9,9E9,9E9,9E9,9E9]],v80,z0,claddinghead\WObj:=wDelcam1;
    MoveL [[-41.342,65.663,45.505],[0.75322579,0.00000000,0.00000000,-0.65776204],[0,0,1,0],[9E9,9E9,9E9,9E9,9E9,9E9]],v80,z0,claddinghead\WObj:=wDelcam1;
    MoveL [[-42.206,64.937,45.505],[0.75309542,0.00000000,0.00000000,-0.65791131],[0,0,1,0],[9E9,9E9,9E9,9E9,9E9,9E9]],v80,z0,claddinghead\WObj:=wDelcam1;
    MoveL [[-42.814,64.037,45.505],[0.75292799,0.00000000,0.00000000,-0.65810291],[0,0,1,0],[9E9,9E9,9E9,9E9,9E9,9E9]],v80,z0,claddinghead\WObj:=wDelcam1;
    MoveL [[-46.649,56.246,45.505],[0.75139949,0.00000000,0.00000000,-0.65984757],[0,0,1,0],[9E9,9E9,9E9,9E9,9E9,9E9]],v80,z0,claddinghead\WObj:=wDelcam1;
    MoveL [[-47.631,54.396,45.505],[0.75103098,0.00000000,0.00000000,-0.66026696],[0,0,1,0],[9E9,9E9,9E9,9E9,9E9,9E9]],v80,z0,claddinghead\WObj:=wDelcam1;
    MoveL [[-48.800,52.656,45.505],[0.75069925,0.00000000,0.00000000,-0.66064411],[0,0,1,0],[9E9,9E9,9E9,9E9,9E9,9E9]],v80,z0,claddinghead\WObj:=wDelcam1;
    MoveL [[-50.368,50.846,45.505],[0.75033452,0.00000000,0.00000000,-0.66105833],[0,0,1,0],[9E9,9E9,9E9,9E9,9E9,9E9]],v80,z0,claddinghead\WObj:=wDelcam1;
    MoveL [[-52.197,49.219,45.505],[0.75003516,0.00000000,0.00000000,-0.66139796],[0,0,1,0],[9E9,9E9,9E9,9E9,9E9,9E9]],v80,z0,claddinghead\WObj:=wDelcam1;
    MoveL [[-54.252,47.830,45.505],[0.74980130,0.00000000,0.00000000,-0.66166307],[0,0,1,0],[9E9,9E9,9E9,9E9,9E9,9E9]],v80,z0,claddinghead\WObj:=wDelcam1;
    MoveL [[-56.484,46.723,45.505],[0.74963303,0.00000000,0.00000000,-0.66185370],[0,0,1,0],[9E9,9E9,9E9,9E9,9E9,9E9]],v80,z0,claddinghead\WObj:=wDelcam1;
    MoveL [[-58.832,45.926,45.505],[0.74953450,0.00000000,0.00000000,-0.66196528],[0,0,1,0],[9E9,9E9,9E9,9E9,9E9,9E9]],v80,z0,claddinghead\WObj:=wDelcam1;
    MoveL [[-61.234,45.453,45.505],[0.74946472,0.00000000,0.00000000,-0.66204428],[0,0,1,0],[9E9,9E9,9E9,9E9,9E9,9E9]],v80,z0,claddinghead\WObj:=wDelcam1;
    MoveL [[-63.624,45.299,45.505],[0.74950166,0.00000000,0.00000000,-0.66200247],[0,0,1,0],[9E9,9E9,9E9,9E9,9E9,9E9]],v80,z0,claddinghead\WObj:=wDelcam1;
    MoveL [[-67.106,45.299,45.505],[0.74960019,0.00000000,0.00000000,-0.66189090],[0,0,1,0],[9E9,9E9,9E9,9E9,9E9,9E9]],v80,z0,claddinghead\WObj:=wDelcam1;
    MoveL [[-68.082,45.178,45.505],[0.74960019,0.00000000,0.00000000,-0.66189090],[0,0,1,0],[9E9,9E9,9E9,9E9,9E9,9E9]],v80,z0,claddinghead\WObj:=wDelcam1;
    MoveL [[-69.062,44.788,45.505],[0.74953450,0.00000000,0.00000000,-0.66196528],[0,0,1,0],[9E9,9E9,9E9,9E9,9E9,9E9]],v80,z0,claddinghead\WObj:=wDelcam1;
    MoveL [[-69.934,44.126,45.505],[0.74943187,0.00000000,0.00000000,-0.66208147],[0,0,1,0],[9E9,9E9,9E9,9E9,9E9,9E9]],v80,z0,claddinghead\WObj:=wDelcam1;
    MoveL [[-70.594,43.252,45.505],[0.74926759,0.00000000,0.00000000,-0.66226738],[0,0,1,0],[9E9,9E9,9E9,9E9,9E9,9E9]],v80,z0,claddinghead\WObj:=wDelcam1;
    MoveL [[-70.982,42.270,45.505],[0.74906631,0.00000000,0.00000000,-0.66249503],[0,0,1,0],[9E9,9E9,9E9,9E9,9E9,9E9]],v80,z0,claddinghead\WObj:=wDelcam1;
    MoveL [[-71.099,41.294,45.505],[0.74883208,0.00000000,0.00000000,-0.66275977],[0,0,1,0],[9E9,9E9,9E9,9E9,9E9,9E9]],v80,z0,claddinghead\WObj:=wDelcam1;
    MoveL [[-71.098,2.909,45.505],[0.74044013,0.00000000,0.00000000,-0.67212232],[0,0,1,0],[9E9,9E9,9E9,9E9,9E9,9E9]],v80,z0,claddinghead\WObj:=wDelcam1;
    MoveL [[-70.918,-3.712,45.505],[0.73898705,0.00000000,0.00000000,-0.67371963],[0,0,1,0],[9E9,9E9,9E9,9E9,9E9,9E9]],v80,z0,claddinghead\WObj:=wDelcam1;
    MoveL [[-70.380,-10.324,45.505],[0.73749689,0.00000000,0.00000000,-0.67535053],[0,0,1,0],[9E9,9E9,9E9,9E9,9E9,9E9]],v80,z0,claddinghead\WObj:=wDelcam1;
    MoveL [[-69.484,-16.896,45.505],[0.73600317,0.00000000,0.00000000,-0.67697809],[0,0,1,0],[9E9,9E9,9E9,9E9,9E9,9E9]],v80,z0,claddinghead\WObj:=wDelcam1;
    MoveL [[-68.236,-23.401,45.505],[0.73453978,0.00000000,0.00000000,-0.67856563],[0,0,1,0],[9E9,9E9,9E9,9E9,9E9,9E9]],v80,z0,claddinghead\WObj:=wDelcam1;
    MoveL [[-66.550,-31.279,45.505],[0.73273393,0.00000000,0.00000000,-0.68051524],[0,0,1,0],[9E9,9E9,9E9,9E9,9E9,9E9]],v80,z0,claddinghead\WObj:=wDelcam1;
    MoveL [[-65.370,-36.272,45.505],[0.73160810,0.00000000,0.00000000,-0.68172545],[0,0,1,0],[9E9,9E9,9E9,9E9,9E9,9E9]],v80,z0,claddinghead\WObj:=wDelcam1;
    MoveL [[-64.242,-40.114,45.505],[0.73071864,0.00000000,0.00000000,-0.68267874],[0,0,1,0],[9E9,9E9,9E9,9E9,9E9,9E9]],v80,z0,claddinghead\WObj:=wDelcam1;
    MoveL [[-62.913,-43.891,45.505],[0.72986209,0.00000000,0.00000000,-0.68359442],[0,0,1,0],[9E9,9E9,9E9,9E9,9E9,9E9]],v80,z0,claddinghead\WObj:=wDelcam1;
    MoveL [[-60.164,-50.816,45.505],[0.72825042,0.00000000,0.00000000,-0.68531112],[0,0,1,0],[9E9,9E9,9E9,9E9,9E9,9E9]],v80,z0,claddinghead\WObj:=wDelcam1;
    MoveL [[-57.133,-57.636,45.505],[0.72667097,0.00000000,0.00000000,-0.68698566],[0,0,1,0],[9E9,9E9,9E9,9E9,9E9,9E9]],v80,z0,claddinghead\WObj:=wDelcam1;
    MoveL [[-53.827,-64.334,45.505],[0.72512011,0.00000000,0.00000000,-0.68862241],[0,0,1,0],[9E9,9E9,9E9,9E9,9E9,9E9]],v80,z0,claddinghead\WObj:=wDelcam1;
    MoveL [[-50.253,-70.892,45.505],[0.72360186,0.00000000,0.00000000,-0.69021761],[0,0,1,0],[9E9,9E9,9E9,9E9,9E9,9E9]],v80,z0,claddinghead\WObj:=wDelcam1;
    MoveL [[-46.420,-77.296,45.505],[0.72214920,0.00000000,0.00000000,-0.69173733],[0,0,1,0],[9E9,9E9,9E9,9E9,9E9,9E9]],v80,z0,claddinghead\WObj:=wDelcam1;
    MoveL [[-42.340,-83.530,45.505],[0.72069474,0.00000000,0.00000000,-0.69325254],[0,0,1,0],[9E9,9E9,9E9,9E9,9E9,9E9]],v80,z0,claddinghead\WObj:=wDelcam1;
    MoveL [[-40.943,-85.261,45.505],[0.72027763,0.00000000,0.00000000,-0.69368590],[0,0,1,0],[9E9,9E9,9E9,9E9,9E9,9E9]],v80,z0,claddinghead\WObj:=wDelcam1;
    MoveL [[-39.244,-86.787,45.505],[0.71993093,0.00000000,0.00000000,-0.69404571],[0,0,1,0],[9E9,9E9,9E9,9E9,9E9,9E9]],v80,z0,claddinghead\WObj:=wDelcam1;
    MoveL [[-37.292,-88.032,45.505],[0.71961749,0.00000000,0.00000000,-0.69437070],[0,0,1,0],[9E9,9E9,9E9,9E9,9E9,9E9]],v80,z0,claddinghead\WObj:=wDelcam1;
    MoveL [[-35.163,-88.940,45.505],[0.71940928,0.00000000,0.00000000,-0.69458641],[0,0,1,0],[9E9,9E9,9E9,9E9,9E9,9E9]],v80,z0,claddinghead\WObj:=wDelcam1;
    MoveL [[-33.485,-89.349,45.505],[0.71930515,0.00000000,0.00000000,-0.69469425],[0,0,1,0],[9E9,9E9,9E9,9E9,9E9,9E9]],v80,z0,claddinghead\WObj:=wDelcam1;
    MoveL [[-32.944,-89.481,45.505],[0.71927044,0.00000000,0.00000000,-0.69473019],[0,0,1,0],[9E9,9E9,9E9,9E9,9E9,9E9]],v80,z0,claddinghead\WObj:=wDelcam1;
    MoveL [[-30.727,-89.657,45.505],[0.71920100,0.00000000,0.00000000,-0.69480207],[0,0,1,0],[9E9,9E9,9E9,9E9,9E9,9E9]],v80,z0,claddinghead\WObj:=wDelcam1;
    MoveL [[-20.671,-89.657,45.505],[0.71913156,0.00000000,0.00000000,-0.69487395],[0,0,1,0],[9E9,9E9,9E9,9E9,9E9,9E9]],v80,z0,claddinghead\WObj:=wDelcam1;
    MoveL [[-18.451,-89.480,45.505],[0.71916628,0.00000000,0.00000000,-0.69483801],[0,0,1,0],[9E9,9E9,9E9,9E9,9E9,9E9]],v80,z0,claddinghead\WObj:=wDelcam1;
    MoveL [[-17.264,-89.189,45.505],[0.71920100,0.00000000,0.00000000,-0.69480207],[0,0,1,0],[9E9,9E9,9E9,9E9,9E9,9E9]],v80,z0,claddinghead\WObj:=wDelcam1;
    MoveL [[-16.231,-88.936,45.505],[0.71927044,0.00000000,0.00000000,-0.69473019],[0,0,1,0],[9E9,9E9,9E9,9E9,9E9,9E9]],v80,z0,claddinghead\WObj:=wDelcam1;
    MoveL [[-14.101,-88.026,45.505],[0.71944399,0.00000000,0.00000000,-0.69455046],[0,0,1,0],[9E9,9E9,9E9,9E9,9E9,9E9]],v80,z0,claddinghead\WObj:=wDelcam1;
    MoveL [[-12.148,-86.780,45.505],[0.71972157,0.00000000,0.00000000,-0.69426282],[0,0,1,0],[9E9,9E9,9E9,9E9,9E9,9E9]],v80,z0,claddinghead\WObj:=wDelcam1;
    MoveL [[-10.447,-85.253,45.505],[0.72003496,0.00000000,0.00000000,-0.69393779],[0,0,1,0],[9E9,9E9,9E9,9E9,9E9,9E9]],v80,z0,claddinghead\WObj:=wDelcam1;
    MoveL [[-9.049,-83.521,45.505],[0.72041625,0.00000000,0.00000000,-0.69354194],[0,0,1,0],[9E9,9E9,9E9,9E9,9E9,9E9]],v80,z0,claddinghead\WObj:=wDelcam1;
    MoveL [[-4.509,-76.541,45.505],[0.72190727,0.00000000,0.00000000,-0.69198981],[0,0,1,0],[9E9,9E9,9E9,9E9,9E9,9E9]],v80,z0,claddinghead\WObj:=wDelcam1;
    MoveL [[-3.682,-75.138,45.505],[0.72221830,0.00000000,0.00000000,-0.69166518],[0,0,1,0],[9E9,9E9,9E9,9E9,9E9,9E9]],v80,fine,claddinghead\WObj:=wDelcam1;
    ! Cutting Move Ends
    !LaserEnd;
    MoveL [[-3.682,-75.138,47.700],[0.72221830,0.00000000,0.00000000,-0.69166518],[0,0,1,0],[9E9,9E9,9E9,9E9,9E9,9E9]],v80,fine,claddinghead\WObj:=wDelcam1;
    MoveL [[-0.602,-24.372,47.700],[0.73317740,0.00000000,0.00000000,-0.68003742],[0,0,1,0],[9E9,9E9,9E9,9E9,9E9,9E9]],v80,fine,claddinghead\WObj:=wDelcam1;
    ! Plunge Move Starts
    MoveL [[-0.602,-24.372,45.505],[0.73317740,0.00000000,0.00000000,-0.68003742],[0,0,1,0],[9E9,9E9,9E9,9E9,9E9,9E9]],v80,fine,claddinghead\WObj:=wDelcam1;
    ! Cutting Move Starts
    !LaserStart;
    MoveL [[-0.063,-24.991,45.505],[0.73304176,0.00000000,0.00000000,-0.68018363],[0,0,1,0],[9E9,9E9,9E9,9E9,9E9,9E9]],v80,z0,claddinghead\WObj:=wDelcam1;
    MoveL [[0.301,-25.763,45.505],[0.73287216,0.00000000,0.00000000,-0.68036637],[0,0,1,0],[9E9,9E9,9E9,9E9,9E9,9E9]],v80,z0,claddinghead\WObj:=wDelcam1;
    MoveL [[0.434,-26.607,45.505],[0.73266606,0.00000000,0.00000000,-0.68058831],[0,0,1,0],[9E9,9E9,9E9,9E9,9E9,9E9]],v80,z0,claddinghead\WObj:=wDelcam1;
    MoveL [[0.336,-27.422,45.505],[0.73249635,0.00000000,0.00000000,-0.68077096],[0,0,1,0],[9E9,9E9,9E9,9E9,9E9,9E9]],v80,z0,claddinghead\WObj:=wDelcam1;
    MoveL [[-0.852,-31.458,45.505],[0.73167610,0.00000000,0.00000000,-0.68165247],[0,0,1,0],[9E9,9E9,9E9,9E9,9E9,9E9]],v80,z0,claddinghead\WObj:=wDelcam1;
    MoveL [[-2.285,-35.418,45.505],[0.73082080,0.00000000,0.00000000,-0.68256938],[0,0,1,0],[9E9,9E9,9E9,9E9,9E9,9E9]],v80,z0,claddinghead\WObj:=wDelcam1;
    MoveL [[-3.954,-39.280,45.505],[0.73003484,0.00000000,0.00000000,-0.68340993],[0,0,1,0],[9E9,9E9,9E9,9E9,9E9,9E9]],v80,z0,claddinghead\WObj:=wDelcam1;
    MoveL [[-14.231,-61.186,45.505],[0.72536254,0.00000000,0.00000000,-0.68836704],[0,0,1,0],[9E9,9E9,9E9,9E9,9E9,9E9]],v80,z0,claddinghead\WObj:=wDelcam1;
    MoveL [[-14.657,-61.845,45.505],[0.72522504,0.00000000,0.00000000,-0.68851191],[0,0,1,0],[9E9,9E9,9E9,9E9,9E9,9E9]],v80,z0,claddinghead\WObj:=wDelcam1;
    MoveL [[-15.267,-62.386,45.505],[0.72512011,0.00000000,0.00000000,-0.68862241],[0,0,1,0],[9E9,9E9,9E9,9E9,9E9,9E9]],v80,z0,claddinghead\WObj:=wDelcam1;
    MoveL [[-16.003,-62.737,45.505],[0.72505134,0.00000000,0.00000000,-0.68869482],[0,0,1,0],[9E9,9E9,9E9,9E9,9E9,9E9]],v80,z0,claddinghead\WObj:=wDelcam1;
    MoveL [[-16.776,-62.871,45.505],[0.72505134,0.00000000,0.00000000,-0.68869482],[0,0,1,0],[9E9,9E9,9E9,9E9,9E9,9E9]],v80,z0,claddinghead\WObj:=wDelcam1;
    MoveL [[-23.779,-63.132,45.505],[0.72505134,0.00000000,0.00000000,-0.68869482],[0,0,1,0],[9E9,9E9,9E9,9E9,9E9,9E9]],v80,z0,claddinghead\WObj:=wDelcam1;
    MoveL [[-26.760,-63.150,45.505],[0.72508572,0.00000000,0.00000000,-0.68865862],[0,0,1,0],[9E9,9E9,9E9,9E9,9E9,9E9]],v80,z0,claddinghead\WObj:=wDelcam1;
    MoveL [[-34.621,-62.871,45.505],[0.72525942,0.00000000,0.00000000,-0.68847569],[0,0,1,0],[9E9,9E9,9E9,9E9,9E9,9E9]],v80,z0,claddinghead\WObj:=wDelcam1;
    MoveL [[-35.395,-62.737,45.505],[0.72529380,0.00000000,0.00000000,-0.68843947],[0,0,1,0],[9E9,9E9,9E9,9E9,9E9,9E9]],v80,z0,claddinghead\WObj:=wDelcam1;
    MoveL [[-36.130,-62.386,45.505],[0.72536254,0.00000000,0.00000000,-0.68836704],[0,0,1,0],[9E9,9E9,9E9,9E9,9E9,9E9]],v80,z0,claddinghead\WObj:=wDelcam1;
    MoveL [[-36.741,-61.846,45.505],[0.72550002,0.00000000,0.00000000,-0.68822215],[0,0,1,0],[9E9,9E9,9E9,9E9,9E9,9E9]],v80,z0,claddinghead\WObj:=wDelcam1;
    MoveL [[-37.166,-61.186,45.505],[0.72563745,0.00000000,0.00000000,-0.68807724],[0,0,1,0],[9E9,9E9,9E9,9E9,9E9,9E9]],v80,z0,claddinghead\WObj:=wDelcam1;
    MoveL [[-39.263,-56.716,45.505],[0.72667097,0.00000000,0.00000000,-0.68698566],[0,0,1,0],[9E9,9E9,9E9,9E9,9E9,9E9]],v80,z0,claddinghead\WObj:=wDelcam1;
    MoveL [[-39.519,-55.850,45.505],[0.72687671,0.00000000,0.00000000,-0.68676797],[0,0,1,0],[9E9,9E9,9E9,9E9,9E9,9E9]],v80,z0,claddinghead\WObj:=wDelcam1;
    MoveL [[-39.506,-54.947,45.505],[0.72704810,0.00000000,0.00000000,-0.68658653],[0,0,1,0],[9E9,9E9,9E9,9E9,9E9,9E9]],v80,z0,claddinghead\WObj:=wDelcam1;
    MoveL [[-39.312,-54.202,45.505],[0.72722141,0.00000000,0.00000000,-0.68640296],[0,0,1,0],[9E9,9E9,9E9,9E9,9E9,9E9]],v80,z0,claddinghead\WObj:=wDelcam1;
    MoveL [[-39.129,-52.874,45.505],[0.72752970,0.00000000,0.00000000,-0.68607619],[0,0,1,0],[9E9,9E9,9E9,9E9,9E9,9E9]],v80,z0,claddinghead\WObj:=wDelcam1;
    MoveL [[-39.262,-51.462,45.505],[0.72783985,0.00000000,0.00000000,-0.68574715],[0,0,1,0],[9E9,9E9,9E9,9E9,9E9,9E9]],v80,z0,claddinghead\WObj:=wDelcam1;
    MoveL [[-39.743,-50.084,45.505],[0.72814780,0.00000000,0.00000000,-0.68542015],[0,0,1,0],[9E9,9E9,9E9,9E9,9E9,9E9]],v80,z0,claddinghead\WObj:=wDelcam1;
    MoveL [[-40.545,-48.863,45.505],[0.72842349,0.00000000,0.00000000,-0.68512716],[0,0,1,0],[9E9,9E9,9E9,9E9,9E9,9E9]],v80,z0,claddinghead\WObj:=wDelcam1;
    MoveL [[-41.584,-47.898,45.505],[0.72866279,0.00000000,0.00000000,-0.68487265],[0,0,1,0],[9E9,9E9,9E9,9E9,9E9,9E9]],v80,z0,claddinghead\WObj:=wDelcam1;
    MoveL [[-43.436,-46.876,45.505],[0.72890412,0.00000000,0.00000000,-0.68461580],[0,0,1,0],[9E9,9E9,9E9,9E9,9E9,9E9]],v80,z0,claddinghead\WObj:=wDelcam1;
    MoveL [[-44.018,-46.343,45.505],[0.72904076,0.00000000,0.00000000,-0.68447029],[0,0,1,0],[9E9,9E9,9E9,9E9,9E9,9E9]],v80,z0,claddinghead\WObj:=wDelcam1;
    MoveL [[-44.436,-45.690,45.505],[0.72917736,0.00000000,0.00000000,-0.68432476],[0,0,1,0],[9E9,9E9,9E9,9E9,9E9,9E9]],v80,z0,claddinghead\WObj:=wDelcam1;
    MoveL [[-47.443,-39.280,45.505],[0.73065053,0.00000000,0.00000000,-0.68275164],[0,0,1,0],[9E9,9E9,9E9,9E9,9E9,9E9]],v80,z0,claddinghead\WObj:=wDelcam1;
    MoveL [[-49.354,-34.826,45.505],[0.73167610,0.00000000,0.00000000,-0.68165247],[0,0,1,0],[9E9,9E9,9E9,9E9,9E9,9E9]],v80,z0,claddinghead\WObj:=wDelcam1;
    MoveL [[-50.962,-30.247,45.505],[0.73273393,0.00000000,0.00000000,-0.68051524],[0,0,1,0],[9E9,9E9,9E9,9E9,9E9,9E9]],v80,z0,claddinghead\WObj:=wDelcam1;
    MoveL [[-52.256,-25.576,45.505],[0.73375867,0.00000000,0.00000000,-0.67941020],[0,0,1,0],[9E9,9E9,9E9,9E9,9E9,9E9]],v80,z0,claddinghead\WObj:=wDelcam1;
    MoveL [[-53.220,-20.919,45.505],[0.73481298,0.00000000,0.00000000,-0.67826977],[0,0,1,0],[9E9,9E9,9E9,9E9,9E9,9E9]],v80,z0,claddinghead\WObj:=wDelcam1;
    MoveL [[-53.406,-19.435,45.505],[0.73515365,0.00000000,0.00000000,-0.67790051],[0,0,1,0],[9E9,9E9,9E9,9E9,9E9,9E9]],v80,z0,claddinghead\WObj:=wDelcam1;
    MoveL [[-53.464,-17.941,45.505],[0.73549416,0.00000000,0.00000000,-0.67753107],[0,0,1,0],[9E9,9E9,9E9,9E9,9E9,9E9]],v80,z0,claddinghead\WObj:=wDelcam1;
    MoveL [[-53.621,-17.063,45.505],[0.73569670,0.00000000,0.00000000,-0.67731113],[0,0,1,0],[9E9,9E9,9E9,9E9,9E9,9E9]],v80,z0,claddinghead\WObj:=wDelcam1;
    MoveL [[-54.014,-16.227,45.505],[0.73586542,0.00000000,0.00000000,-0.67712782],[0,0,1,0],[9E9,9E9,9E9,9E9,9E9,9E9]],v80,z0,claddinghead\WObj:=wDelcam1;
    MoveL [[-54.614,-15.525,45.505],[0.73603690,0.00000000,0.00000000,-0.67694141],[0,0,1,0],[9E9,9E9,9E9,9E9,9E9,9E9]],v80,z0,claddinghead\WObj:=wDelcam1;
    MoveL [[-55.350,-15.020,45.505],[0.73617180,0.00000000,0.00000000,-0.67679471],[0,0,1,0],[9E9,9E9,9E9,9E9,9E9,9E9]],v80,z0,claddinghead\WObj:=wDelcam1;
    MoveL [[-56.180,-14.721,45.505],[0.73623924,0.00000000,0.00000000,-0.67672135],[0,0,1,0],[9E9,9E9,9E9,9E9,9E9,9E9]],v80,z0,claddinghead\WObj:=wDelcam1;
    MoveL [[-57.156,-14.646,45.505],[0.73627580,0.00000000,0.00000000,-0.67668157],[0,0,1,0],[9E9,9E9,9E9,9E9,9E9,9E9]],v80,z0,claddinghead\WObj:=wDelcam1;
    MoveL [[-58.179,-14.872,45.505],[0.73624208,0.00000000,0.00000000,-0.67671826],[0,0,1,0],[9E9,9E9,9E9,9E9,9E9,9E9]],v80,z0,claddinghead\WObj:=wDelcam1;
    MoveL [[-59.107,-15.409,45.505],[0.73613808,0.00000000,0.00000000,-0.67683139],[0,0,1,0],[9E9,9E9,9E9,9E9,9E9,9E9]],v80,z0,claddinghead\WObj:=wDelcam1;
    MoveL [[-59.813,-16.183,45.505],[0.73600317,0.00000000,0.00000000,-0.67697809],[0,0,1,0],[9E9,9E9,9E9,9E9,9E9,9E9]],v80,z0,claddinghead\WObj:=wDelcam1;
    MoveL [[-60.235,-17.066,45.505],[0.73579794,0.00000000,0.00000000,-0.67720115],[0,0,1,0],[9E9,9E9,9E9,9E9,9E9,9E9]],v80,z0,claddinghead\WObj:=wDelcam1;
    MoveL [[-60.390,-17.935,45.505],[0.73559544,0.00000000,0.00000000,-0.67742110],[0,0,1,0],[9E9,9E9,9E9,9E9,9E9,9E9]],v80,z0,claddinghead\WObj:=wDelcam1;
    MoveL [[-60.363,-19.351,45.505],[0.73528877,0.00000000,0.00000000,-0.67775395],[0,0,1,0],[9E9,9E9,9E9,9E9,9E9,9E9]],v80,z0,claddinghead\WObj:=wDelcam1;
    MoveL [[-60.054,-22.099,45.505],[0.73467774,0.00000000,0.00000000,-0.67841626],[0,0,1,0],[9E9,9E9,9E9,9E9,9E9,9E9]],v80,z0,claddinghead\WObj:=wDelcam1;
    MoveL [[-58.982,-27.272,45.505],[0.73351892,0.00000000,0.00000000,-0.67966903],[0,0,1,0],[9E9,9E9,9E9,9E9,9E9,9E9]],v80,z0,claddinghead\WObj:=wDelcam1;
    MoveL [[-57.563,-32.374,45.505],[0.73235806,0.00000000,0.00000000,-0.68091973],[0,0,1,0],[9E9,9E9,9E9,9E9,9E9,9E9]],v80,z0,claddinghead\WObj:=wDelcam1;
    MoveL [[-55.805,-37.370,45.505],[0.73119755,0.00000000,0.00000000,-0.68216577],[0,0,1,0],[9E9,9E9,9E9,9E9,9E9,9E9]],v80,z0,claddinghead\WObj:=wDelcam1;
    MoveL [[-53.722,-42.226,45.505],[0.73010303,0.00000000,0.00000000,-0.68333708],[0,0,1,0],[9E9,9E9,9E9,9E9,9E9,9E9]],v80,z0,claddinghead\WObj:=wDelcam1;
    MoveL [[-50.817,-48.418,45.505],[0.72866279,0.00000000,0.00000000,-0.68487265],[0,0,1,0],[9E9,9E9,9E9,9E9,9E9,9E9]],v80,z0,claddinghead\WObj:=wDelcam1;
    MoveL [[-50.570,-49.223,45.505],[0.72849187,0.00000000,0.00000000,-0.68505445],[0,0,1,0],[9E9,9E9,9E9,9E9,9E9,9E9]],v80,z0,claddinghead\WObj:=wDelcam1;
    MoveL [[-50.556,-50.065,45.505],[0.72828462,0.00000000,0.00000000,-0.68527478],[0,0,1,0],[9E9,9E9,9E9,9E9,9E9,9E9]],v80,z0,claddinghead\WObj:=wDelcam1;
    MoveL [[-51.026,-52.081,45.505],[0.72783985,0.00000000,0.00000000,-0.68574715],[0,0,1,0],[9E9,9E9,9E9,9E9,9E9,9E9]],v80,z0,claddinghead\WObj:=wDelcam1;
    MoveL [[-51.023,-53.393,45.505],[0.72756394,0.00000000,0.00000000,-0.68603988],[0,0,1,0],[9E9,9E9,9E9,9E9,9E9,9E9]],v80,z0,claddinghead\WObj:=wDelcam1;
    MoveL [[-50.716,-54.723,45.505],[0.72725567,0.00000000,0.00000000,-0.68636666],[0,0,1,0],[9E9,9E9,9E9,9E9,9E9,9E9]],v80,z0,claddinghead\WObj:=wDelcam1;
    MoveL [[-50.106,-55.964,45.505],[0.72697955,0.00000000,0.00000000,-0.68665911],[0,0,1,0],[9E9,9E9,9E9,9E9,9E9,9E9]],v80,z0,claddinghead\WObj:=wDelcam1;
    MoveL [[-49.239,-57.018,45.505],[0.72673956,0.00000000,0.00000000,-0.68691310],[0,0,1,0],[9E9,9E9,9E9,9E9,9E9,9E9]],v80,z0,claddinghead\WObj:=wDelcam1;
    MoveL [[-48.201,-57.820,45.505],[0.72653377,0.00000000,0.00000000,-0.68713076],[0,0,1,0],[9E9,9E9,9E9,9E9,9E9,9E9]],v80,z0,claddinghead\WObj:=wDelcam1;
    MoveL [[-46.416,-58.711,45.505],[0.72629169,0.00000000,0.00000000,-0.68738663],[0,0,1,0],[9E9,9E9,9E9,9E9,9E9,9E9]],v80,z0,claddinghead\WObj:=wDelcam1;
    MoveL [[-45.849,-59.237,45.505],[0.72618873,0.00000000,0.00000000,-0.68749540],[0,0,1,0],[9E9,9E9,9E9,9E9,9E9,9E9]],v80,z0,claddinghead\WObj:=wDelcam1;
    MoveL [[-45.440,-59.880,45.505],[0.72605142,0.00000000,0.00000000,-0.68764041],[0,0,1,0],[9E9,9E9,9E9,9E9,9E9,9E9]],v80,z0,claddinghead\WObj:=wDelcam1;
    MoveL [[-42.418,-66.322,45.505],[0.72456796,0.00000000,0.00000000,-0.68920336],[0,0,1,0],[9E9,9E9,9E9,9E9,9E9,9E9]],v80,z0,claddinghead\WObj:=wDelcam1;
    MoveL [[-41.763,-67.401,45.505],[0.72429257,0.00000000,0.00000000,-0.68949276],[0,0,1,0],[9E9,9E9,9E9,9E9,9E9,9E9]],v80,z0,claddinghead\WObj:=wDelcam1;
    MoveL [[-40.856,-68.346,45.505],[0.72408594,0.00000000,0.00000000,-0.68970976],[0,0,1,0],[9E9,9E9,9E9,9E9,9E9,9E9]],v80,z0,claddinghead\WObj:=wDelcam1;
    MoveL [[-39.749,-69.076,45.505],[0.72391368,0.00000000,0.00000000,-0.68989056],[0,0,1,0],[9E9,9E9,9E9,9E9,9E9,9E9]],v80,z0,claddinghead\WObj:=wDelcam1;
    MoveL [[-38.523,-69.535,45.505],[0.72380866,0.00000000,0.00000000,-0.69000075],[0,0,1,0],[9E9,9E9,9E9,9E9,9E9,9E9]],v80,z0,claddinghead\WObj:=wDelcam1;
    MoveL [[-37.273,-69.712,45.505],[0.72373973,0.00000000,0.00000000,-0.69007304],[0,0,1,0],[9E9,9E9,9E9,9E9,9E9,9E9]],v80,z0,claddinghead\WObj:=wDelcam1;
    MoveL [[-26.812,-70.059,45.505],[0.72356739,0.00000000,0.00000000,-0.69025374],[0,0,1,0],[9E9,9E9,9E9,9E9,9E9,9E9]],v80,z0,claddinghead\WObj:=wDelcam1;
    MoveL [[-23.218,-70.052,45.505],[0.72353292,0.00000000,0.00000000,-0.69028988],[0,0,1,0],[9E9,9E9,9E9,9E9,9E9,9E9]],v80,z0,claddinghead\WObj:=wDelcam1;
    MoveL [[-14.100,-69.711,45.505],[0.72349844,0.00000000,0.00000000,-0.69032602],[0,0,1,0],[9E9,9E9,9E9,9E9,9E9,9E9]],v80,z0,claddinghead\WObj:=wDelcam1;
    MoveL [[-12.855,-69.530,45.505],[0.72353292,0.00000000,0.00000000,-0.69028988],[0,0,1,0],[9E9,9E9,9E9,9E9,9E9,9E9]],v80,z0,claddinghead\WObj:=wDelcam1;
    MoveL [[-11.635,-69.069,45.505],[0.72360186,0.00000000,0.00000000,-0.69021761],[0,0,1,0],[9E9,9E9,9E9,9E9,9E9,9E9]],v80,z0,claddinghead\WObj:=wDelcam1;
    MoveL [[-10.534,-68.340,45.505],[0.72377420,0.00000000,0.00000000,-0.69003689],[0,0,1,0],[9E9,9E9,9E9,9E9,9E9,9E9]],v80,z0,claddinghead\WObj:=wDelcam1;
    MoveL [[-9.632,-67.397,45.505],[0.72394814,0.00000000,0.00000000,-0.68985440],[0,0,1,0],[9E9,9E9,9E9,9E9,9E9,9E9]],v80,z0,claddinghead\WObj:=wDelcam1;
    MoveL [[-8.980,-66.322,45.505],[0.72418926,0.00000000,0.00000000,-0.68960127],[0,0,1,0],[9E9,9E9,9E9,9E9,9E9,9E9]],v80,z0,claddinghead\WObj:=wDelcam1;
    MoveL [[2.556,-41.731,45.505],[0.72938220,0.00000000,0.00000000,-0.68410642],[0,0,1,0],[9E9,9E9,9E9,9E9,9E9,9E9]],v80,z0,claddinghead\WObj:=wDelcam1;
    MoveL [[3.531,-39.458,45.505],[0.72986209,0.00000000,0.00000000,-0.68359442],[0,0,1,0],[9E9,9E9,9E9,9E9,9E9,9E9]],v80,z0,claddinghead\WObj:=wDelcam1;
    MoveL [[5.440,-34.469,45.505],[0.73092527,0.00000000,0.00000000,-0.68245751],[0,0,1,0],[9E9,9E9,9E9,9E9,9E9,9E9]],v80,z0,claddinghead\WObj:=wDelcam1;
    MoveL [[7.044,-29.374,45.505],[0.73198442,0.00000000,0.00000000,-0.68132137],[0,0,1,0],[9E9,9E9,9E9,9E9,9E9,9E9]],v80,z0,claddinghead\WObj:=wDelcam1;
    MoveL [[7.339,-27.658,45.505],[0.73235806,0.00000000,0.00000000,-0.68091973],[0,0,1,0],[9E9,9E9,9E9,9E9,9E9,9E9]],v80,z0,claddinghead\WObj:=wDelcam1;
    MoveL [[7.268,-25.879,45.505],[0.73273393,0.00000000,0.00000000,-0.68051524],[0,0,1,0],[9E9,9E9,9E9,9E9,9E9,9E9]],v80,z0,claddinghead\WObj:=wDelcam1;
    MoveL [[6.824,-24.155,45.505],[0.73310959,0.00000000,0.00000000,-0.68011053],[0,0,1,0],[9E9,9E9,9E9,9E9,9E9,9E9]],v80,z0,claddinghead\WObj:=wDelcam1;
    MoveL [[6.049,-22.596,45.505],[0.73345115,0.00000000,0.00000000,-0.67974217],[0,0,1,0],[9E9,9E9,9E9,9E9,9E9,9E9]],v80,z0,claddinghead\WObj:=wDelcam1;
    MoveL [[3.994,-20.033,45.505],[0.73402957,0.00000000,0.00000000,-0.67911751],[0,0,1,0],[9E9,9E9,9E9,9E9,9E9,9E9]],v80,z0,claddinghead\WObj:=wDelcam1;
    MoveL [[3.105,-19.272,45.505],[0.73420145,0.00000000,0.00000000,-0.67893168],[0,0,1,0],[9E9,9E9,9E9,9E9,9E9,9E9]],v80,z0,claddinghead\WObj:=wDelcam1;
    MoveL [[-9.274,-10.605,45.505],[0.73627580,0.00000000,0.00000000,-0.67668157],[0,0,1,0],[9E9,9E9,9E9,9E9,9E9,9E9]],v80,z0,claddinghead\WObj:=wDelcam1;
    MoveL [[-11.011,-9.169,45.505],[0.73661283,0.00000000,0.00000000,-0.67631467],[0,0,1,0],[9E9,9E9,9E9,9E9,9E9,9E9]],v80,z0,claddinghead\WObj:=wDelcam1;
    MoveL [[-12.525,-7.440,45.505],[0.73701988,0.00000000,0.00000000,-0.67587107],[0,0,1,0],[9E9,9E9,9E9,9E9,9E9,9E9]],v80,z0,claddinghead\WObj:=wDelcam1;
    MoveL [[-13.746,-5.475,45.505],[0.73746029,0.00000000,0.00000000,-0.67539049],[0,0,1,0],[9E9,9E9,9E9,9E9,9E9,9E9]],v80,z0,claddinghead\WObj:=wDelcam1;
    MoveL [[-14.626,-3.352,45.505],[0.73793699,0.00000000,0.00000000,-0.67486961],[0,0,1,0],[9E9,9E9,9E9,9E9,9E9,9E9]],v80,z0,claddinghead\WObj:=wDelcam1;
    MoveL [[-15.144,-1.158,45.505],[0.73841035,0.00000000,0.00000000,-0.67435166],[0,0,1,0],[9E9,9E9,9E9,9E9,9E9,9E9]],v80,z0,claddinghead\WObj:=wDelcam1;
    MoveL [[-15.603,2.718,45.505],[0.73925532,0.00000000,0.00000000,-0.67342525],[0,0,1,0],[9E9,9E9,9E9,9E9,9E9,9E9]],v80,z0,claddinghead\WObj:=wDelcam1;
    MoveL [[-15.795,6.616,45.505],[0.74010229,0.00000000,0.00000000,-0.67249431],[0,0,1,0],[9E9,9E9,9E9,9E9,9E9,9E9]],v80,z0,claddinghead\WObj:=wDelcam1;
    MoveL [[-15.683,8.563,45.505],[0.74050702,0.00000000,0.00000000,-0.67204862],[0,0,1,0],[9E9,9E9,9E9,9E9,9E9,9E9]],v80,z0,claddinghead\WObj:=wDelcam1;
    MoveL [[-15.276,10.526,45.505],[0.74091148,0.00000000,0.00000000,-0.67160270],[0,0,1,0],[9E9,9E9,9E9,9E9,9E9,9E9]],v80,z0,claddinghead\WObj:=wDelcam1;
    MoveL [[-14.567,12.439,45.505],[0.74131565,0.00000000,0.00000000,-0.67115655],[0,0,1,0],[9E9,9E9,9E9,9E9,9E9,9E9]],v80,z0,claddinghead\WObj:=wDelcam1;
    MoveL [[-13.570,14.233,45.505],[0.74165280,0.00000000,0.00000000,-0.67078396],[0,0,1,0],[9E9,9E9,9E9,9E9,9E9,9E9]],v80,z0,claddinghead\WObj:=wDelcam1;
    MoveL [[-12.320,15.845,45.505],[0.74198976,0.00000000,0.00000000,-0.67041121],[0,0,1,0],[9E9,9E9,9E9,9E9,9E9,9E9]],v80,z0,claddinghead\WObj:=wDelcam1;
    MoveL [[-10.868,17.228,45.505],[0.74222655,0.00000000,0.00000000,-0.67014905],[0,0,1,0],[9E9,9E9,9E9,9E9,9E9,9E9]],v80,z0,claddinghead\WObj:=wDelcam1;
    MoveL [[-9.274,18.351,45.505],[0.74242993,0.00000000,0.00000000,-0.66992372],[0,0,1,0],[9E9,9E9,9E9,9E9,9E9,9E9]],v80,z0,claddinghead\WObj:=wDelcam1;
    MoveL [[-6.807,19.833,45.505],[0.74269642,0.00000000,0.00000000,-0.66962827],[0,0,1,0],[9E9,9E9,9E9,9E9,9E9,9E9]],v80,z0,claddinghead\WObj:=wDelcam1;
    MoveL [[-4.718,20.994,45.505],[0.74289966,0.00000000,0.00000000,-0.66940279],[0,0,1,0],[9E9,9E9,9E9,9E9,9E9,9E9]],v80,z0,claddinghead\WObj:=wDelcam1;
    MoveL [[-3.887,21.533,45.505],[0.74299952,0.00000000,0.00000000,-0.66929195],[0,0,1,0],[9E9,9E9,9E9,9E9,9E9,9E9]],v80,z0,claddinghead\WObj:=wDelcam1;
    MoveL [[-3.157,22.203,45.505],[0.74313612,0.00000000,0.00000000,-0.66914027],[0,0,1,0],[9E9,9E9,9E9,9E9,9E9,9E9]],v80,z0,claddinghead\WObj:=wDelcam1;
    MoveL [[-1.908,23.699,45.505],[0.74340576,0.00000000,0.00000000,-0.66884070],[0,0,1,0],[9E9,9E9,9E9,9E9,9E9,9E9]],v80,z0,claddinghead\WObj:=wDelcam1;
    MoveL [[-0.889,25.387,45.505],[0.74374176,0.00000000,0.00000000,-0.66846705],[0,0,1,0],[9E9,9E9,9E9,9E9,9E9,9E9]],v80,z0,claddinghead\WObj:=wDelcam1;
    MoveL [[-0.140,27.210,45.505],[0.74411078,0.00000000,0.00000000,-0.66805625],[0,0,1,0],[9E9,9E9,9E9,9E9,9E9,9E9]],v80,z0,claddinghead\WObj:=wDelcam1;
    MoveL [[0.320,29.104,45.505],[0.74447956,0.00000000,0.00000000,-0.66764526],[0,0,1,0],[9E9,9E9,9E9,9E9,9E9,9E9]],v80,fine,claddinghead\WObj:=wDelcam1;
    ! Cutting Move Ends
    !LaserEnd;
    MoveL [[0.320,29.104,47.700],[0.74447956,0.00000000,0.00000000,-0.66764526],[0,0,1,0],[9E9,9E9,9E9,9E9,9E9,9E9]],v80,fine,claddinghead\WObj:=wDelcam1;
    MoveL [[-12.866,36.882,47.700],[0.74642657,0.00000000,0.00000000,-0.66546778],[0,0,1,0],[9E9,9E9,9E9,9E9,9E9,9E9]],v80,fine,claddinghead\WObj:=wDelcam1;
    ! Plunge Move Starts
    MoveL [[-12.866,36.882,45.505],[0.74642657,0.00000000,0.00000000,-0.66546778],[0,0,1,0],[9E9,9E9,9E9,9E9,9E9,9E9]],v80,fine,claddinghead\WObj:=wDelcam1;
    ! Cutting Move Starts
    !LaserStart;
    MoveL [[-3.290,15.735,45.505],[0.74175626,0.00000000,0.00000000,-0.67066955],[0,0,1,0],[9E9,9E9,9E9,9E9,9E9,9E9]],v80,z0,claddinghead\WObj:=wDelcam1;
    MoveL [[-3.156,15.295,45.505],[0.74165280,0.00000000,0.00000000,-0.67078396],[0,0,1,0],[9E9,9E9,9E9,9E9,9E9,9E9]],v80,z0,claddinghead\WObj:=wDelcam1;
    MoveL [[-1.936,8.092,45.505],[0.74013576,0.00000000,0.00000000,-0.67245748],[0,0,1,0],[9E9,9E9,9E9,9E9,9E9,9E9]],v80,z0,claddinghead\WObj:=wDelcam1;
    MoveL [[-1.925,7.399,45.505],[0.73996518,0.00000000,0.00000000,-0.67264517],[0,0,1,0],[9E9,9E9,9E9,9E9,9E9,9E9]],v80,z0,claddinghead\WObj:=wDelcam1;
    MoveL [[-2.135,6.702,45.505],[0.73983125,0.00000000,0.00000000,-0.67279248],[0,0,1,0],[9E9,9E9,9E9,9E9,9E9,9E9]],v80,z0,claddinghead\WObj:=wDelcam1;
    MoveL [[-2.552,6.106,45.505],[0.73973077,0.00000000,0.00000000,-0.67290295],[0,0,1,0],[9E9,9E9,9E9,9E9,9E9,9E9]],v80,z0,claddinghead\WObj:=wDelcam1;
    MoveL [[-3.104,5.686,45.505],[0.73962711,0.00000000,0.00000000,-0.67301690],[0,0,1,0],[9E9,9E9,9E9,9E9,9E9,9E9]],v80,fine,claddinghead\WObj:=wDelcam1;
    ! Cutting Move Ends
    !LaserEnd;
    MoveL [[-3.114,5.650,45.505],[0.73962711,0.00000000,0.00000000,-0.67301690],[0,0,1,0],[9E9,9E9,9E9,9E9,9E9,9E9]],v80,fine,claddinghead\WObj:=wDelcam1;
    ! Cutting Move Starts
    !LaserStart;
    MoveL [[-3.436,5.491,45.505],[0.73959360,0.00000000,0.00000000,-0.67305371],[0,0,1,0],[9E9,9E9,9E9,9E9,9E9,9E9]],v80,z0,claddinghead\WObj:=wDelcam1;
    MoveL [[-4.550,4.611,45.505],[0.73942606,0.00000000,0.00000000,-0.67323778],[0,0,1,0],[9E9,9E9,9E9,9E9,9E9,9E9]],v80,z0,claddinghead\WObj:=wDelcam1;
    MoveL [[-5.488,3.443,45.505],[0.73918827,0.00000000,0.00000000,-0.67349885],[0,0,1,0],[9E9,9E9,9E9,9E9,9E9,9E9]],v80,z0,claddinghead\WObj:=wDelcam1;
    MoveL [[-6.145,2.050,45.505],[0.73891686,0.00000000,0.00000000,-0.67379661],[0,0,1,0],[9E9,9E9,9E9,9E9,9E9,9E9]],v80,z0,claddinghead\WObj:=wDelcam1;
    MoveL [[-6.456,0.541,45.505],[0.73861485,0.00000000,0.00000000,-0.67412766],[0,0,1,0],[9E9,9E9,9E9,9E9,9E9,9E9]],v80,z0,claddinghead\WObj:=wDelcam1;
    MoveL [[-6.407,-0.956,45.505],[0.73827601,0.00000000,0.00000000,-0.67449873],[0,0,1,0],[9E9,9E9,9E9,9E9,9E9,9E9]],v80,z0,claddinghead\WObj:=wDelcam1;
    MoveL [[-6.045,-2.329,45.505],[0.73797060,0.00000000,0.00000000,-0.67483286],[0,0,1,0],[9E9,9E9,9E9,9E9,9E9,9E9]],v80,z0,claddinghead\WObj:=wDelcam1;
    MoveL [[-5.450,-3.503,45.505],[0.73773230,0.00000000,0.00000000,-0.67509336],[0,0,1,0],[9E9,9E9,9E9,9E9,9E9,9E9]],v80,z0,claddinghead\WObj:=wDelcam1;
    MoveL [[-4.605,-4.556,45.505],[0.73749689,0.00000000,0.00000000,-0.67535053],[0,0,1,0],[9E9,9E9,9E9,9E9,9E9,9E9]],v80,z0,claddinghead\WObj:=wDelcam1;
    MoveL [[-3.520,-5.437,45.505],[0.73729207,0.00000000,0.00000000,-0.67557413],[0,0,1,0],[9E9,9E9,9E9,9E9,9E9,9E9]],v80,z0,claddinghead\WObj:=wDelcam1;
    MoveL [[-2.257,-6.071,45.505],[0.73712379,0.00000000,0.00000000,-0.67575773],[0,0,1,0],[9E9,9E9,9E9,9E9,9E9,9E9]],v80,z0,claddinghead\WObj:=wDelcam1;
    MoveL [[-0.902,-6.414,45.505],[0.73701988,0.00000000,0.00000000,-0.67587107],[0,0,1,0],[9E9,9E9,9E9,9E9,9E9,9E9]],v80,z0,claddinghead\WObj:=wDelcam1;
    MoveL [[0.447,-6.463,45.505],[0.73698621,0.00000000,0.00000000,-0.67590778],[0,0,1,0],[9E9,9E9,9E9,9E9,9E9,9E9]],v80,z0,claddinghead\WObj:=wDelcam1;
    MoveL [[1.455,-6.313,45.505],[0.73698621,0.00000000,0.00000000,-0.67590778],[0,0,1,0],[9E9,9E9,9E9,9E9,9E9,9E9]],v80,z0,claddinghead\WObj:=wDelcam1;
    MoveL [[2.535,-5.962,45.505],[0.73705647,0.00000000,0.00000000,-0.67583117],[0,0,1,0],[9E9,9E9,9E9,9E9,9E9,9E9]],v80,z0,claddinghead\WObj:=wDelcam1;
    MoveL [[3.635,-5.362,45.505],[0.73715746,0.00000000,0.00000000,-0.67572101],[0,0,1,0],[9E9,9E9,9E9,9E9,9E9,9E9]],v80,z0,claddinghead\WObj:=wDelcam1;
    MoveL [[4.675,-4.485,45.505],[0.73732572,0.00000000,0.00000000,-0.67553740],[0,0,1,0],[9E9,9E9,9E9,9E9,9E9,9E9]],v80,z0,claddinghead\WObj:=wDelcam1;
    MoveL [[5.555,-3.332,45.505],[0.73756416,0.00000000,0.00000000,-0.67527706],[0,0,1,0],[9E9,9E9,9E9,9E9,9E9,9E9]],v80,z0,claddinghead\WObj:=wDelcam1;
    MoveL [[6.176,-1.955,45.505],[0.73783615,0.00000000,0.00000000,-0.67497986],[0,0,1,0],[9E9,9E9,9E9,9E9,9E9,9E9]],v80,z0,claddinghead\WObj:=wDelcam1;
    MoveL [[6.462,-0.450,45.505],[0.73813861,0.00000000,0.00000000,-0.67464909],[0,0,1,0],[9E9,9E9,9E9,9E9,9E9,9E9]],v80,z0,claddinghead\WObj:=wDelcam1;
    MoveL [[6.391,1.059,45.505],[0.73847750,0.00000000,0.00000000,-0.67427812],[0,0,1,0],[9E9,9E9,9E9,9E9,9E9,9E9]],v80,z0,claddinghead\WObj:=wDelcam1;
    MoveL [[5.995,2.454,45.505],[0.73878266,0.00000000,0.00000000,-0.67394376],[0,0,1,0],[9E9,9E9,9E9,9E9,9E9,9E9]],v80,z0,claddinghead\WObj:=wDelcam1;
    MoveL [[5.350,3.653,45.505],[0.73905413,0.00000000,0.00000000,-0.67364604],[0,0,1,0],[9E9,9E9,9E9,9E9,9E9,9E9]],v80,z0,claddinghead\WObj:=wDelcam1;
    MoveL [[4.548,4.614,45.505],[0.73925532,0.00000000,0.00000000,-0.67342525],[0,0,1,0],[9E9,9E9,9E9,9E9,9E9,9E9]],v80,z0,claddinghead\WObj:=wDelcam1;
    MoveL [[3.672,5.337,45.505],[0.73942606,0.00000000,0.00000000,-0.67323778],[0,0,1,0],[9E9,9E9,9E9,9E9,9E9,9E9]],v80,z0,claddinghead\WObj:=wDelcam1;
    MoveL [[2.789,5.847,45.505],[0.73956010,0.00000000,0.00000000,-0.67309053],[0,0,1,0],[9E9,9E9,9E9,9E9,9E9,9E9]],v80,z0,claddinghead\WObj:=wDelcam1;
    MoveL [[1.584,6.282,45.505],[0.73966060,0.00000000,0.00000000,-0.67298008],[0,0,1,0],[9E9,9E9,9E9,9E9,9E9,9E9]],v80,z0,claddinghead\WObj:=wDelcam1;
    MoveL [[0.290,6.472,45.505],[0.73973077,0.00000000,0.00000000,-0.67290295],[0,0,1,0],[9E9,9E9,9E9,9E9,9E9,9E9]],v80,z0,claddinghead\WObj:=wDelcam1;
    MoveL [[-1.015,6.398,45.505],[0.73973077,0.00000000,0.00000000,-0.67290295],[0,0,1,0],[9E9,9E9,9E9,9E9,9E9,9E9]],v80,z0,claddinghead\WObj:=wDelcam1;
    MoveL [[-2.255,6.073,45.505],[0.73969727,0.00000000,0.00000000,-0.67293978],[0,0,1,0],[9E9,9E9,9E9,9E9,9E9,9E9]],v80,z0,claddinghead\WObj:=wDelcam1;
    MoveL [[-3.114,5.650,45.505],[0.73962711,0.00000000,0.00000000,-0.67301690],[0,0,1,0],[9E9,9E9,9E9,9E9,9E9,9E9]],v80,fine,claddinghead\WObj:=wDelcam1;
    ! Cutting Move Ends
    !LaserEnd;
    MoveL [[-3.114,5.650,47.700],[0.73962711,0.00000000,0.00000000,-0.67301690],[0,0,1,0],[9E9,9E9,9E9,9E9,9E9,9E9]],v80,fine,claddinghead\WObj:=wDelcam1;
    MoveL [[-58.432,-14.982,47.700],[0.73623924,0.00000000,0.00000000,-0.67672135],[0,0,1,0],[9E9,9E9,9E9,9E9,9E9,9E9]],v80,fine,claddinghead\WObj:=wDelcam1;
    ! Plunge Move Starts
    MoveL [[-58.432,-14.982,45.505],[0.73623924,0.00000000,0.00000000,-0.67672135],[0,0,1,0],[9E9,9E9,9E9,9E9,9E9,9E9]],v80,fine,claddinghead\WObj:=wDelcam1;
    ! Cutting Move Starts
    !LaserStart;
    MoveL [[-54.515,-3.824,45.505],[0.73861485,0.00000000,0.00000000,-0.67412766],[0,0,1,0],[9E9,9E9,9E9,9E9,9E9,9E9]],v80,z0,claddinghead\WObj:=wDelcam1;
    MoveL [[-54.065,-3.055,45.505],[0.73878266,0.00000000,0.00000000,-0.67394376],[0,0,1,0],[9E9,9E9,9E9,9E9,9E9,9E9]],v80,z0,claddinghead\WObj:=wDelcam1;
    MoveL [[-53.326,-2.496,45.505],[0.73888331,0.00000000,0.00000000,-0.67383340],[0,0,1,0],[9E9,9E9,9E9,9E9,9E9,9E9]],v80,z0,claddinghead\WObj:=wDelcam1;
    MoveL [[-52.463,-2.273,45.505],[0.73891686,0.00000000,0.00000000,-0.67379661],[0,0,1,0],[9E9,9E9,9E9,9E9,9E9,9E9]],v80,z0,claddinghead\WObj:=wDelcam1;
    MoveL [[-51.425,-2.166,45.505],[0.73891686,0.00000000,0.00000000,-0.67379661],[0,0,1,0],[9E9,9E9,9E9,9E9,9E9,9E9]],v80,z0,claddinghead\WObj:=wDelcam1;
    MoveL [[-50.427,-1.817,45.505],[0.73898705,0.00000000,0.00000000,-0.67371963],[0,0,1,0],[9E9,9E9,9E9,9E9,9E9,9E9]],v80,z0,claddinghead\WObj:=wDelcam1;
    MoveL [[-49.549,-1.253,45.505],[0.73908767,0.00000000,0.00000000,-0.67360925],[0,0,1,0],[9E9,9E9,9E9,9E9,9E9,9E9]],v80,z0,claddinghead\WObj:=wDelcam1;
    MoveL [[-45.936,1.612,45.505],[0.73962711,0.00000000,0.00000000,-0.67301690],[0,0,1,0],[9E9,9E9,9E9,9E9,9E9,9E9]],v80,z0,claddinghead\WObj:=wDelcam1;
    MoveL [[-44.763,2.366,45.505],[0.73976427,0.00000000,0.00000000,-0.67286613],[0,0,1,0],[9E9,9E9,9E9,9E9,9E9,9E9]],v80,z0,claddinghead\WObj:=wDelcam1;
    MoveL [[-43.940,3.293,45.505],[0.73996518,0.00000000,0.00000000,-0.67264517],[0,0,1,0],[9E9,9E9,9E9,9E9,9E9,9E9]],v80,z0,claddinghead\WObj:=wDelcam1;
    MoveL [[-43.362,4.471,45.505],[0.74020269,0.00000000,0.00000000,-0.67238380],[0,0,1,0],[9E9,9E9,9E9,9E9,9E9,9E9]],v80,z0,claddinghead\WObj:=wDelcam1;
    MoveL [[-43.130,5.789,45.505],[0.74047358,0.00000000,0.00000000,-0.67208547],[0,0,1,0],[9E9,9E9,9E9,9E9,9E9,9E9]],v80,z0,claddinghead\WObj:=wDelcam1;
    MoveL [[-43.271,7.094,45.505],[0.74077778,0.00000000,0.00000000,-0.67175016],[0,0,1,0],[9E9,9E9,9E9,9E9,9E9,9E9]],v80,z0,claddinghead\WObj:=wDelcam1;
    MoveL [[-43.728,8.246,45.505],[0.74101172,0.00000000,0.00000000,-0.67149209],[0,0,1,0],[9E9,9E9,9E9,9E9,9E9,9E9]],v80,z0,claddinghead\WObj:=wDelcam1;
    MoveL [[-44.396,9.162,45.505],[0.74124886,0.00000000,0.00000000,-0.67123031],[0,0,1,0],[9E9,9E9,9E9,9E9,9E9,9E9]],v80,z0,claddinghead\WObj:=wDelcam1;
    MoveL [[-48.482,13.544,45.505],[0.74229321,0.00000000,0.00000000,-0.67007521],[0,0,1,0],[9E9,9E9,9E9,9E9,9E9,9E9]],v80,z0,claddinghead\WObj:=wDelcam1;
    MoveL [[-49.377,14.745,45.505],[0.74256320,0.00000000,0.00000000,-0.66977600],[0,0,1,0],[9E9,9E9,9E9,9E9,9E9,9E9]],v80,z0,claddinghead\WObj:=wDelcam1;
    MoveL [[-50.013,16.192,45.505],[0.74289966,0.00000000,0.00000000,-0.66940279],[0,0,1,0],[9E9,9E9,9E9,9E9,9E9,9E9]],v80,z0,claddinghead\WObj:=wDelcam1;
    MoveL [[-50.300,17.792,45.505],[0.74323593,0.00000000,0.00000000,-0.66902941],[0,0,1,0],[9E9,9E9,9E9,9E9,9E9,9E9]],v80,z0,claddinghead\WObj:=wDelcam1;
    MoveL [[-50.201,19.415,45.505],[0.74357201,0.00000000,0.00000000,-0.66865586],[0,0,1,0],[9E9,9E9,9E9,9E9,9E9,9E9]],v80,z0,claddinghead\WObj:=wDelcam1;
    MoveL [[-49.737,20.926,45.505],[0.74390790,0.00000000,0.00000000,-0.66828215],[0,0,1,0],[9E9,9E9,9E9,9E9,9E9,9E9]],v80,z0,claddinghead\WObj:=wDelcam1;
    MoveL [[-48.988,22.223,45.505],[0.74417719,0.00000000,0.00000000,-0.66798227],[0,0,1,0],[9E9,9E9,9E9,9E9,9E9,9E9]],v80,z0,claddinghead\WObj:=wDelcam1;
    MoveL [[-48.022,23.285,45.505],[0.74437999,0.00000000,0.00000000,-0.66775627],[0,0,1,0],[9E9,9E9,9E9,9E9,9E9,9E9]],v80,z0,claddinghead\WObj:=wDelcam1;
    MoveL [[-46.840,24.128,45.505],[0.74451274,0.00000000,0.00000000,-0.66760825],[0,0,1,0],[9E9,9E9,9E9,9E9,9E9,9E9]],v80,z0,claddinghead\WObj:=wDelcam1;
    MoveL [[-45.522,24.694,45.505],[0.74461591,0.00000000,0.00000000,-0.66749318],[0,0,1,0],[9E9,9E9,9E9,9E9,9E9,9E9]],v80,z0,claddinghead\WObj:=wDelcam1;
    MoveL [[-44.091,24.977,45.505],[0.74464909,0.00000000,0.00000000,-0.66745617],[0,0,1,0],[9E9,9E9,9E9,9E9,9E9,9E9]],v80,z0,claddinghead\WObj:=wDelcam1;
    MoveL [[-42.632,24.948,45.505],[0.74461228,0.00000000,0.00000000,-0.66749724],[0,0,1,0],[9E9,9E9,9E9,9E9,9E9,9E9]],v80,z0,claddinghead\WObj:=wDelcam1;
    MoveL [[-39.064,24.490,45.505],[0.74441318,0.00000000,0.00000000,-0.66771927],[0,0,1,0],[9E9,9E9,9E9,9E9,9E9,9E9]],v80,z0,claddinghead\WObj:=wDelcam1;
    MoveL [[-38.218,24.220,45.505],[0.74434679,0.00000000,0.00000000,-0.66779327],[0,0,1,0],[9E9,9E9,9E9,9E9,9E9,9E9]],v80,z0,claddinghead\WObj:=wDelcam1;
    MoveL [[-37.475,23.628,45.505],[0.74421040,0.00000000,0.00000000,-0.66794527],[0,0,1,0],[9E9,9E9,9E9,9E9,9E9,9E9]],v80,z0,claddinghead\WObj:=wDelcam1;
    MoveL [[-37.002,22.803,45.505],[0.74401114,0.00000000,0.00000000,-0.66816722],[0,0,1,0],[9E9,9E9,9E9,9E9,9E9,9E9]],v80,z0,claddinghead\WObj:=wDelcam1;
    MoveL [[-36.864,21.926,45.505],[0.74380822,0.00000000,0.00000000,-0.66839309],[0,0,1,0],[9E9,9E9,9E9,9E9,9E9,9E9]],v80,z0,claddinghead\WObj:=wDelcam1;
    MoveL [[-36.695,15.425,45.505],[0.74242650,0.00000000,0.00000000,-0.66992752],[0,0,1,0],[9E9,9E9,9E9,9E9,9E9,9E9]],v80,z0,claddinghead\WObj:=wDelcam1;
    MoveL [[-36.811,14.428,45.505],[0.74219321,0.00000000,0.00000000,-0.67018597],[0,0,1,0],[9E9,9E9,9E9,9E9,9E9,9E9]],v80,z0,claddinghead\WObj:=wDelcam1;
    MoveL [[-37.237,13.444,45.505],[0.74202311,0.00000000,0.00000000,-0.67037430],[0,0,1,0],[9E9,9E9,9E9,9E9,9E9,9E9]],v80,z0,claddinghead\WObj:=wDelcam1;
    MoveL [[-37.957,12.614,45.505],[0.74185635,0.00000000,0.00000000,-0.67055884],[0,0,1,0],[9E9,9E9,9E9,9E9,9E9,9E9]],v80,z0,claddinghead\WObj:=wDelcam1;
    MoveL [[-38.872,12.054,45.505],[0.74175290,0.00000000,0.00000000,-0.67067327],[0,0,1,0],[9E9,9E9,9E9,9E9,9E9,9E9]],v80,z0,claddinghead\WObj:=wDelcam1;
    MoveL [[-39.843,11.800,45.505],[0.74171953,0.00000000,0.00000000,-0.67071017],[0,0,1,0],[9E9,9E9,9E9,9E9,9E9,9E9]],v80,z0,claddinghead\WObj:=wDelcam1;
    MoveL [[-48.555,10.797,45.505],[0.74168617,0.00000000,0.00000000,-0.67074707],[0,0,1,0],[9E9,9E9,9E9,9E9,9E9,9E9]],v80,z0,claddinghead\WObj:=wDelcam1;
    MoveL [[-49.655,10.532,45.505],[0.74165280,0.00000000,0.00000000,-0.67078396],[0,0,1,0],[9E9,9E9,9E9,9E9,9E9,9E9]],v80,z0,claddinghead\WObj:=wDelcam1;
    MoveL [[-50.636,9.967,45.505],[0.74155268,0.00000000,0.00000000,-0.67089465],[0,0,1,0],[9E9,9E9,9E9,9E9,9E9,9E9]],v80,z0,claddinghead\WObj:=wDelcam1;
    MoveL [[-55.876,5.814,45.505],[0.74074435,0.00000000,0.00000000,-0.67178702],[0,0,1,0],[9E9,9E9,9E9,9E9,9E9,9E9]],v80,z0,claddinghead\WObj:=wDelcam1;
    MoveL [[-56.547,5.131,45.505],[0.74060735,0.00000000,0.00000000,-0.67193806],[0,0,1,0],[9E9,9E9,9E9,9E9,9E9,9E9]],v80,z0,claddinghead\WObj:=wDelcam1;
    MoveL [[-57.059,4.242,45.505],[0.74044013,0.00000000,0.00000000,-0.67212232],[0,0,1,0],[9E9,9E9,9E9,9E9,9E9,9E9]],v80,z0,claddinghead\WObj:=wDelcam1;
    MoveL [[-57.325,3.210,45.505],[0.74020269,0.00000000,0.00000000,-0.67238380],[0,0,1,0],[9E9,9E9,9E9,9E9,9E9,9E9]],v80,z0,claddinghead\WObj:=wDelcam1;
    MoveL [[-57.302,2.146,45.505],[0.73999866,0.00000000,0.00000000,-0.67260834],[0,0,1,0],[9E9,9E9,9E9,9E9,9E9,9E9]],v80,z0,claddinghead\WObj:=wDelcam1;
    MoveL [[-57.007,1.162,45.505],[0.73976427,0.00000000,0.00000000,-0.67286613],[0,0,1,0],[9E9,9E9,9E9,9E9,9E9,9E9]],v80,z0,claddinghead\WObj:=wDelcam1;
    MoveL [[-56.509,0.345,45.505],[0.73956010,0.00000000,0.00000000,-0.67309053],[0,0,1,0],[9E9,9E9,9E9,9E9,9E9,9E9]],v80,z0,claddinghead\WObj:=wDelcam1;
    MoveL [[-53.927,-2.912,45.505],[0.73881621,0.00000000,0.00000000,-0.67390697],[0,0,1,0],[9E9,9E9,9E9,9E9,9E9,9E9]],v80,fine,claddinghead\WObj:=wDelcam1;
    ! Cutting Move Ends
    !LaserEnd;
    MoveL [[-53.927,-2.912,47.700],[0.73881621,0.00000000,0.00000000,-0.67390697],[0,0,1,0],[9E9,9E9,9E9,9E9,9E9,9E9]],v80,fine,claddinghead\WObj:=wDelcam1;
    MoveL [[-53.986,-16.272,47.700],[0.73586542,0.00000000,0.00000000,-0.67712782],[0,0,1,0],[9E9,9E9,9E9,9E9,9E9,9E9]],v80,fine,claddinghead\WObj:=wDelcam1;
    ! Plunge Move Starts
    MoveL [[-53.986,-16.272,45.505],[0.73586542,0.00000000,0.00000000,-0.67712782],[0,0,1,0],[9E9,9E9,9E9,9E9,9E9,9E9]],v80,fine,claddinghead\WObj:=wDelcam1;
    ! Cutting Move Starts
    !LaserStart;
    MoveL [[-39.594,-4.865,45.505],[0.73810501,0.00000000,0.00000000,-0.67468584],[0,0,1,0],[9E9,9E9,9E9,9E9,9E9,9E9]],v80,z0,claddinghead\WObj:=wDelcam1;
    MoveL [[-37.338,-2.728,45.505],[0.73851107,0.00000000,0.00000000,-0.67424135],[0,0,1,0],[9E9,9E9,9E9,9E9,9E9,9E9]],v80,z0,claddinghead\WObj:=wDelcam1;
    MoveL [[-35.580,-0.604,45.505],[0.73895040,0.00000000,0.00000000,-0.67375983],[0,0,1,0],[9E9,9E9,9E9,9E9,9E9,9E9]],v80,z0,claddinghead\WObj:=wDelcam1;
    MoveL [[-34.074,1.757,45.505],[0.73942606,0.00000000,0.00000000,-0.67323778],[0,0,1,0],[9E9,9E9,9E9,9E9,9E9,9E9]],v80,z0,claddinghead\WObj:=wDelcam1;
    MoveL [[-32.864,4.306,45.505],[0.73993170,0.00000000,0.00000000,-0.67268200],[0,0,1,0],[9E9,9E9,9E9,9E9,9E9,9E9]],v80,z0,claddinghead\WObj:=wDelcam1;
    MoveL [[-31.981,6.987,45.505],[0.74050702,0.00000000,0.00000000,-0.67204862],[0,0,1,0],[9E9,9E9,9E9,9E9,9E9,9E9]],v80,z0,claddinghead\WObj:=wDelcam1;
    MoveL [[-31.442,9.735,45.505],[0.74107854,0.00000000,0.00000000,-0.67141835],[0,0,1,0],[9E9,9E9,9E9,9E9,9E9,9E9]],v80,z0,claddinghead\WObj:=wDelcam1;
    MoveL [[-31.249,12.486,45.505],[0.74168617,0.00000000,0.00000000,-0.67074707],[0,0,1,0],[9E9,9E9,9E9,9E9,9E9,9E9]],v80,z0,claddinghead\WObj:=wDelcam1;
    MoveL [[-31.238,16.745,45.505],[0.74259651,0.00000000,0.00000000,-0.66973907],[0,0,1,0],[9E9,9E9,9E9,9E9,9E9,9E9]],v80,z0,claddinghead\WObj:=wDelcam1;
    MoveL [[-31.361,22.717,45.505],[0.74387468,0.00000000,0.00000000,-0.66831913],[0,0,1,0],[9E9,9E9,9E9,9E9,9E9,9E9]],v80,z0,claddinghead\WObj:=wDelcam1;
    MoveL [[-31.510,23.426,45.505],[0.74401114,0.00000000,0.00000000,-0.66816722],[0,0,1,0],[9E9,9E9,9E9,9E9,9E9,9E9]],v80,z0,claddinghead\WObj:=wDelcam1;
    MoveL [[-31.853,24.064,45.505],[0.74417719,0.00000000,0.00000000,-0.66798227],[0,0,1,0],[9E9,9E9,9E9,9E9,9E9,9E9]],v80,z0,claddinghead\WObj:=wDelcam1;
    MoveL [[-32.524,24.751,45.505],[0.74430999,0.00000000,0.00000000,-0.66783429],[0,0,1,0],[9E9,9E9,9E9,9E9,9E9,9E9]],v80,z0,claddinghead\WObj:=wDelcam1;
    MoveL [[-33.369,25.208,45.505],[0.74444637,0.00000000,0.00000000,-0.66768226],[0,0,1,0],[9E9,9E9,9E9,9E9,9E9,9E9]],v80,z0,claddinghead\WObj:=wDelcam1;
    MoveL [[-33.909,25.343,45.505],[0.74447956,0.00000000,0.00000000,-0.66764526],[0,0,1,0],[9E9,9E9,9E9,9E9,9E9,9E9]],v80,z0,claddinghead\WObj:=wDelcam1;
    MoveL [[-34.464,25.360,45.505],[0.74451274,0.00000000,0.00000000,-0.66760825],[0,0,1,0],[9E9,9E9,9E9,9E9,9E9,9E9]],v80,z0,claddinghead\WObj:=wDelcam1;
    MoveL [[-35.099,25.205,45.505],[0.74447956,0.00000000,0.00000000,-0.66764526],[0,0,1,0],[9E9,9E9,9E9,9E9,9E9,9E9]],v80,z0,claddinghead\WObj:=wDelcam1;
    MoveL [[-35.667,24.883,45.505],[0.74444637,0.00000000,0.00000000,-0.66768226],[0,0,1,0],[9E9,9E9,9E9,9E9,9E9,9E9]],v80,z0,claddinghead\WObj:=wDelcam1;
    MoveL [[-36.231,24.306,45.505],[0.74430999,0.00000000,0.00000000,-0.66783429],[0,0,1,0],[9E9,9E9,9E9,9E9,9E9,9E9]],v80,z0,claddinghead\WObj:=wDelcam1;
    MoveL [[-36.607,23.591,45.505],[0.74417719,0.00000000,0.00000000,-0.66798227],[0,0,1,0],[9E9,9E9,9E9,9E9,9E9,9E9]],v80,z0,claddinghead\WObj:=wDelcam1;
    MoveL [[-36.808,22.837,45.505],[0.74401114,0.00000000,0.00000000,-0.66816722],[0,0,1,0],[9E9,9E9,9E9,9E9,9E9,9E9]],v80,z0,claddinghead\WObj:=wDelcam1;
    MoveL [[-36.869,22.059,45.505],[0.74384145,0.00000000,0.00000000,-0.66835611],[0,0,1,0],[9E9,9E9,9E9,9E9,9E9,9E9]],v80,fine,claddinghead\WObj:=wDelcam1;
    ! Cutting Move Ends
    !LaserEnd;
    MoveL [[-36.869,22.059,47.700],[0.74384145,0.00000000,0.00000000,-0.66835611],[0,0,1,0],[9E9,9E9,9E9,9E9,9E9,9E9]],v80,fine,claddinghead\WObj:=wDelcam1;
    MoveL [[-31.920,-73.441,47.700],[0.72284141,0.00000000,0.00000000,-0.69101396],[0,0,1,0],[9E9,9E9,9E9,9E9,9E9,9E9]],v80,fine,claddinghead\WObj:=wDelcam1;
    ! Plunge Move Starts
    MoveL [[-31.920,-73.441,45.505],[0.72284141,0.00000000,0.00000000,-0.69101396],[0,0,1,0],[9E9,9E9,9E9,9E9,9E9,9E9]],v80,fine,claddinghead\WObj:=wDelcam1;
    ! Cutting Move Starts
    !LaserStart;
    MoveL [[-32.092,-72.689,45.505],[0.72301396,0.00000000,0.00000000,-0.69083342],[0,0,1,0],[9E9,9E9,9E9,9E9,9E9,9E9]],v80,z0,claddinghead\WObj:=wDelcam1;
    MoveL [[-32.496,-71.918,45.505],[0.72318805,0.00000000,0.00000000,-0.69065118],[0,0,1,0],[9E9,9E9,9E9,9E9,9E9,9E9]],v80,z0,claddinghead\WObj:=wDelcam1;
    MoveL [[-33.159,-71.234,45.505],[0.72336051,0.00000000,0.00000000,-0.69047055],[0,0,1,0],[9E9,9E9,9E9,9E9,9E9,9E9]],v80,z0,claddinghead\WObj:=wDelcam1;
    MoveL [[-34.039,-70.760,45.505],[0.72346396,0.00000000,0.00000000,-0.69036215],[0,0,1,0],[9E9,9E9,9E9,9E9,9E9,9E9]],v80,z0,claddinghead\WObj:=wDelcam1;
    MoveL [[-35.022,-70.582,45.505],[0.72353292,0.00000000,0.00000000,-0.69028988],[0,0,1,0],[9E9,9E9,9E9,9E9,9E9,9E9]],v80,z0,claddinghead\WObj:=wDelcam1;
    MoveL [[-35.966,-70.703,45.505],[0.72349844,0.00000000,0.00000000,-0.69032602],[0,0,1,0],[9E9,9E9,9E9,9E9,9E9,9E9]],v80,z0,claddinghead\WObj:=wDelcam1;
    MoveL [[-36.763,-71.054,45.505],[0.72342948,0.00000000,0.00000000,-0.69039828],[0,0,1,0],[9E9,9E9,9E9,9E9,9E9,9E9]],v80,z0,claddinghead\WObj:=wDelcam1;
    MoveL [[-37.366,-71.535,45.505],[0.72332602,0.00000000,0.00000000,-0.69050668],[0,0,1,0],[9E9,9E9,9E9,9E9,9E9,9E9]],v80,z0,claddinghead\WObj:=wDelcam1;
    MoveL [[-38.433,-72.695,45.505],[0.72308297,0.00000000,0.00000000,-0.69076119],[0,0,1,0],[9E9,9E9,9E9,9E9,9E9,9E9]],v80,z0,claddinghead\WObj:=wDelcam1;
    MoveL [[-38.752,-73.295,45.505],[0.72294495,0.00000000,0.00000000,-0.69090564],[0,0,1,0],[9E9,9E9,9E9,9E9,9E9,9E9]],v80,z0,claddinghead\WObj:=wDelcam1;
    MoveL [[-38.953,-74.060,45.505],[0.72277238,0.00000000,0.00000000,-0.69108617],[0,0,1,0],[9E9,9E9,9E9,9E9,9E9,9E9]],v80,z0,claddinghead\WObj:=wDelcam1;
    MoveL [[-38.945,-74.962,45.505],[0.72259975,0.00000000,0.00000000,-0.69126666],[0,0,1,0],[9E9,9E9,9E9,9E9,9E9,9E9]],v80,z0,claddinghead\WObj:=wDelcam1;
    MoveL [[-38.644,-75.910,45.505],[0.72235799,0.00000000,0.00000000,-0.69151929],[0,0,1,0],[9E9,9E9,9E9,9E9,9E9,9E9]],v80,z0,claddinghead\WObj:=wDelcam1;
    MoveL [[-38.027,-76.757,45.505],[0.72218375,0.00000000,0.00000000,-0.69170126],[0,0,1,0],[9E9,9E9,9E9,9E9,9E9,9E9]],v80,z0,claddinghead\WObj:=wDelcam1;
    MoveL [[-37.169,-77.359,45.505],[0.72201097,0.00000000,0.00000000,-0.69188161],[0,0,1,0],[9E9,9E9,9E9,9E9,9E9,9E9]],v80,z0,claddinghead\WObj:=wDelcam1;
    MoveL [[-36.216,-77.643,45.505],[0.72194184,0.00000000,0.00000000,-0.69195374],[0,0,1,0],[9E9,9E9,9E9,9E9,9E9,9E9]],v80,z0,claddinghead\WObj:=wDelcam1;
    MoveL [[-35.314,-77.636,45.505],[0.72194184,0.00000000,0.00000000,-0.69195374],[0,0,1,0],[9E9,9E9,9E9,9E9,9E9,9E9]],v80,z0,claddinghead\WObj:=wDelcam1;
    MoveL [[-34.553,-77.421,45.505],[0.72197640,0.00000000,0.00000000,-0.69191768],[0,0,1,0],[9E9,9E9,9E9,9E9,9E9,9E9]],v80,z0,claddinghead\WObj:=wDelcam1;
    MoveL [[-33.959,-77.092,45.505],[0.72204553,0.00000000,0.00000000,-0.69184554],[0,0,1,0],[9E9,9E9,9E9,9E9,9E9,9E9]],v80,z0,claddinghead\WObj:=wDelcam1;
    MoveL [[-32.818,-76.005,45.505],[0.72228740,0.00000000,0.00000000,-0.69159303],[0,0,1,0],[9E9,9E9,9E9,9E9,9E9,9E9]],v80,z0,claddinghead\WObj:=wDelcam1;
    MoveL [[-32.272,-75.258,45.505],[0.72246162,0.00000000,0.00000000,-0.69141103],[0,0,1,0],[9E9,9E9,9E9,9E9,9E9,9E9]],v80,z0,claddinghead\WObj:=wDelcam1;
    MoveL [[-31.960,-74.365,45.505],[0.72263428,0.00000000,0.00000000,-0.69123056],[0,0,1,0],[9E9,9E9,9E9,9E9,9E9,9E9]],v80,z0,claddinghead\WObj:=wDelcam1;
    MoveL [[-31.920,-73.441,45.505],[0.72284141,0.00000000,0.00000000,-0.69101396],[0,0,1,0],[9E9,9E9,9E9,9E9,9E9,9E9]],v80,fine,claddinghead\WObj:=wDelcam1;
    ! Cutting Move Ends
    !LaserEnd;
    MoveL [[-13.426,-72.151,45.505],[0.72294495,0.00000000,0.00000000,-0.69090564],[0,0,1,0],[9E9,9E9,9E9,9E9,9E9,9E9]],v80,fine,claddinghead\WObj:=wDelcam1;
    ! Cutting Move Starts
    !LaserStart;
    MoveL [[-13.010,-72.627,45.505],[0.72284141,0.00000000,0.00000000,-0.69101396],[0,0,1,0],[9E9,9E9,9E9,9E9,9E9,9E9]],v80,z0,claddinghead\WObj:=wDelcam1;
    MoveL [[-12.649,-73.284,45.505],[0.72270333,0.00000000,0.00000000,-0.69115837],[0,0,1,0],[9E9,9E9,9E9,9E9,9E9,9E9]],v80,z0,claddinghead\WObj:=wDelcam1;
    MoveL [[-12.435,-74.135,45.505],[0.72249615,0.00000000,0.00000000,-0.69137494],[0,0,1,0],[9E9,9E9,9E9,9E9,9E9,9E9]],v80,z0,claddinghead\WObj:=wDelcam1;
    MoveL [[-12.484,-75.129,45.505],[0.72228740,0.00000000,0.00000000,-0.69159303],[0,0,1,0],[9E9,9E9,9E9,9E9,9E9,9E9]],v80,z0,claddinghead\WObj:=wDelcam1;
    MoveL [[-12.882,-76.138,45.505],[0.72208009,0.00000000,0.00000000,-0.69180947],[0,0,1,0],[9E9,9E9,9E9,9E9,9E9,9E9]],v80,z0,claddinghead\WObj:=wDelcam1;
    MoveL [[-13.621,-76.976,45.505],[0.72190727,0.00000000,0.00000000,-0.69198981],[0,0,1,0],[9E9,9E9,9E9,9E9,9E9,9E9]],v80,z0,claddinghead\WObj:=wDelcam1;
    MoveL [[-14.572,-77.497,45.505],[0.72180355,0.00000000,0.00000000,-0.69209799],[0,0,1,0],[9E9,9E9,9E9,9E9,9E9,9E9]],v80,z0,claddinghead\WObj:=wDelcam1;
    MoveL [[-15.553,-77.669,45.505],[0.72176898,0.00000000,0.00000000,-0.69213405],[0,0,1,0],[9E9,9E9,9E9,9E9,9E9,9E9]],v80,z0,claddinghead\WObj:=wDelcam1;
    MoveL [[-16.423,-77.563,45.505],[0.72180355,0.00000000,0.00000000,-0.69209799],[0,0,1,0],[9E9,9E9,9E9,9E9,9E9,9E9]],v80,z0,claddinghead\WObj:=wDelcam1;
    MoveL [[-17.120,-77.287,45.505],[0.72187270,0.00000000,0.00000000,-0.69202587],[0,0,1,0],[9E9,9E9,9E9,9E9,9E9,9E9]],v80,z0,claddinghead\WObj:=wDelcam1;
    MoveL [[-17.645,-76.933,45.505],[0.72194184,0.00000000,0.00000000,-0.69195374],[0,0,1,0],[9E9,9E9,9E9,9E9,9E9,9E9]],v80,z0,claddinghead\WObj:=wDelcam1;
    MoveL [[-18.905,-75.617,45.505],[0.72225285,0.00000000,0.00000000,-0.69162911],[0,0,1,0],[9E9,9E9,9E9,9E9,9E9,9E9]],v80,z0,claddinghead\WObj:=wDelcam1;
    MoveL [[-19.283,-74.910,45.505],[0.72239254,0.00000000,0.00000000,-0.69148321],[0,0,1,0],[9E9,9E9,9E9,9E9,9E9,9E9]],v80,z0,claddinghead\WObj:=wDelcam1;
    MoveL [[-19.474,-74.131,45.505],[0.72256522,0.00000000,0.00000000,-0.69130275],[0,0,1,0],[9E9,9E9,9E9,9E9,9E9,9E9]],v80,z0,claddinghead\WObj:=wDelcam1;
    MoveL [[-19.440,-73.182,45.505],[0.72277238,0.00000000,0.00000000,-0.69108617],[0,0,1,0],[9E9,9E9,9E9,9E9,9E9,9E9]],v80,z0,claddinghead\WObj:=wDelcam1;
    MoveL [[-19.092,-72.218,45.505],[0.72297946,0.00000000,0.00000000,-0.69086953],[0,0,1,0],[9E9,9E9,9E9,9E9,9E9,9E9]],v80,z0,claddinghead\WObj:=wDelcam1;
    MoveL [[-18.435,-71.396,45.505],[0.72318805,0.00000000,0.00000000,-0.69065118],[0,0,1,0],[9E9,9E9,9E9,9E9,9E9,9E9]],v80,z0,claddinghead\WObj:=wDelcam1;
    MoveL [[-17.572,-70.844,45.505],[0.72329153,0.00000000,0.00000000,-0.69054280],[0,0,1,0],[9E9,9E9,9E9,9E9,9E9,9E9]],v80,z0,claddinghead\WObj:=wDelcam1;
    MoveL [[-16.653,-70.602,45.505],[0.72332602,0.00000000,0.00000000,-0.69050668],[0,0,1,0],[9E9,9E9,9E9,9E9,9E9,9E9]],v80,z0,claddinghead\WObj:=wDelcam1;
    MoveL [[-15.807,-70.620,45.505],[0.72332602,0.00000000,0.00000000,-0.69050668],[0,0,1,0],[9E9,9E9,9E9,9E9,9E9,9E9]],v80,z0,claddinghead\WObj:=wDelcam1;
    MoveL [[-14.982,-70.868,45.505],[0.72325704,0.00000000,0.00000000,-0.69057893],[0,0,1,0],[9E9,9E9,9E9,9E9,9E9,9E9]],v80,z0,claddinghead\WObj:=wDelcam1;
    MoveL [[-14.266,-71.320,45.505],[0.72315196,0.00000000,0.00000000,-0.69068896],[0,0,1,0],[9E9,9E9,9E9,9E9,9E9,9E9]],v80,z0,claddinghead\WObj:=wDelcam1;
    MoveL [[-13.426,-72.151,45.505],[0.72294495,0.00000000,0.00000000,-0.69090564],[0,0,1,0],[9E9,9E9,9E9,9E9,9E9,9E9]],v80,fine,claddinghead\WObj:=wDelcam1;
    !LaserEnd;
    !DeActUnit STN1;
  ENDPROC
ENDMODULE
